; generated by Slic3r 1.34.1-prusa3d-win64 on 2017-06-11 at 11:50:56

; Buse OEV5 - diamètre 0,4mm

; external perimeters extrusion width = 0.40mm
; perimeters extrusion width = 0.40mm
; infill extrusion width = 0.40mm
; solid infill extrusion width = 0.40mm
; top infill extrusion width = 0.40mm
; support material extrusion width = 0.40mm

M107 ; disable fan
M109 S205
G28 ; home all axes
G29
G0 Z0
G21 ; set units to millimeters
G90 ; use absolute coordinates
M82 ; use absolute distances for extrusion
G92 E0 ; reset extrusion distance
G1 E-6.00000 F3000.00000 ; retract
G92 E0 ; reset extrusion distance
G1 Z0.200 F7500.000 ; move to next layer (0)
G1 X74.912 Y96.578 F7500.000 ; move to first skirt point
G1 E6.00000 F3000.00000 ; unretract
G1 F960
G1 X76.420 Y95.567 E6.05996 ; skirt
G1 X78.085 Y94.699 E6.12195 ; skirt
G1 X79.877 Y94.009 E6.18535 ; skirt
G1 X81.719 Y93.533 E6.24815 ; skirt
G1 X83.706 Y93.260 E6.31440 ; skirt
G1 X113.307 Y93.213 E7.29172 ; skirt
G1 X114.542 Y93.280 E7.33257 ; skirt
G1 X116.158 Y93.510 E7.38645 ; skirt
G1 X118.406 Y94.105 E7.46326 ; skirt
G1 X119.817 Y94.656 E7.51326 ; skirt
G1 X120.831 Y95.147 E7.55046 ; skirt
G1 X121.877 Y95.749 E7.59030 ; skirt
G1 X123.214 Y96.673 E7.64397 ; skirt
G1 X124.153 Y97.450 E7.68421 ; skirt
G1 X125.290 Y98.560 E7.73668 ; skirt
G1 X126.103 Y99.501 E7.77772 ; skirt
G1 X126.999 Y100.731 E7.82796 ; skirt
G1 X128.156 Y102.775 E7.90553 ; skirt
G1 X128.746 Y104.172 E7.95558 ; skirt
G1 X129.161 Y105.446 E7.99984 ; skirt
G1 X129.499 Y106.893 E8.04889 ; skirt
G1 X129.686 Y108.127 E8.09010 ; skirt
G1 X129.789 Y109.829 E8.14641 ; skirt
G1 X129.764 Y110.956 E8.18360 ; skirt
G1 X129.644 Y112.194 E8.22469 ; skirt
G1 X129.365 Y113.757 E8.27712 ; skirt
G1 X129.040 Y114.958 E8.31820 ; skirt
G1 X128.525 Y116.395 E8.36860 ; skirt
G1 X127.978 Y117.587 E8.41190 ; skirt
G1 X127.233 Y118.906 E8.46192 ; skirt
G1 X125.846 Y120.811 E8.53971 ; skirt
G1 X124.828 Y121.917 E8.58933 ; skirt
G1 X123.905 Y122.767 E8.63078 ; skirt
G1 X122.648 Y123.741 E8.68326 ; skirt
G1 X121.580 Y124.433 E8.72530 ; skirt
G1 X119.898 Y125.309 E8.78790 ; skirt
G1 X118.029 Y126.020 E8.85394 ; skirt
G1 X116.167 Y126.489 E8.91734 ; skirt
G1 X113.775 Y126.770 E8.99685 ; skirt
G1 X84.675 Y126.787 E9.95765 ; skirt
G1 X82.778 Y126.642 E10.02046 ; skirt
G1 X80.797 Y126.256 E10.08711 ; skirt
G1 X78.985 Y125.677 E10.14992 ; skirt
G1 X77.229 Y124.884 E10.21353 ; skirt
G1 X75.616 Y123.923 E10.27553 ; skirt
G1 X74.078 Y122.753 E10.33935 ; skirt
G1 X72.710 Y121.440 E10.40195 ; skirt
G1 X71.491 Y119.971 E10.46495 ; skirt
G1 X70.475 Y118.422 E10.52614 ; skirt
G1 X69.847 Y117.230 E10.57061 ; skirt
G1 X69.145 Y115.529 E10.63138 ; skirt
G1 X68.646 Y113.808 E10.69053 ; skirt
G1 X68.355 Y112.189 E10.74486 ; skirt
G1 X68.230 Y110.836 E10.78971 ; skirt
G1 X68.236 Y109.050 E10.84866 ; skirt
G1 X68.432 Y107.276 E10.90761 ; skirt
G1 X68.709 Y105.943 E10.95255 ; skirt
G1 X69.183 Y104.364 E11.00701 ; skirt
G1 X69.872 Y102.716 E11.06596 ; skirt
G1 X70.757 Y101.109 E11.12653 ; skirt
G1 X71.498 Y100.020 E11.17002 ; skirt
G1 X72.584 Y98.697 E11.22654 ; skirt
G1 X73.855 Y97.443 E11.28549 ; skirt
G1 X74.866 Y96.616 E11.32860 ; skirt
G1 E5.32860 F3000.00000 ; retract
G92 E0 ; reset extrusion distance
G1 X74.300 Y97.580 F7500.000 ; move to first skirt point
G1 E6.00000 F3000.00000 ; unretract
G1 F960
G1 X75.579 Y96.585 E6.05352 ; skirt
G1 X76.676 Y95.877 E6.09663 ; skirt
G1 X78.257 Y95.057 E6.15541 ; skirt
G1 X80.007 Y94.385 E6.21733 ; skirt
G1 X81.800 Y93.921 E6.27847 ; skirt
G1 X83.741 Y93.655 E6.34314 ; skirt
G1 X113.306 Y93.610 E7.31933 ; skirt
G1 X114.504 Y93.676 E7.35892 ; skirt
G1 X116.096 Y93.902 E7.41200 ; skirt
G1 X118.314 Y94.494 E7.48782 ; skirt
G1 X119.694 Y95.035 E7.53677 ; skirt
G1 X120.788 Y95.575 E7.57705 ; skirt
G1 X122.122 Y96.379 E7.62846 ; skirt
G1 X123.138 Y97.118 E7.66995 ; skirt
G1 X124.293 Y98.117 E7.72036 ; skirt
G1 X125.139 Y98.982 E7.76030 ; skirt
G1 X126.131 Y100.187 E7.81185 ; skirt
G1 X126.804 Y101.157 E7.85084 ; skirt
G1 X127.598 Y102.543 E7.90355 ; skirt
G1 X128.096 Y103.607 E7.94237 ; skirt
G1 X128.902 Y106.026 E8.02654 ; skirt
G1 X129.302 Y108.270 E8.10181 ; skirt
G1 X129.393 Y109.876 E8.15491 ; skirt
G1 X129.360 Y111.039 E8.19333 ; skirt
G1 X129.180 Y112.631 E8.24622 ; skirt
G1 X128.970 Y113.703 E8.28228 ; skirt
G1 X128.654 Y114.862 E8.32194 ; skirt
G1 X128.119 Y116.338 E8.37378 ; skirt
G1 X127.610 Y117.433 E8.41366 ; skirt
G1 X126.840 Y118.787 E8.46508 ; skirt
G1 X126.151 Y119.787 E8.50519 ; skirt
G1 X125.215 Y120.933 E8.55403 ; skirt
G1 X123.573 Y122.527 E8.62960 ; skirt
G1 X122.397 Y123.432 E8.67861 ; skirt
G1 X121.324 Y124.123 E8.72074 ; skirt
G1 X119.645 Y124.986 E8.78305 ; skirt
G1 X117.425 Y125.783 E8.86096 ; skirt
G1 X115.399 Y126.217 E8.92937 ; skirt
G1 X113.620 Y126.381 E8.98835 ; skirt
G1 X84.676 Y126.390 E9.94400 ; skirt
G1 X82.812 Y126.247 E10.00571 ; skirt
G1 X80.891 Y125.871 E10.07035 ; skirt
G1 X79.117 Y125.302 E10.13186 ; skirt
G1 X77.403 Y124.527 E10.19396 ; skirt
G1 X75.809 Y123.575 E10.25528 ; skirt
G1 X74.328 Y122.444 E10.31679 ; skirt
G1 X72.977 Y121.144 E10.37869 ; skirt
G1 X71.717 Y119.608 E10.44429 ; skirt
G1 X70.727 Y118.064 E10.50484 ; skirt
G1 X69.988 Y116.583 E10.55950 ; skirt
G1 X69.499 Y115.333 E10.60382 ; skirt
G1 X69.023 Y113.673 E10.66083 ; skirt
G1 X68.715 Y111.889 E10.72060 ; skirt
G1 X68.608 Y110.142 E10.77841 ; skirt
G1 X68.641 Y108.937 E10.81820 ; skirt
G1 X68.843 Y107.222 E10.87521 ; skirt
G1 X69.227 Y105.533 E10.93240 ; skirt
G1 X69.827 Y103.795 E10.99313 ; skirt
G1 X70.371 Y102.604 E11.03634 ; skirt
G1 X71.182 Y101.178 E11.09051 ; skirt
G1 X72.173 Y99.793 E11.14673 ; skirt
G1 X73.057 Y98.771 E11.19136 ; skirt
G1 X74.256 Y97.622 E11.24620 ; skirt
G1 X74.527 Y97.916 F7500.000 ; move to first skirt point
G1 F960
G1 X74.639 Y97.813 E11.25121 ; skirt
G1 X75.999 Y96.776 E11.30767 ; skirt
G1 X77.326 Y95.966 E11.35901 ; skirt
G1 X79.177 Y95.101 E11.42646 ; skirt
G1 X80.889 Y94.541 E11.48595 ; skirt
G1 X82.705 Y94.169 E11.54714 ; skirt
G1 X84.408 Y94.015 E11.60360 ; skirt
G1 X113.306 Y94.007 E12.55775 ; skirt
G1 X114.477 Y94.072 E12.59647 ; skirt
G1 X116.106 Y94.308 E12.65081 ; skirt
G1 X117.277 Y94.588 E12.69057 ; skirt
G1 X118.638 Y95.031 E12.73782 ; skirt
G1 X119.807 Y95.525 E12.77972 ; skirt
G1 X121.092 Y96.202 E12.82767 ; skirt
G1 X122.919 Y97.451 E12.90077 ; skirt
G1 X124.027 Y98.412 E12.94919 ; skirt
G1 X124.853 Y99.258 E12.98822 ; skirt
G1 X125.823 Y100.438 E13.03866 ; skirt
G1 X126.493 Y101.408 E13.07757 ; skirt
G1 X127.254 Y102.743 E13.12832 ; skirt
G1 X127.748 Y103.803 E13.16691 ; skirt
G1 X128.125 Y104.795 E13.20196 ; skirt
G1 X128.570 Y106.330 E13.25474 ; skirt
G1 X128.787 Y107.425 E13.29160 ; skirt
G1 X128.970 Y109.062 E13.34598 ; skirt
G1 X128.996 Y110.127 E13.38114 ; skirt
G1 X128.907 Y111.684 E13.43265 ; skirt
G1 X128.746 Y112.817 E13.47043 ; skirt
G1 X128.394 Y114.348 E13.52230 ; skirt
G1 X127.656 Y116.408 E13.59455 ; skirt
G1 X126.468 Y118.631 E13.67776 ; skirt
G1 X125.815 Y119.572 E13.71558 ; skirt
G1 X124.827 Y120.770 E13.76686 ; skirt
G1 X124.016 Y121.598 E13.80511 ; skirt
G1 X122.864 Y122.593 E13.85538 ; skirt
G1 X121.911 Y123.285 E13.89427 ; skirt
G1 X120.669 Y124.037 E13.94220 ; skirt
G1 X118.823 Y124.899 E14.00946 ; skirt
G1 X117.105 Y125.461 E14.06914 ; skirt
G1 X115.290 Y125.832 E14.13033 ; skirt
G1 X113.558 Y125.987 E14.18774 ; skirt
G1 X84.677 Y125.993 E15.14132 ; skirt
G1 X82.830 Y125.849 E15.20246 ; skirt
G1 X80.979 Y125.483 E15.26475 ; skirt
G1 X79.249 Y124.927 E15.32476 ; skirt
G1 X77.588 Y124.176 E15.38497 ; skirt
G1 X76.018 Y123.237 E15.44536 ; skirt
G1 X74.566 Y122.125 E15.50575 ; skirt
G1 X73.178 Y120.776 E15.56966 ; skirt
G1 X72.021 Y119.350 E15.63028 ; skirt
G1 X71.048 Y117.826 E15.68996 ; skirt
G1 X70.266 Y116.229 E15.74870 ; skirt
G1 X69.725 Y114.743 E15.80090 ; skirt
G1 X69.390 Y113.496 E15.84353 ; skirt
G1 X69.106 Y111.816 E15.89980 ; skirt
G1 X69.004 Y110.103 E15.95646 ; skirt
G1 X69.049 Y108.827 E15.99860 ; skirt
G1 X69.240 Y107.256 E16.05085 ; skirt
G1 X69.635 Y105.547 E16.10879 ; skirt
G1 X70.205 Y103.917 E16.16578 ; skirt
G1 X70.740 Y102.754 E16.20807 ; skirt
G1 X71.529 Y101.373 E16.26054 ; skirt
G1 X72.551 Y99.955 E16.31829 ; skirt
G1 X73.702 Y98.676 E16.37508 ; skirt
G1 X74.483 Y97.956 E16.41016 ; skirt
G1 E10.41016 F3000.00000 ; retract
G92 E0 ; reset extrusion distance
G1 X119.058 Y117.934 F7500.000 ; move to first perimeter point
G1 E6.00000 F3000.00000 ; unretract
G1 F960
G1 X118.597 Y118.265 E6.01873 ; perimeter
G1 X118.221 Y118.507 E6.03348 ; perimeter
G1 X117.625 Y118.846 E6.05613 ; perimeter
G1 X117.118 Y119.093 E6.07474 ; perimeter
G1 X116.597 Y119.312 E6.09343 ; perimeter
G1 X116.063 Y119.501 E6.11212 ; perimeter
G1 X115.520 Y119.659 E6.13080 ; perimeter
G1 X114.968 Y119.787 E6.14950 ; perimeter
G1 X114.527 Y119.863 E6.16428 ; perimeter
G1 X113.845 Y119.947 E6.18695 ; perimeter
G1 X113.283 Y119.979 E6.20555 ; perimeter
G1 X112.717 Y119.979 E6.22423 ; perimeter
G1 X112.152 Y119.947 E6.24292 ; perimeter
G1 X111.592 Y119.883 E6.26152 ; perimeter
G1 X110.917 Y119.761 E6.28419 ; perimeter
G1 X110.481 Y119.660 E6.29896 ; perimeter
G1 X109.937 Y119.501 E6.31766 ; perimeter
G1 X109.403 Y119.312 E6.33635 ; perimeter
G1 X108.882 Y119.093 E6.35504 ; perimeter
G1 X108.373 Y118.845 E6.37372 ; perimeter
G1 X107.879 Y118.569 E6.39241 ; perimeter
G1 X107.402 Y118.265 E6.41110 ; perimeter
G1 X106.942 Y117.934 E6.42978 ; perimeter
G1 X106.502 Y117.578 E6.44847 ; perimeter
G1 X106.085 Y117.199 E6.46710 ; perimeter
G1 X105.608 Y116.708 E6.48967 ; perimeter
G1 X105.241 Y116.280 E6.50830 ; perimeter
G1 X104.897 Y115.830 E6.52699 ; perimeter
G1 X104.579 Y115.361 E6.54571 ; perimeter
G1 X104.348 Y114.978 E6.56047 ; perimeter
G1 X104.026 Y114.373 E6.58311 ; perimeter
G1 X103.794 Y113.859 E6.60173 ; perimeter
G1 X103.590 Y113.331 E6.62042 ; perimeter
G1 X103.416 Y112.792 E6.63910 ; perimeter
G1 X103.273 Y112.245 E6.65779 ; perimeter
G1 X103.161 Y111.690 E6.67649 ; perimeter
G1 X103.098 Y111.247 E6.69126 ; perimeter
G1 X103.033 Y110.563 E6.71394 ; perimeter
G1 X103.017 Y110.000 E6.73253 ; perimeter
G1 X103.033 Y109.434 E6.75122 ; perimeter
G1 X103.081 Y108.870 E6.76991 ; perimeter
G1 X103.161 Y108.313 E6.78851 ; perimeter
G1 X103.302 Y107.641 E6.81118 ; perimeter
G1 X103.416 Y107.208 E6.82594 ; perimeter
G1 X103.590 Y106.669 E6.84465 ; perimeter
G1 X103.794 Y106.141 E6.86334 ; perimeter
G1 X104.027 Y105.625 E6.88202 ; perimeter
G1 X104.290 Y105.124 E6.90071 ; perimeter
G1 X104.579 Y104.640 E6.91933 ; perimeter
G1 X104.967 Y104.075 E6.94197 ; perimeter
G1 X105.240 Y103.721 E6.95672 ; perimeter
G1 X105.609 Y103.290 E6.97545 ; perimeter
G1 X106.002 Y102.882 E6.99414 ; perimeter
G1 X106.415 Y102.498 E7.01277 ; perimeter
G1 X106.944 Y102.065 E7.03534 ; perimeter
G1 X107.402 Y101.735 E7.05397 ; perimeter
G1 X107.879 Y101.431 E7.07266 ; perimeter
G1 X108.373 Y101.155 E7.09134 ; perimeter
G1 X108.882 Y100.907 E7.11003 ; perimeter
G1 X109.404 Y100.688 E7.12874 ; perimeter
G1 X109.825 Y100.537 E7.14350 ; perimeter
G1 X110.483 Y100.340 E7.16617 ; perimeter
G1 X111.032 Y100.213 E7.18477 ; perimeter
G1 X111.590 Y100.117 E7.20346 ; perimeter
G1 X112.152 Y100.053 E7.22215 ; perimeter
G1 X112.714 Y100.022 E7.24074 ; perimeter
G1 X113.401 Y100.028 E7.26342 ; perimeter
G1 X113.848 Y100.053 E7.27820 ; perimeter
G1 X114.410 Y100.117 E7.29689 ; perimeter
G1 X114.968 Y100.213 E7.31558 ; perimeter
G1 X115.517 Y100.340 E7.33418 ; perimeter
G1 X116.175 Y100.537 E7.35684 ; perimeter
G1 X116.596 Y100.688 E7.37161 ; perimeter
G1 X117.118 Y100.907 E7.39032 ; perimeter
G1 X117.627 Y101.155 E7.40900 ; perimeter
G1 X118.121 Y101.431 E7.42769 ; perimeter
G1 X118.598 Y101.735 E7.44638 ; perimeter
G1 X119.058 Y102.066 E7.46506 ; perimeter
G1 X119.498 Y102.422 E7.48375 ; perimeter
G1 X119.915 Y102.801 E7.50238 ; perimeter
G1 X120.392 Y103.292 E7.52495 ; perimeter
G1 X120.759 Y103.720 E7.54358 ; perimeter
G1 X121.103 Y104.170 E7.56227 ; perimeter
G1 X121.421 Y104.639 E7.58099 ; perimeter
G1 X121.652 Y105.022 E7.59575 ; perimeter
G1 X121.974 Y105.627 E7.61840 ; perimeter
G1 X122.206 Y106.141 E7.63701 ; perimeter
G1 X122.410 Y106.669 E7.65570 ; perimeter
G1 X122.584 Y107.208 E7.67438 ; perimeter
G1 X122.727 Y107.755 E7.69307 ; perimeter
G1 X122.839 Y108.310 E7.71177 ; perimeter
G1 X122.902 Y108.753 E7.72654 ; perimeter
G1 X122.967 Y109.437 E7.74922 ; perimeter
G1 X122.983 Y110.000 E7.76781 ; perimeter
G1 X122.967 Y110.566 E7.78650 ; perimeter
G1 X122.919 Y111.130 E7.80519 ; perimeter
G1 X122.839 Y111.687 E7.82379 ; perimeter
G1 X122.698 Y112.359 E7.84646 ; perimeter
G1 X122.584 Y112.792 E7.86123 ; perimeter
G1 X122.410 Y113.331 E7.87993 ; perimeter
G1 X122.206 Y113.859 E7.89862 ; perimeter
G1 X121.974 Y114.373 E7.91723 ; perimeter
G1 X121.652 Y114.978 E7.93988 ; perimeter
G1 X121.421 Y115.361 E7.95464 ; perimeter
G1 X121.103 Y115.830 E7.97336 ; perimeter
G1 X120.759 Y116.280 E7.99205 ; perimeter
G1 X120.392 Y116.708 E8.01068 ; perimeter
G1 X119.915 Y117.199 E8.03325 ; perimeter
G1 X119.498 Y117.578 E8.05188 ; perimeter
G1 X119.104 Y117.896 E8.06858 ; perimeter
G1 X119.299 Y118.250 F7500.000 ; move to first perimeter point
G1 F864
G1 X118.821 Y118.594 E8.08803 ; perimeter
G1 X118.427 Y118.847 E8.10348 ; perimeter
G1 X117.811 Y119.198 E8.12690 ; perimeter
G1 X117.282 Y119.455 E8.14630 ; perimeter
G1 X116.740 Y119.683 E8.16573 ; perimeter
G1 X116.185 Y119.879 E8.18516 ; perimeter
G1 X115.620 Y120.044 E8.20459 ; perimeter
G1 X115.046 Y120.176 E8.22403 ; perimeter
G1 X114.585 Y120.256 E8.23949 ; perimeter
G1 X113.881 Y120.342 E8.26291 ; perimeter
G1 X113.294 Y120.376 E8.28231 ; perimeter
G1 X112.706 Y120.376 E8.30174 ; perimeter
G1 X112.118 Y120.342 E8.32117 ; perimeter
G1 X111.534 Y120.276 E8.34057 ; perimeter
G1 X110.836 Y120.150 E8.36400 ; perimeter
G1 X110.380 Y120.044 E8.37945 ; perimeter
G1 X109.815 Y119.879 E8.39889 ; perimeter
G1 X109.260 Y119.683 E8.41832 ; perimeter
G1 X108.718 Y119.455 E8.43775 ; perimeter
G1 X108.189 Y119.197 E8.45718 ; perimeter
G1 X107.675 Y118.910 E8.47661 ; perimeter
G1 X107.179 Y118.594 E8.49604 ; perimeter
G1 X106.701 Y118.250 E8.51547 ; perimeter
G1 X106.244 Y117.879 E8.53490 ; perimeter
G1 X105.809 Y117.484 E8.55431 ; perimeter
G1 X105.315 Y116.976 E8.57770 ; perimeter
G1 X104.932 Y116.530 E8.59711 ; perimeter
G1 X104.575 Y116.062 E8.61654 ; perimeter
G1 X104.245 Y115.575 E8.63599 ; perimeter
G1 X104.003 Y115.174 E8.65144 ; perimeter
G1 X103.670 Y114.548 E8.67485 ; perimeter
G1 X103.427 Y114.013 E8.69426 ; perimeter
G1 X103.215 Y113.464 E8.71369 ; perimeter
G1 X103.035 Y112.904 E8.73312 ; perimeter
G1 X102.886 Y112.334 E8.75255 ; perimeter
G1 X102.770 Y111.757 E8.77199 ; perimeter
G1 X102.703 Y111.294 E8.78745 ; perimeter
G1 X102.637 Y110.587 E8.81087 ; perimeter
G1 X102.620 Y110.000 E8.83027 ; perimeter
G1 X102.637 Y109.412 E8.84970 ; perimeter
G1 X102.687 Y108.825 E8.86913 ; perimeter
G1 X102.770 Y108.244 E8.88853 ; perimeter
G1 X102.915 Y107.549 E8.91195 ; perimeter
G1 X103.035 Y107.097 E8.92741 ; perimeter
G1 X103.215 Y106.536 E8.94685 ; perimeter
G1 X103.427 Y105.987 E8.96628 ; perimeter
G1 X103.670 Y105.451 E8.98571 ; perimeter
G1 X103.943 Y104.930 E9.00514 ; perimeter
G1 X104.245 Y104.425 E9.02455 ; perimeter
G1 X104.646 Y103.841 E9.04796 ; perimeter
G1 X104.932 Y103.470 E9.06341 ; perimeter
G1 X105.315 Y103.023 E9.08286 ; perimeter
G1 X105.723 Y102.599 E9.10229 ; perimeter
G1 X106.154 Y102.199 E9.12170 ; perimeter
G1 X106.702 Y101.750 E9.14509 ; perimeter
G1 X107.179 Y101.406 E9.16450 ; perimeter
G1 X107.675 Y101.090 E9.18393 ; perimeter
G1 X108.189 Y100.803 E9.20336 ; perimeter
G1 X108.718 Y100.545 E9.22279 ; perimeter
G1 X109.261 Y100.317 E9.24223 ; perimeter
G1 X109.701 Y100.160 E9.25768 ; perimeter
G1 X110.381 Y99.956 E9.28110 ; perimeter
G1 X110.953 Y99.824 E9.30051 ; perimeter
G1 X111.533 Y99.724 E9.31994 ; perimeter
G1 X112.118 Y99.658 E9.33937 ; perimeter
G1 X112.705 Y99.624 E9.35876 ; perimeter
G1 X113.414 Y99.631 E9.38219 ; perimeter
G1 X113.882 Y99.658 E9.39765 ; perimeter
