; generated by Slic3r 1.34.1-prusa3d-win64 on 2018-11-04 at 17:27:19

; Buse e3D 0.8mm
; Débit max : 12mm3/s
; 
; couche fines : se limiter à 8mm3/s
; couches épaisses : jusqu'à 12mm3/s

; external perimeters extrusion width = 0.80mm
; perimeters extrusion width = 0.80mm
; infill extrusion width = 0.80mm
; solid infill extrusion width = 0.80mm
; top infill extrusion width = 0.80mm

M107 ; disable fan
M190 S65 ; attente chauffe plateau
M104 S240 ; préchauffe tête
G92 Z0 ; définir hauteur actuelle comme 0
G0 Z10 F1500
G28 YX ; prise d'origine en Y puis X
G1 X130 Y10 F3000 ; parking
M109 S240 ; attente chauffe T0
G0 Z1.5 F1500 ; distance 1.5mm du plateau
G92 E0 ; remise à zéro axe E
G1 E15 F150 ; pousser 15mm de filament
G1 X100 Z0 F1500 ; essuyage sur plateau et on démarre (=rétraction, hauteur, début)
G21 ; set units to millimeters
G90 ; use absolute coordinates
M82 ; use absolute distances for extrusion
G92 E0 ; reset extrusion distance
G1 E-4.50000 F3000.00000 ; retract
G92 E0 ; reset extrusion distance
G1 Z0.800 F5400.000 ; move to next layer (0)
G1 X66.969 Y68.969 F5400.000 ; move to first perimeter point
G1 E4.55000 F3000.00000 ; unretract
G1 F1385.88
G1 X67.530 Y68.477 E4.66060 ; perimeter
G1 X68.150 Y68.063 E4.77120 ; perimeter
G1 X68.818 Y67.733 E4.88180 ; perimeter
G1 X69.525 Y67.493 E4.99240 ; perimeter
G1 X70.256 Y67.348 E5.10300 ; perimeter
G1 X71.000 Y67.299 E5.21360 ; perimeter
G1 X71.744 Y67.348 E5.32420 ; perimeter
G1 X72.475 Y67.493 E5.43480 ; perimeter
G1 X73.182 Y67.733 E5.54540 ; perimeter
G1 X73.850 Y68.063 E5.65600 ; perimeter
G1 X74.470 Y68.477 E5.76660 ; perimeter
G1 X75.031 Y68.969 E5.87720 ; perimeter
G1 X75.523 Y69.530 E5.98780 ; perimeter
G1 X75.937 Y70.150 E6.09840 ; perimeter
G1 X76.267 Y70.818 E6.20900 ; perimeter
G1 X76.507 Y71.525 E6.31960 ; perimeter
G1 X76.652 Y72.256 E6.43020 ; perimeter
G1 X76.701 Y73.000 E6.54080 ; perimeter
G1 X76.652 Y73.744 E6.65140 ; perimeter
G1 X76.507 Y74.475 E6.76200 ; perimeter
G1 X76.267 Y75.182 E6.87260 ; perimeter
G1 X75.937 Y75.850 E6.98320 ; perimeter
G1 X75.523 Y76.470 E7.09380 ; perimeter
G1 X75.031 Y77.031 E7.20440 ; perimeter
G1 X74.470 Y77.523 E7.31500 ; perimeter
G1 X73.850 Y77.937 E7.42560 ; perimeter
G1 X73.182 Y78.267 E7.53620 ; perimeter
G1 X72.475 Y78.507 E7.64680 ; perimeter
G1 X71.744 Y78.652 E7.75740 ; perimeter
G1 X71.000 Y78.701 E7.86800 ; perimeter
G1 X70.256 Y78.652 E7.97860 ; perimeter
G1 X69.525 Y78.507 E8.08920 ; perimeter
G1 X68.818 Y78.267 E8.19980 ; perimeter
G1 X68.150 Y77.937 E8.31040 ; perimeter
G1 X67.530 Y77.523 E8.42100 ; perimeter
G1 X66.969 Y77.031 E8.53160 ; perimeter
G1 X66.477 Y76.470 E8.64220 ; perimeter
G1 X66.063 Y75.850 E8.75280 ; perimeter
G1 X65.733 Y75.182 E8.86340 ; perimeter
G1 X65.493 Y74.475 E8.97400 ; perimeter
G1 X65.348 Y73.744 E9.08460 ; perimeter
G1 X65.299 Y73.000 E9.19519 ; perimeter
G1 X65.348 Y72.256 E9.30579 ; perimeter
G1 X65.493 Y71.525 E9.41639 ; perimeter
G1 X65.733 Y70.818 E9.52699 ; perimeter
G1 X66.063 Y70.150 E9.63759 ; perimeter
G1 X66.477 Y69.530 E9.74819 ; perimeter
G1 X66.890 Y69.059 E9.84100 ; perimeter
G1 E5.34100 F3000.00000 ; retract
G92 E0 ; reset extrusion distance
G1 X61.561 Y63.561 F5400.000 ; move to first perimeter point
G1 E4.55000 F3000.00000 ; unretract
G1 F1385.88
G1 X62.874 Y62.409 E4.80898 ; perimeter
G1 X63.613 Y61.915 E4.94090 ; perimeter
G1 X64.325 Y61.439 E5.06796 ; perimeter
G1 X65.892 Y60.667 E5.32694 ; perimeter
G1 X67.545 Y60.106 E5.58592 ; perimeter
G1 X69.258 Y59.765 E5.84490 ; perimeter
G1 X71.000 Y59.651 E6.10388 ; perimeter
G1 X72.742 Y59.765 E6.36287 ; perimeter
G1 X74.455 Y60.106 E6.62185 ; perimeter
G1 X76.108 Y60.667 E6.88083 ; perimeter
G1 X77.675 Y61.439 E7.13981 ; perimeter
G1 X78.387 Y61.915 E7.26687 ; perimeter
G1 X79.126 Y62.409 E7.39879 ; perimeter
G1 X80.439 Y63.561 E7.65777 ; perimeter
G1 X81.591 Y64.874 E7.91675 ; perimeter
G1 X82.561 Y66.325 E8.17573 ; perimeter
G1 X83.333 Y67.892 E8.43471 ; perimeter
G1 X83.894 Y69.545 E8.69369 ; perimeter
G1 X84.235 Y71.258 E8.95267 ; perimeter
G1 X84.349 Y73.000 E9.21166 ; perimeter
G1 X84.235 Y74.742 E9.47064 ; perimeter
G1 X83.894 Y76.455 E9.72962 ; perimeter
G1 X83.333 Y78.108 E9.98860 ; perimeter
G1 X82.561 Y79.675 E10.24758 ; perimeter
G1 X81.591 Y81.126 E10.50656 ; perimeter
G1 X80.439 Y82.439 E10.76554 ; perimeter
G1 X79.126 Y83.591 E11.02452 ; perimeter
G1 X77.675 Y84.561 E11.28350 ; perimeter
G1 X76.108 Y85.333 E11.54248 ; perimeter
G1 X74.455 Y85.894 E11.80147 ; perimeter
G1 X72.742 Y86.235 E12.06045 ; perimeter
G1 X71.000 Y86.349 E12.31943 ; perimeter
G1 X69.258 Y86.235 E12.57841 ; perimeter
G1 X67.545 Y85.894 E12.83739 ; perimeter
G1 X65.892 Y85.333 E13.09637 ; perimeter
G1 X64.325 Y84.561 E13.35535 ; perimeter
G1 X62.874 Y83.591 E13.61433 ; perimeter
G1 X61.561 Y82.439 E13.87331 ; perimeter
G1 X60.409 Y81.126 E14.13229 ; perimeter
G1 X59.439 Y79.675 E14.39127 ; perimeter
G1 X58.667 Y78.108 E14.65025 ; perimeter
G1 X58.106 Y76.455 E14.90924 ; perimeter
G1 X57.765 Y74.742 E15.16822 ; perimeter
G1 X57.651 Y73.000 E15.42720 ; perimeter
G1 X57.765 Y71.258 E15.68618 ; perimeter
G1 X58.106 Y69.545 E15.94516 ; perimeter
G1 X58.667 Y67.892 E16.20414 ; perimeter
G1 X59.439 Y66.325 E16.46312 ; perimeter
G1 X60.409 Y64.874 E16.72210 ; perimeter
G1 X61.482 Y63.651 E16.96329 ; perimeter
G1 E12.46329 F3000.00000 ; retract
G92 E0 ; reset extrusion distance
G1 X65.083 Y75.098 F5400.000 ; move to first infill point
G1 E4.55000 F3000.00000 ; unretract
G1 F1355.09
G1 X58.931 Y68.946 E5.86974 ; infill
G1 X59.185 Y68.198 E5.98956 ; infill
G1 X64.760 Y73.773 E7.18549 ; infill
G1 X64.709 Y73.000 E7.30300 ; infill
G1 X64.726 Y72.738 E7.34288 ; infill
G1 X59.507 Y67.519 E8.46244 ; infill
G1 X59.838 Y66.848 E8.57592 ; infill
G1 X64.830 Y71.840 E9.64682 ; infill
G1 X64.923 Y71.372 E9.71920 ; infill
G1 X65.035 Y71.043 E9.77191 ; infill
G1 X60.216 Y66.223 E10.80577 ; infill
G1 X60.617 Y65.623 E10.91534 ; infill
G1 X65.320 Y70.325 E11.92415 ; infill
G1 X65.552 Y69.855 E12.00379 ; infill
G1 X65.672 Y69.675 E12.03647 ; infill
G1 X61.042 Y65.046 E13.02966 ; infill
G1 X61.510 Y64.512 E13.13735 ; infill
G1 X66.084 Y69.085 E14.11848 ; infill
G1 X66.552 Y68.552 E14.22618 ; infill
G1 X61.978 Y63.978 E15.20731 ; infill
G1 X62.512 Y63.510 E15.31500 ; infill
G1 X67.085 Y68.084 E16.29614 ; infill
G1 X67.675 Y67.672 E16.40528 ; infill
G1 X63.045 Y63.042 E17.39847 ; infill
G1 X63.233 Y62.878 E17.43625 ; infill
G1 X63.623 Y62.617 E17.50738 ; infill
G1 X68.325 Y67.320 E18.51620 ; infill
G1 X68.593 Y67.188 E18.56139 ; infill
G1 X69.043 Y67.035 E18.63349 ; infill
G1 X64.223 Y62.216 E19.66735 ; infill
G1 X64.620 Y61.950 E19.73981 ; infill
G1 X64.848 Y61.838 E19.77824 ; infill
G1 X69.840 Y66.830 E20.84913 ; infill
G1 X70.179 Y66.763 E20.90158 ; infill
G1 X70.738 Y66.726 E20.98651 ; infill
G1 X65.519 Y61.507 E22.10606 ; infill
G1 X66.117 Y61.212 E22.20731 ; infill
G1 X66.198 Y61.185 E22.22022 ; infill
G1 X71.773 Y66.760 E23.41616 ; infill
G1 X72.628 Y66.923 E23.54824 ; infill
G1 X73.098 Y67.083 E23.62350 ; infill
G1 X66.946 Y60.931 E24.94322 ; infill
G1 X67.694 Y60.677 E25.06304 ; infill
G1 X83.323 Y76.306 E28.41575 ; infill
G1 X83.490 Y75.471 E28.54494 ; infill
G1 X68.529 Y60.510 E31.75424 ; infill
G1 X69.369 Y60.348 E31.88393 ; infill
G1 X83.652 Y74.631 E34.94800 ; infill
G1 X83.714 Y73.691 E35.09094 ; infill
G1 X70.309 Y60.286 E37.96653 ; infill
G1 X71.000 Y60.241 E38.07159 ; infill
G1 X71.284 Y60.260 E38.11477 ; infill
G1 X83.740 Y72.716 E40.78689 ; infill
G1 X83.670 Y71.644 E40.94987 ; infill
G1 X72.356 Y60.330 E43.37691 ; infill
G1 X72.665 Y60.350 E43.42392 ; infill
G1 X73.555 Y60.527 E43.56156 ; infill
G1 X83.473 Y70.445 E45.68904 ; infill
G1 X83.324 Y69.698 E45.80456 ; infill
G1 X83.117 Y69.087 E45.90242 ; infill
G1 X74.913 Y60.883 E47.66227 ; infill
G1 X75.883 Y61.212 E47.81757 ; infill
G1 X76.596 Y61.564 E47.93819 ; infill
G1 X83.100 Y68.068 E49.33353 ; infill
G1 E44.83353 F3000.00000 ; retract
G92 E0 ; reset extrusion distance
G1 X81.962 Y65.928 F5400.000 ; move to first infill point
G1 E4.55000 F3000.00000 ; unretract
G1 F1355.09
G1 X78.072 Y62.038 E5.38443 ; infill
G1 E0.88443 F3000.00000 ; retract
G92 E0 ; reset extrusion distance
G1 X83.315 Y77.300 F5400.000 ; move to first infill point
G1 E4.55000 F3000.00000 ; unretract
G1 F1355.09
G1 X76.917 Y70.902 E5.92244 ; infill
G1 X77.077 Y71.372 E5.99770 ; infill
G1 X77.240 Y72.227 E6.12979 ; infill
G1 X82.815 Y77.802 E7.32572 ; infill
G1 X82.493 Y78.481 E7.43979 ; infill
G1 X77.274 Y73.262 E8.55934 ; infill
G1 X77.237 Y73.821 E8.64427 ; infill
G1 X77.170 Y74.160 E8.69671 ; infill
G1 X82.162 Y79.152 E9.76761 ; infill
G1 X82.050 Y79.380 E9.80603 ; infill
G1 X81.784 Y79.777 E9.87850 ; infill
G1 X76.965 Y74.957 E10.91235 ; infill
G1 X76.812 Y75.407 E10.98446 ; infill
G1 X76.680 Y75.675 E11.02965 ; infill
G1 X81.383 Y80.377 E12.03846 ; infill
G1 X81.122 Y80.767 E12.10959 ; infill
G1 X80.958 Y80.955 E12.14737 ; infill
G1 X76.328 Y76.325 E13.14056 ; infill
G1 X75.916 Y76.915 E13.24971 ; infill
G1 X80.490 Y81.488 E14.23084 ; infill
G1 X80.022 Y82.022 E14.33853 ; infill
G1 X75.448 Y77.448 E15.31967 ; infill
G1 X74.915 Y77.916 E15.42736 ; infill
G1 X79.488 Y82.490 E16.40849 ; infill
G1 X78.954 Y82.958 E16.51619 ; infill
G1 X74.325 Y78.328 E17.50938 ; infill
G1 X74.145 Y78.448 E17.54205 ; infill
G1 X73.675 Y78.680 E17.62169 ; infill
G1 X78.377 Y83.383 E18.63051 ; infill
G1 X77.777 Y83.784 E18.74007 ; infill
G1 X72.957 Y78.965 E19.77393 ; infill
G1 X72.628 Y79.077 E19.82664 ; infill
G1 X72.160 Y79.170 E19.89903 ; infill
G1 X77.152 Y84.162 E20.96992 ; infill
G1 X76.481 Y84.493 E21.08341 ; infill
G1 X71.262 Y79.274 E22.20296 ; infill
G1 X71.000 Y79.291 E22.24284 ; infill
G1 X70.227 Y79.240 E22.36035 ; infill
G1 X75.802 Y84.815 E23.55629 ; infill
G1 X75.054 Y85.069 E23.67610 ; infill
G1 X68.902 Y78.917 E24.99584 ; infill
G1 E20.49584 F3000.00000 ; retract
G92 E0 ; reset extrusion distance
G1 X63.928 Y83.962 F5400.000 ; move to first infill point
G1 E4.55000 F3000.00000 ; unretract
G1 F1355.09
G1 X60.038 Y80.072 E5.38434 ; infill
G1 E0.88434 F3000.00000 ; retract
G92 E0 ; reset extrusion distance
G1 X58.900 Y77.932 F5400.000 ; move to first infill point
G1 E4.55000 F3000.00000 ; unretract
G1 F1355.09
G1 X65.404 Y84.436 E5.94529 ; infill
G1 X66.117 Y84.788 E6.06594 ; infill
G1 X67.087 Y85.117 E6.22122 ; infill
G1 X58.883 Y76.913 E7.98103 ; infill
G1 X58.676 Y76.302 E8.07891 ; infill
G1 X58.527 Y75.555 E8.19442 ; infill
G1 X68.445 Y85.473 E10.32187 ; infill
G1 X69.335 Y85.650 E10.45953 ; infill
G1 X69.644 Y85.670 E10.50652 ; infill
G1 X58.330 Y74.356 E12.93354 ; infill
G1 X58.260 Y73.284 E13.09652 ; infill
G1 X70.716 Y85.740 E15.76862 ; infill
G1 X71.000 Y85.759 E15.81181 ; infill
G1 X71.691 Y85.714 E15.91687 ; infill
G1 X58.286 Y72.309 E18.79244 ; infill
G1 X58.348 Y71.369 E18.93537 ; infill
G1 X72.631 Y85.652 E21.99943 ; infill
G1 X73.471 Y85.490 E22.12912 ; infill
G1 X58.510 Y70.529 E25.33841 ; infill
G1 X58.677 Y69.694 E25.46760 ; infill
G1 X74.552 Y85.569 E28.87302 ; infill
M140 S60 ; set bed temperature
G1 E24.37302 F3000.00000 ; retract
G92 E0 ; reset extrusion distance
G1 Z1.300 F5400.000 ; move to next layer (1)
G1 X65.987 Y67.987 F5400.000 ; move to first perimeter point
G1 E4.55000 F3000.00000 ; unretract
G1 F1385.88
G1 X66.684 Y67.376 E4.68753 ; perimeter
G1 X67.455 Y66.861 E4.82507 ; perimeter
G1 X68.287 Y66.450 E4.96260 ; perimeter
G1 X69.165 Y66.152 E5.10014 ; perimeter
G1 X70.075 Y65.971 E5.23768 ; perimeter
G1 X71.000 Y65.911 E5.37521 ; perimeter
G1 X71.925 Y65.971 E5.51274 ; perimeter
G1 X72.835 Y66.152 E5.65028 ; perimeter
G1 X73.713 Y66.450 E5.78781 ; perimeter
G1 X74.545 Y66.861 E5.92535 ; perimeter
G1 X75.316 Y67.376 E6.06289 ; perimeter
G1 X76.013 Y67.987 E6.20042 ; perimeter
G1 X76.624 Y68.684 E6.33796 ; perimeter
G1 X77.139 Y69.455 E6.47549 ; perimeter
G1 X77.550 Y70.287 E6.61303 ; perimeter
G1 X77.848 Y71.165 E6.75056 ; perimeter
G1 X78.029 Y72.075 E6.88810 ; perimeter
G1 X78.089 Y73.000 E7.02563 ; perimeter
G1 X78.029 Y73.925 E7.16317 ; perimeter
G1 X77.848 Y74.835 E7.30070 ; perimeter
G1 X77.550 Y75.713 E7.43824 ; perimeter
G1 X77.139 Y76.545 E7.57577 ; perimeter
G1 X76.624 Y77.316 E7.71331 ; perimeter
G1 X76.013 Y78.013 E7.85084 ; perimeter
G1 X75.316 Y78.624 E7.98838 ; perimeter
G1 X74.545 Y79.139 E8.12591 ; perimeter
G1 X73.713 Y79.550 E8.26345 ; perimeter
G1 X72.835 Y79.848 E8.40098 ; perimeter
G1 X71.925 Y80.029 E8.53852 ; perimeter
G1 X71.000 Y80.089 E8.67605 ; perimeter
G1 X70.075 Y80.029 E8.81359 ; perimeter
G1 X69.165 Y79.848 E8.95112 ; perimeter
G1 X68.287 Y79.550 E9.08866 ; perimeter
G1 X67.455 Y79.139 E9.22619 ; perimeter
G1 X66.684 Y78.624 E9.36373 ; perimeter
G1 X65.987 Y78.013 E9.50126 ; perimeter
G1 X65.376 Y77.316 E9.63880 ; perimeter
G1 X64.861 Y76.545 E9.77633 ; perimeter
G1 X64.450 Y75.713 E9.91387 ; perimeter
G1 X64.152 Y74.835 E10.05140 ; perimeter
G1 X63.971 Y73.925 E10.18894 ; perimeter
G1 X63.911 Y73.000 E10.32647 ; perimeter
G1 X63.971 Y72.075 E10.46401 ; perimeter
G1 X64.152 Y71.165 E10.60154 ; perimeter
G1 X64.450 Y70.287 E10.73908 ; perimeter
G1 X64.861 Y69.455 E10.87661 ; perimeter
G1 X65.376 Y68.684 E11.01415 ; perimeter
G1 X65.908 Y68.077 E11.13388 ; perimeter
G1 E6.63388 F3000.00000 ; retract
G92 E0 ; reset extrusion distance
G1 X66.478 Y68.478 F5400.000 ; move to first perimeter point
G1 E4.55000 F3000.00000 ; unretract
G1 F1385.88
G1 X67.107 Y67.926 E4.67407 ; perimeter
G1 X67.802 Y67.462 E4.79813 ; perimeter
G1 X68.553 Y67.092 E4.92220 ; perimeter
G1 X69.345 Y66.823 E5.04627 ; perimeter
G1 X70.165 Y66.660 E5.17034 ; perimeter
G1 X71.000 Y66.605 E5.29440 ; perimeter
G1 X71.835 Y66.660 E5.41847 ; perimeter
G1 X72.655 Y66.823 E5.54254 ; perimeter
G1 X73.447 Y67.092 E5.66661 ; perimeter
G1 X74.198 Y67.462 E5.79067 ; perimeter
G1 X74.893 Y67.926 E5.91474 ; perimeter
G1 X75.522 Y68.478 E6.03881 ; perimeter
G1 X76.074 Y69.107 E6.16288 ; perimeter
G1 X76.538 Y69.802 E6.28694 ; perimeter
G1 X76.908 Y70.553 E6.41101 ; perimeter
G1 X77.177 Y71.345 E6.53508 ; perimeter
G1 X77.340 Y72.165 E6.65915 ; perimeter
G1 X77.395 Y73.000 E6.78321 ; perimeter
G1 X77.340 Y73.835 E6.90728 ; perimeter
G1 X77.177 Y74.655 E7.03135 ; perimeter
G1 X76.908 Y75.447 E7.15542 ; perimeter
G1 X76.538 Y76.198 E7.27948 ; perimeter
G1 X76.074 Y76.893 E7.40355 ; perimeter
G1 X75.522 Y77.522 E7.52762 ; perimeter
G1 X74.893 Y78.074 E7.65169 ; perimeter
G1 X74.198 Y78.538 E7.77575 ; perimeter
G1 X73.447 Y78.908 E7.89982 ; perimeter
G1 X72.655 Y79.177 E8.02389 ; perimeter
G1 X71.835 Y79.340 E8.14796 ; perimeter
G1 X71.000 Y79.395 E8.27202 ; perimeter
G1 X70.165 Y79.340 E8.39609 ; perimeter
G1 X69.345 Y79.177 E8.52016 ; perimeter
G1 X68.553 Y78.908 E8.64423 ; perimeter
G1 X67.802 Y78.538 E8.76829 ; perimeter
G1 X67.107 Y78.074 E8.89236 ; perimeter
G1 X66.478 Y77.522 E9.01643 ; perimeter
G1 X65.926 Y76.893 E9.14050 ; perimeter
G1 X65.462 Y76.198 E9.26456 ; perimeter
G1 X65.092 Y75.447 E9.38863 ; perimeter
G1 X64.823 Y74.655 E9.51270 ; perimeter
G1 X64.660 Y73.835 E9.63677 ; perimeter
G1 X64.605 Y73.000 E9.76083 ; perimeter
G1 X64.660 Y72.165 E9.88490 ; perimeter
G1 X64.823 Y71.345 E10.00897 ; perimeter
G1 X65.092 Y70.553 E10.13304 ; perimeter
G1 X65.462 Y69.802 E10.25710 ; perimeter
G1 X65.926 Y69.107 E10.38117 ; perimeter
G1 X66.399 Y68.568 E10.48744 ; perimeter
G1 E5.98744 F3000.00000 ; retract
G92 E0 ; reset extrusion distance
G1 X66.969 Y68.969 F5400.000 ; move to first perimeter point
G1 E4.55000 F3000.00000 ; unretract
G1 F1385.88
G1 X67.530 Y68.477 E4.66060 ; perimeter
G1 X68.150 Y68.063 E4.77120 ; perimeter
G1 X68.818 Y67.733 E4.88180 ; perimeter
G1 X69.525 Y67.493 E4.99240 ; perimeter
G1 X70.256 Y67.348 E5.10300 ; perimeter
G1 X71.000 Y67.299 E5.21360 ; perimeter
G1 X71.744 Y67.348 E5.32420 ; perimeter
G1 X72.475 Y67.493 E5.43480 ; perimeter
G1 X73.182 Y67.733 E5.54540 ; perimeter
G1 X73.850 Y68.063 E5.65600 ; perimeter
G1 X74.470 Y68.477 E5.76660 ; perimeter
G1 X75.031 Y68.969 E5.87720 ; perimeter
G1 X75.523 Y69.530 E5.98780 ; perimeter
