; generated by Slic3r 1.34.1-prusa3d-win64 on 2018-11-11 at 19:34:19

; Buse e3D 0.8mm
; Débit max : 12mm3/s
; 
; couche fines : se limiter à 8mm3/s
; couches épaisses : jusqu'à 12mm3/s

; external perimeters extrusion width = 0.80mm
; perimeters extrusion width = 0.80mm
; infill extrusion width = 0.80mm
; solid infill extrusion width = 0.80mm
; top infill extrusion width = 0.80mm

M107 ; disable fan
M190 S70 ; attente chauffe plateau
M104 S238 ; préchauffe tête
G92 Z0 ; définir hauteur actuelle comme 0
G0 Z10 F1500
G28 YX ; prise d'origine en Y puis X
G1 X130 Y10 F3000 ; parking
M109 S238 ; attente chauffe T0
G0 Z1.5 F1500 ; distance 1.5mm du plateau
G92 E0 ; remise à zéro axe E
G1 E18 F150 ; pousser 18mm de filament
G1 X100 Z0.1 F1500 ; essuyage sur plateau et on démarre (=rétraction, hauteur, début)
G21 ; set units to millimeters
G90 ; use absolute coordinates
M82 ; use absolute distances for extrusion
G92 E0 ; reset extrusion distance
G1 E-6.00000 F1500.00000 ; retract
G92 E0 ; reset extrusion distance
G1 Z0.350 F5400.000 ; move to next layer (0)
G1 X75.748 Y63.550 F5400.000 ; move to first perimeter point
G1 E6.05000 F1500.00000 ; unretract
G1 F1151.99
G1 X76.607 Y63.550 E6.11863 ; perimeter
G1 X76.742 Y63.223 E6.14689 ; perimeter
G1 X77.212 Y62.612 E6.20849 ; perimeter
G1 X77.823 Y62.142 E6.27010 ; perimeter
G1 X78.536 Y61.847 E6.33170 ; perimeter
G1 X79.292 Y61.748 E6.39262 ; perimeter
G1 X80.064 Y61.847 E6.45484 ; perimeter
G1 X80.777 Y62.142 E6.51649 ; perimeter
G1 X81.388 Y62.612 E6.57810 ; perimeter
G1 X81.858 Y63.223 E6.63972 ; perimeter
G1 X81.993 Y63.550 E6.66796 ; perimeter
G1 X82.852 Y63.550 E6.73659 ; perimeter
G1 X83.003 Y64.700 E6.82927 ; perimeter
G1 X82.852 Y65.850 E6.92195 ; perimeter
G1 X81.993 Y65.850 E6.99058 ; perimeter
G1 X81.858 Y66.177 E7.01884 ; perimeter
G1 X81.388 Y66.788 E7.08044 ; perimeter
G1 X80.777 Y67.258 E7.14204 ; perimeter
G1 X80.064 Y67.553 E7.20365 ; perimeter
G1 X79.300 Y67.653 E7.26525 ; perimeter
G1 X78.536 Y67.553 E7.32686 ; perimeter
G1 X77.823 Y67.258 E7.38846 ; perimeter
G1 X77.212 Y66.788 E7.45007 ; perimeter
G1 X76.742 Y66.177 E7.51169 ; perimeter
G1 X76.607 Y65.850 E7.53993 ; perimeter
G1 X75.748 Y65.850 E7.60856 ; perimeter
G1 X75.597 Y64.700 E7.70124 ; perimeter
G1 X75.732 Y63.669 E7.78433 ; perimeter
G1 E1.78433 F1500.00000 ; retract
G92 E0 ; reset extrusion distance
G1 X74.692 Y63.465 F5400.000 ; move to first perimeter point
G1 E6.05000 F1500.00000 ; unretract
G1 F1151.99
G1 X75.169 Y62.315 E6.14950 ; perimeter
G1 X75.927 Y61.327 E6.24901 ; perimeter
G1 X76.915 Y60.569 E6.34851 ; perimeter
G1 X78.065 Y60.092 E6.44802 ; perimeter
G1 X79.300 Y59.930 E6.54752 ; perimeter
G1 X80.535 Y60.092 E6.64703 ; perimeter
G1 X81.685 Y60.569 E6.74653 ; perimeter
G1 X82.673 Y61.327 E6.84604 ; perimeter
G1 X83.431 Y62.315 E6.94554 ; perimeter
G1 X83.908 Y63.465 E7.04504 ; perimeter
G1 X84.070 Y64.700 E7.14455 ; perimeter
G1 X83.908 Y65.935 E7.24405 ; perimeter
G1 X83.431 Y67.085 E7.34356 ; perimeter
G1 X82.673 Y68.073 E7.44306 ; perimeter
G1 X81.685 Y68.831 E7.54257 ; perimeter
G1 X80.535 Y69.308 E7.64207 ; perimeter
G1 X79.300 Y69.470 E7.74157 ; perimeter
G1 X78.065 Y69.308 E7.84108 ; perimeter
G1 X76.915 Y68.831 E7.94058 ; perimeter
G1 X75.927 Y68.073 E8.04009 ; perimeter
G1 X75.169 Y67.085 E8.13959 ; perimeter
G1 X74.692 Y65.935 E8.23910 ; perimeter
G1 X74.530 Y64.700 E8.33860 ; perimeter
G1 X74.676 Y63.584 E8.42852 ; perimeter
G1 E2.42852 F1500.00000 ; retract
G92 E0 ; reset extrusion distance
G1 X75.448 Y62.441 F5400.000 ; move to first infill point
G1 E6.05000 F1500.00000 ; unretract
G1 F1144.6
G1 X75.922 Y62.916 E6.10394 ; infill
G1 X76.183 Y62.916 E6.12492 ; infill
G1 X76.529 Y62.460 E6.17092 ; infill
G1 X76.149 Y62.080 E6.21413 ; infill
G1 X76.379 Y61.779 E6.24460 ; infill
G1 X76.680 Y61.549 E6.27506 ; infill
G1 X77.060 Y61.929 E6.31827 ; infill
G1 X77.503 Y61.588 E6.36324 ; infill
G1 X77.700 Y61.507 E6.38037 ; infill
G1 X77.292 Y61.099 E6.42673 ; infill
G1 X78.043 Y60.788 E6.49212 ; infill
G1 X78.471 Y61.216 E6.54080 ; infill
G1 X79.291 Y61.108 E6.60723 ; infill
G1 X79.446 Y61.128 E6.61983 ; infill
G1 X78.935 Y60.617 E6.67789 ; infill
G1 X79.300 Y60.569 E6.70746 ; infill
G1 X80.048 Y60.668 E6.76815 ; infill
G1 X82.632 Y63.251 E7.06198 ; infill
G1 E1.06198 F1500.00000 ; retract
G92 E0 ; reset extrusion distance
G1 X83.152 Y66.959 F5400.000 ; move to first infill point
G1 E6.05000 F1500.00000 ; unretract
G1 F1144.6
G1 X82.678 Y66.484 E6.10395 ; infill
G1 X82.417 Y66.484 E6.12492 ; infill
G1 X82.071 Y66.940 E6.17093 ; infill
G1 X82.451 Y67.320 E6.21414 ; infill
G1 X82.221 Y67.621 E6.24460 ; infill
G1 X81.920 Y67.851 E6.27507 ; infill
G1 X81.540 Y67.471 E6.31828 ; infill
G1 X81.097 Y67.812 E6.36324 ; infill
G1 X80.900 Y67.893 E6.38037 ; infill
G1 X81.308 Y68.301 E6.42674 ; infill
G1 X80.556 Y68.612 E6.49213 ; infill
G1 X80.128 Y68.184 E6.54081 ; infill
G1 X79.300 Y68.293 E6.60800 ; infill
G1 X79.156 Y68.274 E6.61966 ; infill
G1 X79.664 Y68.783 E6.67746 ; infill
G1 X79.300 Y68.831 E6.70703 ; infill
G1 X78.552 Y68.732 E6.76773 ; infill
G1 X75.968 Y66.149 E7.06155 ; infill
G1 E1.06155 F1500.00000 ; retract
G92 E0 ; reset extrusion distance
G1 X59.141 Y80.203 F5400.000 ; move to first perimeter point
G1 E6.05000 F1500.00000 ; unretract
G1 F1151.99
G1 X59.148 Y80.150 E6.05430 ; perimeter
G1 X60.007 Y80.150 E6.12293 ; perimeter
G1 X60.142 Y79.823 E6.15119 ; perimeter
G1 X60.612 Y79.212 E6.21280 ; perimeter
G1 X61.223 Y78.742 E6.27440 ; perimeter
G1 X61.936 Y78.447 E6.33600 ; perimeter
G1 X62.692 Y78.348 E6.39693 ; perimeter
G1 X63.464 Y78.447 E6.45914 ; perimeter
G1 X64.177 Y78.742 E6.52080 ; perimeter
G1 X64.788 Y79.212 E6.58240 ; perimeter
G1 X65.258 Y79.823 E6.64402 ; perimeter
G1 X65.393 Y80.150 E6.67226 ; perimeter
G1 X66.252 Y80.150 E6.74089 ; perimeter
G1 X66.403 Y81.300 E6.83357 ; perimeter
G1 X66.252 Y82.450 E6.92625 ; perimeter
G1 X65.393 Y82.450 E6.99488 ; perimeter
G1 X65.258 Y82.777 E7.02314 ; perimeter
G1 X64.788 Y83.388 E7.08474 ; perimeter
G1 X64.177 Y83.858 E7.14635 ; perimeter
G1 X63.464 Y84.153 E7.20795 ; perimeter
G1 X62.700 Y84.253 E7.26956 ; perimeter
G1 X61.936 Y84.153 E7.33116 ; perimeter
G1 X61.223 Y83.858 E7.39277 ; perimeter
G1 X60.612 Y83.388 E7.45437 ; perimeter
G1 X60.142 Y82.777 E7.51599 ; perimeter
G1 X60.007 Y82.450 E7.54423 ; perimeter
G1 X59.148 Y82.450 E7.61286 ; perimeter
G1 X58.997 Y81.300 E7.70554 ; perimeter
G1 X59.125 Y80.322 E7.78433 ; perimeter
G1 E1.78433 F1500.00000 ; retract
G92 E0 ; reset extrusion distance
G1 X58.092 Y80.065 F5400.000 ; move to first perimeter point
G1 E6.05000 F1500.00000 ; unretract
G1 F1151.99
G1 X58.569 Y78.915 E6.14950 ; perimeter
G1 X59.327 Y77.927 E6.24901 ; perimeter
G1 X60.315 Y77.169 E6.34851 ; perimeter
G1 X61.465 Y76.692 E6.44802 ; perimeter
G1 X62.700 Y76.530 E6.54752 ; perimeter
G1 X63.935 Y76.692 E6.64703 ; perimeter
G1 X65.085 Y77.169 E6.74653 ; perimeter
G1 X66.073 Y77.927 E6.84604 ; perimeter
G1 X66.831 Y78.915 E6.94554 ; perimeter
G1 X67.308 Y80.065 E7.04504 ; perimeter
G1 X67.470 Y81.300 E7.14455 ; perimeter
G1 X67.308 Y82.535 E7.24405 ; perimeter
G1 X66.831 Y83.685 E7.34356 ; perimeter
G1 X66.073 Y84.673 E7.44306 ; perimeter
G1 X65.085 Y85.431 E7.54257 ; perimeter
G1 X63.935 Y85.908 E7.64207 ; perimeter
G1 X62.700 Y86.070 E7.74157 ; perimeter
G1 X61.465 Y85.908 E7.84108 ; perimeter
G1 X60.315 Y85.431 E7.94058 ; perimeter
G1 X59.327 Y84.673 E8.04009 ; perimeter
G1 X58.569 Y83.685 E8.13959 ; perimeter
G1 X58.092 Y82.535 E8.23910 ; perimeter
G1 X57.930 Y81.300 E8.33860 ; perimeter
G1 X58.076 Y80.184 E8.42852 ; perimeter
G1 E2.42852 F1500.00000 ; retract
G92 E0 ; reset extrusion distance
G1 X58.848 Y79.041 F5400.000 ; move to first infill point
G1 E6.05000 F1500.00000 ; unretract
G1 F1144.6
G1 X59.322 Y79.516 E6.10394 ; infill
G1 X59.583 Y79.516 E6.12492 ; infill
G1 X59.929 Y79.060 E6.17092 ; infill
G1 X59.549 Y78.680 E6.21413 ; infill
G1 X59.779 Y78.379 E6.24460 ; infill
G1 X60.080 Y78.149 E6.27506 ; infill
G1 X60.460 Y78.529 E6.31827 ; infill
G1 X60.903 Y78.188 E6.36324 ; infill
G1 X61.100 Y78.107 E6.38037 ; infill
G1 X60.692 Y77.699 E6.42673 ; infill
G1 X61.443 Y77.388 E6.49212 ; infill
G1 X61.871 Y77.816 E6.54080 ; infill
G1 X62.691 Y77.708 E6.60723 ; infill
G1 X62.846 Y77.728 E6.61983 ; infill
G1 X62.335 Y77.217 E6.67789 ; infill
G1 X62.700 Y77.169 E6.70746 ; infill
G1 X63.448 Y77.268 E6.76815 ; infill
G1 X66.032 Y79.851 E7.06198 ; infill
G1 E1.06198 F1500.00000 ; retract
G92 E0 ; reset extrusion distance
G1 X66.552 Y83.559 F5400.000 ; move to first infill point
G1 E6.05000 F1500.00000 ; unretract
G1 F1144.6
G1 X66.078 Y83.084 E6.10395 ; infill
G1 X65.817 Y83.084 E6.12492 ; infill
G1 X65.471 Y83.540 E6.17093 ; infill
G1 X65.851 Y83.920 E6.21414 ; infill
G1 X65.621 Y84.221 E6.24460 ; infill
G1 X65.320 Y84.451 E6.27507 ; infill
G1 X64.940 Y84.071 E6.31828 ; infill
G1 X64.497 Y84.412 E6.36324 ; infill
G1 X64.300 Y84.493 E6.38037 ; infill
G1 X64.708 Y84.901 E6.42674 ; infill
G1 X63.956 Y85.212 E6.49213 ; infill
G1 X63.528 Y84.784 E6.54081 ; infill
G1 X62.700 Y84.893 E6.60800 ; infill
G1 X62.556 Y84.874 E6.61966 ; infill
G1 X63.064 Y85.383 E6.67746 ; infill
G1 X62.700 Y85.431 E6.70703 ; infill
G1 X61.952 Y85.332 E6.76773 ; infill
G1 X59.368 Y82.749 E7.06155 ; infill
M140 S68 ; set bed temperature
G1 E1.06155 F1500.00000 ; retract
G92 E0 ; reset extrusion distance
G1 Z0.600 F5400.000 ; move to next layer (1)
G1 X75.741 Y63.603 F5400.000 ; move to first perimeter point
G1 E6.05000 F1500.00000 ; unretract
G1 F1313.24
G1 X75.748 Y63.550 E6.05430 ; perimeter
G1 X76.607 Y63.550 E6.12293 ; perimeter
G1 X76.742 Y63.223 E6.15119 ; perimeter
G1 X77.212 Y62.612 E6.21280 ; perimeter
G1 X77.823 Y62.142 E6.27440 ; perimeter
G1 X78.536 Y61.847 E6.33600 ; perimeter
G1 X79.275 Y61.750 E6.39556 ; perimeter
G1 X80.063 Y61.846 E6.45901 ; perimeter
G1 X80.777 Y62.142 E6.52076 ; perimeter
G1 X81.388 Y62.612 E6.58236 ; perimeter
G1 X81.858 Y63.223 E6.64396 ; perimeter
G1 X81.993 Y63.550 E6.67222 ; perimeter
G1 X82.852 Y63.550 E6.74085 ; perimeter
G1 X83.003 Y64.700 E6.83353 ; perimeter
G1 X82.852 Y65.850 E6.92621 ; perimeter
G1 X81.993 Y65.850 E6.99484 ; perimeter
G1 X81.858 Y66.177 E7.02310 ; perimeter
G1 X81.388 Y66.788 E7.08470 ; perimeter
G1 X80.777 Y67.258 E7.14631 ; perimeter
G1 X80.064 Y67.553 E7.20791 ; perimeter
G1 X79.300 Y67.653 E7.26952 ; perimeter
G1 X78.536 Y67.553 E7.33112 ; perimeter
G1 X77.823 Y67.258 E7.39272 ; perimeter
G1 X77.212 Y66.788 E7.45433 ; perimeter
G1 X76.742 Y66.177 E7.51593 ; perimeter
G1 X76.607 Y65.850 E7.54419 ; perimeter
G1 X75.748 Y65.850 E7.61282 ; perimeter
G1 X75.597 Y64.700 E7.70550 ; perimeter
G1 X75.725 Y63.722 E7.78429 ; perimeter
G1 E1.78429 F1500.00000 ; retract
G92 E0 ; reset extrusion distance
G1 X74.570 Y63.433 F5400.000 ; move to first perimeter point
G1 E6.05000 F1500.00000 ; unretract
G1 F1313.24
G1 X75.059 Y62.252 E6.15213 ; perimeter
G1 X75.838 Y61.238 E6.25427 ; perimeter
G1 X76.852 Y60.459 E6.35640 ; perimeter
G1 X78.033 Y59.970 E6.45854 ; perimeter
G1 X79.300 Y59.803 E6.56067 ; perimeter
G1 X80.567 Y59.970 E6.66281 ; perimeter
G1 X81.748 Y60.459 E6.76494 ; perimeter
G1 X82.762 Y61.238 E6.86707 ; perimeter
G1 X83.541 Y62.252 E6.96921 ; perimeter
G1 X84.030 Y63.433 E7.07134 ; perimeter
G1 X84.197 Y64.700 E7.17348 ; perimeter
G1 X84.030 Y65.967 E7.27561 ; perimeter
G1 X83.541 Y67.148 E7.37774 ; perimeter
G1 X82.762 Y68.162 E7.47988 ; perimeter
G1 X81.748 Y68.941 E7.58201 ; perimeter
G1 X80.567 Y69.430 E7.68415 ; perimeter
G1 X79.300 Y69.597 E7.78628 ; perimeter
G1 X78.033 Y69.430 E7.88842 ; perimeter
G1 X76.852 Y68.941 E7.99055 ; perimeter
G1 X75.838 Y68.162 E8.09268 ; perimeter
G1 X75.059 Y67.148 E8.19482 ; perimeter
G1 X74.570 Y65.967 E8.29695 ; perimeter
G1 X74.403 Y64.700 E8.39909 ; perimeter
G1 X74.555 Y63.552 E8.49163 ; perimeter
G1 E2.49163 F1500.00000 ; retract
G92 E0 ; reset extrusion distance
G1 X75.128 Y62.865 F5400.000 ; move to first infill point
G1 E6.05000 F1500.00000 ; unretract
G1 F1269.31
G1 X77.465 Y60.528 E6.32321 ; infill
G1 E0.32321 F1500.00000 ; retract
G92 E0 ; reset extrusion distance
G1 X78.933 Y60.153 F5400.000 ; move to first infill point
G1 E6.05000 F1500.00000 ; unretract
G1 F1269.31
G1 X75.834 Y63.251 E6.41225 ; infill
G1 X78.646 Y61.532 F5400.000 ; move to first infill point
G1 F1269.31
G1 X79.684 Y60.494 E6.53357 ; infill
G1 X80.402 Y60.588 E6.59341 ; infill
G1 X80.600 Y60.670 E6.61111 ; infill
G1 X80.063 Y61.207 E6.67390 ; infill
G1 X80.226 Y61.227 E6.68749 ; infill
G1 X80.868 Y61.494 E6.74499 ; infill
G1 X81.372 Y60.990 E6.80384 ; infill
G1 X81.428 Y61.014 E6.80891 ; infill
G1 X82.001 Y61.453 E6.86857 ; infill
G1 X81.532 Y61.922 E6.92342 ; infill
G1 X81.841 Y62.159 E6.95561 ; infill
G1 X82.078 Y62.468 E6.98780 ; infill
G1 X82.547 Y61.999 E7.04264 ; infill
G1 X82.986 Y62.572 E7.10231 ; infill
G1 X83.010 Y62.628 E7.10737 ; infill
G1 X82.386 Y63.251 E7.18024 ; infill
G1 E1.18024 F1500.00000 ; retract
G92 E0 ; reset extrusion distance
G1 X82.171 Y63.042 F5400.000 ; move to first infill point
G1 X82.171 Y63.042 F5400.000 ; move to first infill point
G1 X82.382 Y62.921 F5400.000 ; move to first infill point
G1 X82.441 Y62.875 F5400.000 ; move to first infill point
G1 X82.583 Y62.587 F5400.000 ; move to first infill point
G1 X82.787 Y62.687 F5400.000 ; move to first infill point
G1 X83.180 Y62.950 F5400.000 ; move to first infill point
G1 X83.180 Y64.700 F5400.000 ; move to first infill point
G1 X83.180 Y64.700 F5400.000 ; move to first infill point
G1 X83.180 Y66.450 F5400.000 ; move to first infill point
G1 X82.787 Y66.713 F5400.000 ; move to first infill point
G1 X82.583 Y66.813 F5400.000 ; move to first infill point
G1 X82.105 Y67.437 F5400.000 ; move to first infill point
G1 X82.074 Y67.474 F5400.000 ; move to first infill point
G1 X82.037 Y67.505 F5400.000 ; move to first infill point
G1 X81.300 Y68.070 F5400.000 ; move to first infill point
G1 X81.262 Y68.098 F5400.000 ; move to first infill point
G1 X81.446 Y68.416 F5400.000 ; move to first infill point
G1 X81.134 Y68.872 F5400.000 ; move to first infill point
G1 E6.05000 F1500.00000 ; unretract
G1 F1269.31
G1 X82.355 Y67.651 E6.19275 ; infill
G1 X82.986 Y66.828 E6.27843 ; infill
G1 X83.129 Y66.484 E6.30921 ; infill
G1 X82.430 Y66.484 E6.36701 ; infill
G1 X80.057 Y68.857 E6.64440 ; infill
G1 X79.300 Y68.957 E6.70752 ; infill
G1 X78.916 Y68.906 E6.73954 ; infill
G1 X79.563 Y68.259 E6.81524 ; infill
G1 X79.300 Y68.293 E6.83721 ; infill
G1 X78.537 Y68.193 E6.90081 ; infill
G1 X78.000 Y68.730 E6.96357 ; infill
G1 X77.228 Y68.410 E7.03266 ; infill
G1 X77.732 Y67.906 E7.09152 ; infill
G1 X77.503 Y67.812 E7.11194 ; infill
G1 X77.068 Y67.478 E7.15729 ; infill
G1 X76.599 Y67.947 E7.21213 ; infill
G1 X76.290 Y67.710 E7.24432 ; infill
G1 X76.053 Y67.401 E7.27652 ; infill
G1 X76.522 Y66.932 E7.33136 ; infill
G1 X76.183 Y66.484 E7.37777 ; infill
G1 X75.878 Y66.484 E7.40302 ; infill
G1 X75.339 Y67.023 E7.46595 ; infill
G1 E1.46595 F1500.00000 ; retract
G92 E0 ; reset extrusion distance
G1 X59.143 Y80.187 F5400.000 ; move to first perimeter point
G1 E6.05000 F1500.00000 ; unretract
G1 F1313.24
G1 X59.148 Y80.150 E6.05299 ; perimeter
G1 X60.007 Y80.150 E6.12162 ; perimeter
G1 X60.142 Y79.823 E6.14988 ; perimeter
G1 X60.612 Y79.212 E6.21148 ; perimeter
G1 X61.223 Y78.742 E6.27309 ; perimeter
G1 X61.936 Y78.447 E6.33469 ; perimeter
G1 X62.675 Y78.350 E6.39425 ; perimeter
G1 X63.463 Y78.446 E6.45769 ; perimeter
G1 X64.177 Y78.742 E6.51944 ; perimeter
G1 X64.788 Y79.212 E6.58104 ; perimeter
G1 X65.258 Y79.823 E6.64265 ; perimeter
G1 X65.393 Y80.150 E6.67091 ; perimeter
G1 X66.252 Y80.150 E6.73954 ; perimeter
G1 X66.403 Y81.300 E6.83222 ; perimeter
G1 X66.252 Y82.450 E6.92490 ; perimeter
G1 X65.393 Y82.450 E6.99353 ; perimeter
G1 X65.258 Y82.777 E7.02178 ; perimeter
G1 X64.788 Y83.388 E7.08339 ; perimeter
G1 X64.177 Y83.858 E7.14499 ; perimeter
G1 X63.464 Y84.153 E7.20660 ; perimeter
G1 X62.700 Y84.253 E7.26820 ; perimeter
G1 X61.936 Y84.153 E7.32981 ; perimeter
