; generated by Slic3r 1.34.1-prusa3d-win64 on 2018-10-03 at 20:17:22

; Buse diamètre 0,5mm
; Ratio : 200%
; Debit : 5mm3/s
; DMax : 7,5mm3/s = 60mm/s

; external perimeters extrusion width = 0.55mm
; perimeters extrusion width = 0.55mm
; infill extrusion width = 0.50mm
; solid infill extrusion width = 0.50mm
; top infill extrusion width = 0.40mm

M107 ; disable fan
M190 S70 ; attente chauffe plateau
M104 S210 ; préchauffe tête
G92 Z0 ; définir hauteur actuelle comme 0
G0 Z10 F1500
G28 YX ; prise d'origine en Y puis X
G1 X130 Y10 F3000 ; parking
M109 S210 ; attente chauffe T0
G0 Z0.30 F1500 ; distance 0.3mm du plateau
G92 E0 ; remise à zéro axe E
G1 E15 F150 ; pousser 15mm de filament
G1 X100 Z0 F1500 ; essuyage sur plateau et on démarre (=rétraction, hauteur, début)
G21 ; set units to millimeters
G90 ; use absolute coordinates
M82 ; use absolute distances for extrusion
G92 E0 ; reset extrusion distance
G1 E-3.60000 F3000.00000 ; retract
G92 E0 ; reset extrusion distance
G1 Z0.300 F5400.000 ; move to next layer (0)
G1 X71.150 Y79.139 F5400.000 ; move to first perimeter point
G1 E3.63000 F3000.00000 ; unretract
G1 F600
G1 X71.803 Y79.097 E3.65694 ; perimeter
G1 X72.592 Y78.940 E3.69008 ; perimeter
G1 X73.353 Y78.681 E3.72322 ; perimeter
G1 X74.075 Y78.325 E3.75635 ; perimeter
G1 X74.743 Y77.879 E3.78949 ; perimeter
G1 X75.235 Y77.447 E3.81643 ; perimeter
G1 X82.638 Y84.850 E4.24771 ; perimeter
G1 X71.150 Y84.850 E4.72096 ; perimeter
G1 X71.150 Y79.214 E4.95312 ; perimeter
G1 X70.949 Y78.682 F5400.000 ; move inwards before travel
G1 E1.35312 F3000.00000 ; retract
G92 E0 ; reset extrusion distance
G1 X75.447 Y77.235 F5400.000 ; move to first perimeter point
G1 E3.63000 F3000.00000 ; unretract
G1 F600
G1 X75.879 Y76.743 E3.65694 ; perimeter
G1 X76.325 Y76.075 E3.69008 ; perimeter
G1 X76.681 Y75.353 E3.72322 ; perimeter
G1 X76.940 Y74.592 E3.75635 ; perimeter
G1 X77.097 Y73.803 E3.78949 ; perimeter
G1 X77.139 Y73.150 E3.81643 ; perimeter
G1 X82.850 Y73.150 E4.05168 ; perimeter
G1 X82.850 Y84.638 E4.52494 ; perimeter
G1 X75.500 Y77.288 E4.95312 ; perimeter
G1 X74.971 Y77.082 F5400.000 ; move inwards before travel
G1 E1.35312 F3000.00000 ; retract
G92 E0 ; reset extrusion distance
G1 X76.678 Y72.275 F5400.000 ; move to first perimeter point
G1 E3.63000 F3000.00000 ; unretract
G1 F600
G1 X76.725 Y73.000 E3.65993 ; perimeter
G1 X76.678 Y73.725 E3.68986 ; perimeter
G1 X73.731 Y73.725 E3.81125 ; perimeter
G1 X73.610 Y74.081 E3.82675 ; perimeter
G1 X73.447 Y74.413 E3.84197 ; perimeter
G1 X73.242 Y74.720 E3.85720 ; perimeter
G1 X72.998 Y74.998 E3.87243 ; perimeter
G1 X72.720 Y75.242 E3.88765 ; perimeter
G1 X72.413 Y75.447 E3.90288 ; perimeter
G1 X72.081 Y75.610 E3.91810 ; perimeter
G1 X71.731 Y75.729 E3.93333 ; perimeter
G1 X71.369 Y75.801 E3.94855 ; perimeter
G1 X71.000 Y75.825 E3.96378 ; perimeter
G1 X70.631 Y75.801 E3.97900 ; perimeter
G1 X70.273 Y75.730 E3.99405 ; perimeter
G1 X69.919 Y75.610 E4.00945 ; perimeter
G1 X69.587 Y75.447 E4.02468 ; perimeter
G1 X69.280 Y75.242 E4.03991 ; perimeter
G1 X69.002 Y74.998 E4.05513 ; perimeter
G1 X68.758 Y74.720 E4.07036 ; perimeter
G1 X68.553 Y74.413 E4.08558 ; perimeter
G1 X68.390 Y74.081 E4.10081 ; perimeter
G1 X68.269 Y73.725 E4.11631 ; perimeter
G1 X65.322 Y73.725 E4.23769 ; perimeter
G1 X65.275 Y73.000 E4.26763 ; perimeter
G1 X65.322 Y72.275 E4.29756 ; perimeter
G1 X68.269 Y72.275 E4.41894 ; perimeter
G1 X68.390 Y71.919 E4.43444 ; perimeter
G1 X68.553 Y71.587 E4.44967 ; perimeter
G1 X68.758 Y71.280 E4.46490 ; perimeter
G1 X69.002 Y71.002 E4.48012 ; perimeter
G1 X69.280 Y70.758 E4.49535 ; perimeter
G1 X69.587 Y70.553 E4.51057 ; perimeter
G1 X69.919 Y70.390 E4.52580 ; perimeter
G1 X70.269 Y70.271 E4.54102 ; perimeter
G1 X70.631 Y70.199 E4.55625 ; perimeter
G1 X70.996 Y70.175 E4.57129 ; perimeter
G1 X71.369 Y70.199 E4.58669 ; perimeter
G1 X71.731 Y70.271 E4.60192 ; perimeter
G1 X72.081 Y70.390 E4.61715 ; perimeter
G1 X72.413 Y70.553 E4.63237 ; perimeter
G1 X72.720 Y70.758 E4.64760 ; perimeter
G1 X72.998 Y71.002 E4.66283 ; perimeter
G1 X73.242 Y71.280 E4.67805 ; perimeter
G1 X73.447 Y71.587 E4.69328 ; perimeter
G1 X73.610 Y71.919 E4.70850 ; perimeter
G1 X73.731 Y72.275 E4.72400 ; perimeter
G1 X76.603 Y72.275 E4.84230 ; perimeter
G1 X77.178 Y72.272 F5400.000 ; move inwards before travel
G1 E1.24230 F3000.00000 ; retract
G92 E0 ; reset extrusion distance
G1 X76.592 Y71.725 F5400.000 ; move to first perimeter point
G1 E3.63000 F3000.00000 ; unretract
G1 F600
G1 X74.126 Y71.725 E3.73160 ; perimeter
G1 X73.922 Y71.313 E3.75054 ; perimeter
G1 X73.677 Y70.946 E3.76872 ; perimeter
G1 X73.386 Y70.614 E3.78691 ; perimeter
G1 X73.054 Y70.323 E3.80509 ; perimeter
G1 X72.687 Y70.078 E3.82328 ; perimeter
G1 X72.291 Y69.882 E3.84146 ; perimeter
G1 X71.873 Y69.740 E3.85964 ; perimeter
G1 X71.440 Y69.654 E3.87783 ; perimeter
G1 X71.000 Y69.625 E3.89601 ; perimeter
G1 X70.560 Y69.654 E3.91420 ; perimeter
G1 X70.127 Y69.740 E3.93238 ; perimeter
G1 X69.709 Y69.882 E3.95056 ; perimeter
G1 X69.313 Y70.078 E3.96875 ; perimeter
G1 X68.946 Y70.323 E3.98693 ; perimeter
G1 X68.614 Y70.614 E4.00512 ; perimeter
G1 X68.323 Y70.946 E4.02330 ; perimeter
G1 X68.078 Y71.313 E4.04149 ; perimeter
G1 X67.874 Y71.725 E4.06042 ; perimeter
G1 X65.408 Y71.725 E4.16202 ; perimeter
G1 X65.710 Y70.810 E4.20173 ; perimeter
G1 X66.042 Y70.137 E4.23262 ; perimeter
G1 X66.458 Y69.515 E4.26347 ; perimeter
G1 X66.951 Y68.951 E4.29432 ; perimeter
G1 X67.515 Y68.458 E4.32518 ; perimeter
G1 X68.137 Y68.042 E4.35603 ; perimeter
G1 X68.809 Y67.710 E4.38688 ; perimeter
G1 X69.518 Y67.470 E4.41773 ; perimeter
G1 X70.253 Y67.324 E4.44859 ; perimeter
G1 X70.909 Y67.281 E4.47567 ; perimeter
G1 X71.746 Y67.323 E4.51020 ; perimeter
G1 X72.482 Y67.470 E4.54112 ; perimeter
G1 X73.191 Y67.710 E4.57197 ; perimeter
G1 X73.863 Y68.042 E4.60282 ; perimeter
G1 X74.485 Y68.458 E4.63368 ; perimeter
G1 X75.049 Y68.951 E4.66453 ; perimeter
G1 X75.542 Y69.515 E4.69538 ; perimeter
G1 X75.958 Y70.137 E4.72623 ; perimeter
G1 X76.290 Y70.810 E4.75713 ; perimeter
G1 X76.569 Y71.654 E4.79374 ; perimeter
G1 X76.655 Y72.221 F5400.000 ; move inwards before travel
G1 E1.19374 F3000.00000 ; retract
G92 E0 ; reset extrusion distance
G1 X75.235 Y68.553 F5400.000 ; move to first perimeter point
G1 E3.63000 F3000.00000 ; unretract
G1 F600
G1 X74.743 Y68.121 E3.65694 ; perimeter
G1 X74.075 Y67.675 E3.69008 ; perimeter
G1 X73.353 Y67.319 E3.72322 ; perimeter
G1 X72.592 Y67.060 E3.75635 ; perimeter
G1 X71.803 Y66.903 E3.78949 ; perimeter
G1 X71.150 Y66.861 E3.81643 ; perimeter
G1 X71.150 Y61.150 E4.05168 ; perimeter
G1 X82.638 Y61.150 E4.52494 ; perimeter
G1 X75.288 Y68.500 E4.95312 ; perimeter
G1 X75.082 Y69.029 F5400.000 ; move inwards before travel
G1 X75.447 Y68.765 F5400.000 ; move to first perimeter point
G1 F600
G1 X82.850 Y61.362 E5.38440 ; perimeter
G1 X82.850 Y72.850 E5.85765 ; perimeter
G1 X77.139 Y72.850 E6.09291 ; perimeter
G1 X77.097 Y72.197 E6.11985 ; perimeter
G1 X76.940 Y71.408 E6.15299 ; perimeter
G1 X76.681 Y70.647 E6.18612 ; perimeter
G1 X76.325 Y69.925 E6.21926 ; perimeter
G1 X75.879 Y69.257 E6.25239 ; perimeter
G1 X75.497 Y68.821 E6.27625 ; perimeter
G1 X75.110 Y68.395 F5400.000 ; move inwards before travel
G1 E2.67625 F3000.00000 ; retract
G92 E0 ; reset extrusion distance
G1 X65.408 Y74.275 F5400.000 ; move to first perimeter point
G1 E3.63000 F3000.00000 ; unretract
G1 F600
G1 X67.874 Y74.275 E3.73160 ; perimeter
G1 X68.078 Y74.687 E3.75054 ; perimeter
G1 X68.323 Y75.054 E3.76872 ; perimeter
G1 X68.614 Y75.386 E3.78691 ; perimeter
G1 X68.946 Y75.677 E3.80509 ; perimeter
G1 X69.313 Y75.922 E3.82328 ; perimeter
G1 X69.709 Y76.118 E3.84146 ; perimeter
G1 X70.127 Y76.260 E3.85964 ; perimeter
G1 X70.560 Y76.346 E3.87783 ; perimeter
G1 X71.000 Y76.375 E3.89601 ; perimeter
G1 X71.440 Y76.346 E3.91420 ; perimeter
G1 X71.873 Y76.260 E3.93238 ; perimeter
G1 X72.291 Y76.118 E3.95056 ; perimeter
G1 X72.687 Y75.922 E3.96875 ; perimeter
G1 X73.054 Y75.677 E3.98693 ; perimeter
G1 X73.386 Y75.386 E4.00512 ; perimeter
G1 X73.677 Y75.054 E4.02330 ; perimeter
G1 X73.922 Y74.687 E4.04149 ; perimeter
G1 X74.126 Y74.275 E4.06042 ; perimeter
G1 X76.592 Y74.275 E4.16202 ; perimeter
G1 X76.290 Y75.190 E4.20173 ; perimeter
G1 X75.958 Y75.863 E4.23262 ; perimeter
G1 X75.542 Y76.485 E4.26347 ; perimeter
G1 X75.049 Y77.049 E4.29432 ; perimeter
G1 X74.485 Y77.542 E4.32518 ; perimeter
G1 X73.863 Y77.958 E4.35603 ; perimeter
G1 X73.191 Y78.290 E4.38688 ; perimeter
G1 X72.482 Y78.530 E4.41773 ; perimeter
G1 X71.747 Y78.676 E4.44859 ; perimeter
G1 X71.000 Y78.725 E4.47944 ; perimeter
G1 X70.253 Y78.676 E4.51029 ; perimeter
G1 X69.518 Y78.530 E4.54115 ; perimeter
G1 X68.809 Y78.290 E4.57200 ; perimeter
G1 X68.137 Y77.958 E4.60285 ; perimeter
G1 X67.515 Y77.542 E4.63370 ; perimeter
G1 X66.951 Y77.049 E4.66456 ; perimeter
G1 X66.458 Y76.485 E4.69541 ; perimeter
G1 X66.042 Y75.863 E4.72626 ; perimeter
G1 X65.710 Y75.190 E4.75715 ; perimeter
G1 X65.431 Y74.346 E4.79377 ; perimeter
G1 X65.345 Y73.779 F5400.000 ; move inwards before travel
G1 E1.19377 F3000.00000 ; retract
G92 E0 ; reset extrusion distance
G1 X59.150 Y73.150 F5400.000 ; move to first perimeter point
G1 E3.63000 F3000.00000 ; unretract
G1 F600
G1 X64.861 Y73.150 E3.86525 ; perimeter
G1 X64.903 Y73.803 E3.89220 ; perimeter
G1 X65.060 Y74.592 E3.92533 ; perimeter
G1 X65.319 Y75.353 E3.95847 ; perimeter
G1 X65.675 Y76.075 E3.99160 ; perimeter
G1 X66.121 Y76.743 E4.02474 ; perimeter
G1 X66.553 Y77.235 E4.05168 ; perimeter
G1 X59.150 Y84.638 E4.48296 ; perimeter
G1 X59.150 Y73.225 E4.95312 ; perimeter
G1 X58.976 Y72.681 F5400.000 ; move inwards before travel
G1 X59.150 Y72.850 F5400.000 ; move to first perimeter point
G1 F600
G1 X59.150 Y61.362 E5.42638 ; perimeter
G1 X66.553 Y68.765 E5.85765 ; perimeter
G1 X66.121 Y69.257 E5.88460 ; perimeter
G1 X65.675 Y69.925 E5.91774 ; perimeter
G1 X65.319 Y70.647 E5.95087 ; perimeter
G1 X65.060 Y71.408 E5.98401 ; perimeter
G1 X64.903 Y72.197 E6.01714 ; perimeter
G1 X64.861 Y72.850 E6.04409 ; perimeter
G1 X59.225 Y72.850 E6.27625 ; perimeter
G1 X58.650 Y72.869 F5400.000 ; move inwards before travel
G1 E2.67625 F3000.00000 ; retract
G92 E0 ; reset extrusion distance
G1 X66.765 Y77.447 F5400.000 ; move to first perimeter point
G1 E3.63000 F3000.00000 ; unretract
G1 F600
G1 X67.257 Y77.879 E3.65694 ; perimeter
G1 X67.925 Y78.325 E3.69008 ; perimeter
G1 X68.647 Y78.681 E3.72322 ; perimeter
G1 X69.408 Y78.940 E3.75635 ; perimeter
G1 X70.197 Y79.097 E3.78949 ; perimeter
G1 X70.850 Y79.139 E3.81643 ; perimeter
G1 X70.850 Y84.850 E4.05168 ; perimeter
G1 X59.362 Y84.850 E4.52494 ; perimeter
G1 X66.712 Y77.500 E4.95312 ; perimeter
G1 X66.918 Y76.971 F5400.000 ; move inwards before travel
G1 E1.35312 F3000.00000 ; retract
G92 E0 ; reset extrusion distance
G1 X66.765 Y68.553 F5400.000 ; move to first perimeter point
G1 E3.63000 F3000.00000 ; unretract
G1 F600
G1 X59.362 Y61.150 E4.06128 ; perimeter
G1 X70.850 Y61.150 E4.53453 ; perimeter
G1 X70.850 Y66.861 E4.76978 ; perimeter
G1 X70.197 Y66.903 E4.79673 ; perimeter
G1 X69.408 Y67.060 E4.82986 ; perimeter
G1 X68.647 Y67.319 E4.86300 ; perimeter
G1 X67.925 Y67.675 E4.89613 ; perimeter
G1 X67.257 Y68.121 E4.92927 ; perimeter
G1 X66.821 Y68.503 E4.95312 ; perimeter
G1 X66.395 Y68.890 F5400.000 ; move inwards before travel
G1 E1.35312 F3000.00000 ; retract
G92 E0 ; reset extrusion distance
G1 X58.822 Y60.822 F5400.000 ; move to first perimeter point
G1 E3.63000 F3000.00000 ; unretract
G1 F1080
G1 X83.178 Y60.822 E4.63335 ; perimeter
G1 X83.178 Y85.178 E5.63671 ; perimeter
G1 X58.822 Y85.178 E6.64006 ; perimeter
G1 X58.822 Y60.897 E7.64032 ; perimeter
G1 X59.305 Y60.952 F5400.000 ; move inwards before travel
G1 E4.04032 F3000.00000 ; retract
G92 E0 ; reset extrusion distance
G1 X65.145 Y72.000 F5400.000 ; move to first infill point
G1 E3.63000 F3000.00000 ; unretract
G1 F600
G1 X67.997 Y72.000 E3.65965 ; infill
G1 X68.062 Y71.986 E3.66034 ; infill
G1 X68.315 Y71.450 E3.66650 ; infill
G1 X68.541 Y71.113 E3.67072 ; infill
G1 X68.808 Y70.808 E3.67493 ; infill
G1 X69.113 Y70.541 E3.67915 ; infill
G1 X69.454 Y70.313 E3.68341 ; infill
G1 X69.814 Y70.136 E3.68758 ; infill
G1 X70.193 Y70.007 E3.69174 ; infill
G1 X70.595 Y69.927 E3.69601 ; infill
G1 X71.000 Y69.900 E3.70022 ; infill
G1 X71.405 Y69.927 E3.70444 ; infill
G1 X71.807 Y70.007 E3.70870 ; infill
G1 X72.186 Y70.136 E3.71286 ; infill
G1 X72.546 Y70.313 E3.71703 ; infill
G1 X72.887 Y70.541 E3.72129 ; infill
G1 X73.192 Y70.808 E3.72551 ; infill
G1 X73.459 Y71.113 E3.72972 ; infill
G1 X73.685 Y71.450 E3.73394 ; infill
G1 X73.938 Y71.986 E3.74010 ; infill
G1 X74.003 Y72.000 E3.74079 ; infill
G1 X76.855 Y72.000 E3.77044 ; infill
G1 E0.17044 F3000.00000 ; retract
G92 E0 ; reset extrusion distance
G1 X76.855 Y74.000 F5400.000 ; move to first infill point
G1 E3.63000 F3000.00000 ; unretract
G1 F600
G1 X74.003 Y74.000 E3.65965 ; infill
G1 X73.938 Y74.014 E3.66034 ; infill
G1 X73.685 Y74.550 E3.66650 ; infill
G1 X73.459 Y74.887 E3.67072 ; infill
G1 X73.192 Y75.192 E3.67493 ; infill
G1 X72.887 Y75.459 E3.67915 ; infill
G1 X72.550 Y75.685 E3.68336 ; infill
G1 X72.182 Y75.866 E3.68763 ; infill
G1 X71.802 Y75.994 E3.69179 ; infill
G1 X71.410 Y76.073 E3.69596 ; infill
G1 X71.000 Y76.100 E3.70022 ; infill
G1 X70.590 Y76.073 E3.70449 ; infill
G1 X70.198 Y75.994 E3.70865 ; infill
G1 X69.819 Y75.866 E3.71281 ; infill
G1 X69.450 Y75.685 E3.71708 ; infill
G1 X69.113 Y75.459 E3.72129 ; infill
G1 X68.808 Y75.192 E3.72551 ; infill
G1 X68.541 Y74.887 E3.72972 ; infill
G1 X68.315 Y74.550 E3.73394 ; infill
G1 X68.062 Y74.014 E3.74010 ; infill
G1 X67.997 Y74.000 E3.74079 ; infill
G1 X65.145 Y74.000 E3.77044 ; infill
M104 S215 ; set temperature
M140 S65 ; set bed temperature
G1 E0.17044 F3000.00000 ; retract
G92 E0 ; reset extrusion distance
G1 Z0.550 F5400.000 ; move to next layer (1)
G1 X82.457 Y84.775 F5400.000 ; move to first perimeter point
G1 E3.63000 F3000.00000 ; unretract
G1 F1200
G1 X71.225 Y84.775 E4.20944 ; perimeter
G1 X71.225 Y79.210 E4.49656 ; perimeter
G1 X71.812 Y79.171 E4.52693 ; perimeter
G1 X72.611 Y79.012 E4.56893 ; perimeter
G1 X73.382 Y78.751 E4.61094 ; perimeter
G1 X74.112 Y78.390 E4.65294 ; perimeter
G1 X74.789 Y77.938 E4.69494 ; perimeter
G1 X75.232 Y77.550 E4.72531 ; perimeter
G1 X82.404 Y84.722 E5.24857 ; perimeter
G1 X82.595 Y85.255 F5400.000 ; move inwards before travel
G1 X82.775 Y84.457 F5400.000 ; move to first perimeter point
G1 F1200
G1 X75.550 Y77.232 E5.77570 ; perimeter
G1 X75.938 Y76.789 E5.80607 ; perimeter
G1 X76.390 Y76.112 E5.84807 ; perimeter
G1 X76.751 Y75.382 E5.89008 ; perimeter
G1 X77.012 Y74.611 E5.93208 ; perimeter
G1 X77.171 Y73.812 E5.97409 ; perimeter
G1 X77.210 Y73.225 E6.00446 ; perimeter
G1 X82.775 Y73.225 E6.29157 ; perimeter
G1 X82.775 Y84.382 E6.86715 ; perimeter
G1 X82.594 Y84.923 F5400.000 ; move inwards before travel
G1 X82.775 Y61.543 F5400.000 ; move to first perimeter point
G1 F1200
G1 X82.775 Y72.775 E7.44659 ; perimeter
G1 X77.210 Y72.775 E7.73370 ; perimeter
G1 X77.171 Y72.188 E7.76407 ; perimeter
G1 X77.012 Y71.389 E7.80608 ; perimeter
G1 X76.751 Y70.618 E7.84808 ; perimeter
G1 X76.390 Y69.888 E7.89009 ; perimeter
G1 X75.938 Y69.211 E7.93209 ; perimeter
G1 X75.550 Y68.768 E7.96246 ; perimeter
G1 X82.722 Y61.596 E8.48572 ; perimeter
G1 X83.255 Y61.405 F5400.000 ; move inwards before travel
G1 E4.88572 F3000.00000 ; retract
G92 E0 ; reset extrusion distance
G1 X76.661 Y71.775 F5400.000 ; move to first perimeter point
G1 E3.63000 F3000.00000 ; unretract
G1 F1200
G1 X74.095 Y71.775 E3.76241 ; perimeter
G1 X73.879 Y71.338 E3.78756 ; perimeter
G1 X73.637 Y70.976 E3.80999 ; perimeter
G1 X73.351 Y70.649 E3.83243 ; perimeter
G1 X73.024 Y70.363 E3.85486 ; perimeter
G1 X72.662 Y70.121 E3.87729 ; perimeter
G1 X72.272 Y69.929 E3.89973 ; perimeter
G1 X71.860 Y69.789 E3.92216 ; perimeter
G1 X71.434 Y69.704 E3.94460 ; perimeter
G1 X71.000 Y69.676 E3.96703 ; perimeter
G1 X70.566 Y69.704 E3.98946 ; perimeter
G1 X70.140 Y69.789 E4.01190 ; perimeter
