; generated by Slic3r 1.34.1-prusa3d-win64 on 2019-05-05 at 10:52:26

; Buse diamètre 0,4mm
; Ratio : 200%
; Debit : 3,2mm3/s = 40mm/s
; DMax : 4,8mm3/s = 60mm/s
; 
; PET 04 max

; external perimeters extrusion width = 0.32mm
; perimeters extrusion width = 0.40mm
; infill extrusion width = 0.40mm
; solid infill extrusion width = 0.40mm
; top infill extrusion width = 0.32mm

M107 ; disable fan
M190 S70 ; attente chauffe plateau
M104 S215 ; préchauffe tête
G92 Z0 ; définir hauteur actuelle comme 0
G0 Z10 F1500
G28 YX ; prise d'origine en Y puis X
G1 X130 Y10 F3000 ; parking
M109 S215 ; attente chauffe T0
G0 Z0.30 F1500 ; distance 0.3mm du plateau
G92 E0 ; remise à zéro axe E
G1 E15 F150 ; pousser 15mm de filament
G1 X100 Z0 F1500 ; essuyage sur plateau et on démarre (=rétraction, hauteur, début)
G21 ; set units to millimeters
G90 ; use absolute coordinates
M82 ; use absolute distances for extrusion
G92 E0 ; reset extrusion distance
G1 E-3.60000 F3000.00000 ; retract
G92 E0 ; reset extrusion distance
G1 Z0.550 F5400.000 ; move to next layer (0)
G1 X42.686 Y44.686 F5400.000 ; move to first perimeter point
G1 E3.61500 F3000.00000 ; unretract
G1 F1200
G1 X99.314 Y44.686 E7.39811 ; perimeter
G1 X99.314 Y101.314 E11.18122 ; perimeter
G1 X42.686 Y101.314 E14.96432 ; perimeter
G1 X42.686 Y44.746 E18.74342 ; perimeter
G1 E15.14342 F3000.00000 ; retract
G92 E0 ; reset extrusion distance
G1 X42.150 Y44.150 F5400.000 ; move to first perimeter point
G1 E3.61500 F3000.00000 ; unretract
G1 F1080
G1 X99.850 Y44.150 E7.46967 ; perimeter
G1 X99.850 Y101.850 E11.32434 ; perimeter
G1 X42.150 Y101.850 E15.17902 ; perimeter
G1 X42.150 Y44.210 E19.02968 ; perimeter
G1 X42.536 Y44.254 F5400.000 ; move inwards before travel
G1 E15.42968 F3000.00000 ; retract
G92 E0 ; reset extrusion distance
G1 X42.900 Y100.212 F5400.000 ; move to first infill point
G1 E3.61500 F3000.00000 ; unretract
G1 F1200
G1 X44.021 Y100.859 E3.70179 ; infill
G1 X45.096 Y100.859 E3.77382 ; infill
G1 X43.141 Y99.730 E3.92514 ; infill
G1 X43.141 Y99.110 E3.96672 ; infill
G1 X46.171 Y100.859 E4.20121 ; infill
G1 X47.245 Y100.859 E4.27325 ; infill
G1 X43.141 Y98.489 E4.59092 ; infill
G1 X43.141 Y97.869 E4.63250 ; infill
G1 X48.320 Y100.859 E5.03335 ; infill
G1 X49.395 Y100.859 E5.10538 ; infill
G1 X43.141 Y97.248 E5.58941 ; infill
G1 X43.141 Y96.628 E5.63099 ; infill
G1 X50.470 Y100.859 E6.19819 ; infill
G1 X51.544 Y100.859 E6.27023 ; infill
G1 X43.141 Y96.007 E6.92060 ; infill
G1 X43.141 Y95.387 E6.96219 ; infill
G1 X52.619 Y100.859 E7.69575 ; infill
G1 X53.694 Y100.859 E7.76778 ; infill
G1 X43.141 Y94.766 E8.58451 ; infill
G1 X43.141 Y94.146 E8.62610 ; infill
G1 X54.769 Y100.859 E9.52601 ; infill
G1 X55.843 Y100.859 E9.59804 ; infill
G1 X43.141 Y93.525 E10.58113 ; infill
G1 X43.141 Y92.905 E10.62272 ; infill
G1 X56.918 Y100.859 E11.68898 ; infill
G1 X57.993 Y100.859 E11.76101 ; infill
G1 X43.141 Y92.284 E12.91045 ; infill
G1 X43.141 Y91.664 E12.95204 ; infill
G1 X59.068 Y100.859 E14.18466 ; infill
G1 X60.142 Y100.859 E14.25669 ; infill
G1 X43.141 Y91.043 E15.57249 ; infill
G1 X43.141 Y90.423 E15.61408 ; infill
G1 X61.217 Y100.859 E17.01305 ; infill
G1 X62.292 Y100.859 E17.08508 ; infill
G1 X43.141 Y89.802 E18.56723 ; infill
G1 X43.141 Y89.182 E18.60882 ; infill
G1 X63.367 Y100.859 E20.17415 ; infill
G1 X64.441 Y100.859 E20.24618 ; infill
G1 X43.141 Y88.561 E21.89468 ; infill
G1 X43.141 Y87.941 E21.93627 ; infill
G1 X65.516 Y100.859 E23.66795 ; infill
G1 X66.591 Y100.859 E23.73999 ; infill
G1 X43.141 Y87.320 E25.55485 ; infill
G1 X43.141 Y86.700 E25.59643 ; infill
G1 X67.666 Y100.859 E27.49447 ; infill
G1 X68.740 Y100.859 E27.56650 ; infill
G1 X43.141 Y86.079 E29.54772 ; infill
G1 X43.141 Y85.459 E29.58930 ; infill
G1 X69.815 Y100.859 E31.65370 ; infill
G1 X70.890 Y100.859 E31.72573 ; infill
G1 X43.141 Y84.838 E33.87330 ; infill
G1 X43.141 Y84.218 E33.91488 ; infill
G1 X71.965 Y100.859 E36.14563 ; infill
G1 X73.039 Y100.859 E36.21766 ; infill
G1 X43.141 Y83.597 E38.53159 ; infill
G1 X43.141 Y82.977 E38.57317 ; infill
G1 X74.114 Y100.859 E40.97027 ; infill
G1 X75.189 Y100.859 E41.04231 ; infill
G1 X43.141 Y82.356 E43.52258 ; infill
G1 X43.141 Y81.736 E43.56417 ; infill
G1 X76.264 Y100.859 E46.12763 ; infill
G1 X77.338 Y100.859 E46.19966 ; infill
G1 X43.141 Y81.115 E48.84629 ; infill
G1 X43.141 Y80.495 E48.88788 ; infill
G1 X78.413 Y100.859 E51.61769 ; infill
G1 X79.488 Y100.859 E51.68972 ; infill
G1 X43.141 Y79.874 E54.50271 ; infill
G1 X43.141 Y79.254 E54.54430 ; infill
G1 X80.563 Y100.859 E57.44046 ; infill
G1 X81.637 Y100.859 E57.51249 ; infill
G1 X43.141 Y78.633 E60.49183 ; infill
G1 X43.141 Y78.013 E60.53342 ; infill
G1 X82.712 Y100.859 E63.59594 ; infill
G1 X83.787 Y100.859 E63.66797 ; infill
G1 X43.141 Y77.392 E66.81367 ; infill
G1 X43.141 Y76.772 E66.85526 ; infill
G1 X84.862 Y100.859 E70.08413 ; infill
G1 X85.936 Y100.859 E70.15616 ; infill
G1 X43.141 Y76.151 E73.46821 ; infill
G1 X43.141 Y75.531 E73.50980 ; infill
G1 X87.011 Y100.859 E76.90503 ; infill
G1 X88.086 Y100.859 E76.97706 ; infill
G1 X43.141 Y74.910 E80.45546 ; infill
G1 X43.141 Y74.290 E80.49705 ; infill
G1 X89.161 Y100.859 E84.05863 ; infill
G1 X90.235 Y100.859 E84.13067 ; infill
G1 X43.141 Y73.669 E87.77543 ; infill
G1 X43.141 Y73.049 E87.81701 ; infill
G1 X91.310 Y100.859 E91.54495 ; infill
G1 X92.385 Y100.859 E91.61698 ; infill
G1 X43.141 Y72.428 E95.42810 ; infill
G1 X43.141 Y71.808 E95.46968 ; infill
G1 X93.459 Y100.859 E99.36398 ; infill
G1 X94.534 Y100.859 E99.43601 ; infill
G1 X43.141 Y71.187 E103.41348 ; infill
G1 X43.141 Y70.567 E103.45506 ; infill
G1 X95.609 Y100.859 E107.51571 ; infill
G1 X96.684 Y100.859 E107.58774 ; infill
G1 X43.141 Y69.946 E111.73157 ; infill
G1 X43.141 Y69.326 E111.77315 ; infill
G1 X97.758 Y100.859 E116.00015 ; infill
G1 X98.833 Y100.859 E116.07219 ; infill
G1 X43.141 Y68.705 E120.38236 ; infill
G1 X43.141 Y68.085 E120.42395 ; infill
G1 X98.859 Y100.254 E124.73613 ; infill
G1 X98.859 Y99.633 E124.77772 ; infill
G1 X43.141 Y67.464 E129.08991 ; infill
G1 X43.141 Y66.844 E129.13149 ; infill
G1 X98.859 Y99.013 E133.44368 ; infill
G1 X98.859 Y98.392 E133.48527 ; infill
G1 X43.141 Y66.223 E137.79745 ; infill
G1 X43.141 Y65.603 E137.83904 ; infill
G1 X98.859 Y97.772 E142.15122 ; infill
G1 X98.859 Y97.151 E142.19281 ; infill
G1 X43.141 Y64.982 E146.50499 ; infill
G1 X43.141 Y64.362 E146.54658 ; infill
G1 X98.859 Y96.531 E150.85876 ; infill
G1 X98.859 Y95.910 E150.90035 ; infill
G1 X43.141 Y63.741 E155.21254 ; infill
G1 X43.141 Y63.121 E155.25412 ; infill
G1 X98.859 Y95.290 E159.56631 ; infill
G1 X98.859 Y94.669 E159.60790 ; infill
G1 X43.141 Y62.500 E163.92008 ; infill
G1 X43.141 Y61.880 E163.96167 ; infill
G1 X98.859 Y94.049 E168.27385 ; infill
G1 X98.859 Y93.428 E168.31544 ; infill
G1 X43.141 Y61.259 E172.62762 ; infill
G1 X43.141 Y60.639 E172.66921 ; infill
G1 X98.859 Y92.808 E176.98139 ; infill
G1 X98.859 Y92.187 E177.02298 ; infill
G1 X43.141 Y60.018 E181.33516 ; infill
G1 X43.141 Y59.398 E181.37675 ; infill
G1 X98.859 Y91.567 E185.68894 ; infill
G1 X98.859 Y90.946 E185.73053 ; infill
G1 X43.141 Y58.777 E190.04271 ; infill
G1 X43.141 Y58.157 E190.08430 ; infill
G1 X98.859 Y90.326 E194.39648 ; infill
G1 X98.859 Y89.705 E194.43807 ; infill
G1 X43.141 Y57.536 E198.75025 ; infill
G1 X43.141 Y56.916 E198.79184 ; infill
G1 X98.859 Y89.085 E203.10402 ; infill
G1 X98.859 Y88.464 E203.14561 ; infill
G1 X43.141 Y56.295 E207.45779 ; infill
G1 X43.141 Y55.675 E207.49938 ; infill
G1 X98.859 Y87.844 E211.81157 ; infill
G1 X98.859 Y87.223 E211.85315 ; infill
G1 X43.141 Y55.054 E216.16534 ; infill
G1 X43.141 Y54.434 E216.20693 ; infill
G1 X98.859 Y86.603 E220.51911 ; infill
G1 X98.859 Y85.982 E220.56070 ; infill
G1 X43.141 Y53.813 E224.87288 ; infill
G1 X43.141 Y53.193 E224.91447 ; infill
G1 X98.859 Y85.361 E229.22665 ; infill
G1 X98.859 Y84.741 E229.26824 ; infill
G1 X43.141 Y52.572 E233.58042 ; infill
G1 X43.141 Y51.952 E233.62201 ; infill
G1 X98.859 Y84.120 E237.93419 ; infill
G1 X98.859 Y83.500 E237.97578 ; infill
G1 X43.141 Y51.331 E242.28797 ; infill
G1 X43.141 Y50.711 E242.32956 ; infill
G1 X98.859 Y82.879 E246.64174 ; infill
G1 X98.859 Y82.259 E246.68333 ; infill
G1 X43.141 Y50.090 E250.99551 ; infill
G1 X43.141 Y49.470 E251.03710 ; infill
G1 X98.859 Y81.638 E255.34928 ; infill
G1 X98.859 Y81.018 E255.39087 ; infill
G1 X43.141 Y48.849 E259.70305 ; infill
G1 X43.141 Y48.229 E259.74464 ; infill
G1 X98.859 Y80.397 E264.05682 ; infill
G1 X98.859 Y79.777 E264.09841 ; infill
G1 X43.141 Y47.608 E268.41060 ; infill
G1 X43.141 Y46.988 E268.45218 ; infill
G1 X98.859 Y79.156 E272.76437 ; infill
G1 X98.859 Y78.536 E272.80596 ; infill
G1 X43.141 Y46.367 E277.11814 ; infill
G1 X43.141 Y45.747 E277.15973 ; infill
G1 X98.859 Y77.915 E281.47191 ; infill
G1 X98.859 Y77.295 E281.51350 ; infill
G1 X43.167 Y45.141 E285.82369 ; infill
G1 X44.241 Y45.141 E285.89572 ; infill
G1 X98.859 Y76.674 E290.12273 ; infill
G1 X98.859 Y76.054 E290.16432 ; infill
G1 X45.316 Y45.141 E294.30816 ; infill
G1 X46.391 Y45.141 E294.38019 ; infill
G1 X98.859 Y75.433 E298.44085 ; infill
G1 X98.859 Y74.813 E298.48243 ; infill
G1 X47.466 Y45.141 E302.45991 ; infill
G1 X48.540 Y45.141 E302.53195 ; infill
G1 X98.859 Y74.192 E306.42625 ; infill
G1 X98.859 Y73.572 E306.46784 ; infill
G1 X49.615 Y45.141 E310.27896 ; infill
G1 X50.690 Y45.141 E310.35100 ; infill
G1 X98.859 Y72.951 E314.07895 ; infill
G1 X98.859 Y72.331 E314.12053 ; infill
G1 X51.765 Y45.141 E317.76531 ; infill
G1 X52.839 Y45.141 E317.83734 ; infill
G1 X98.859 Y71.710 E321.39893 ; infill
G1 X98.859 Y71.090 E321.44052 ; infill
G1 X53.914 Y45.141 E324.91894 ; infill
G1 X54.989 Y45.141 E324.99097 ; infill
G1 X98.859 Y70.469 E328.38621 ; infill
G1 X98.859 Y69.849 E328.42780 ; infill
G1 X56.064 Y45.141 E331.73986 ; infill
G1 X57.138 Y45.141 E331.81189 ; infill
G1 X98.859 Y69.228 E335.04078 ; infill
G1 X98.859 Y68.608 E335.08237 ; infill
G1 X58.213 Y45.141 E338.22807 ; infill
G1 X59.288 Y45.141 E338.30011 ; infill
G1 X98.859 Y67.987 E341.36264 ; infill
G1 X98.859 Y67.367 E341.40423 ; infill
G1 X60.363 Y45.141 E344.38358 ; infill
G1 X61.437 Y45.141 E344.45561 ; infill
G1 X98.859 Y66.746 E347.35179 ; infill
G1 X98.859 Y66.126 E347.39338 ; infill
G1 X62.512 Y45.141 E350.20637 ; infill
G1 X63.587 Y45.141 E350.27841 ; infill
G1 X98.859 Y65.505 E353.00823 ; infill
G1 X98.859 Y64.885 E353.04982 ; infill
G1 X64.662 Y45.141 E355.69646 ; infill
G1 X65.736 Y45.141 E355.76849 ; infill
G1 X98.859 Y64.264 E358.33196 ; infill
G1 X98.859 Y63.644 E358.37355 ; infill
G1 X66.811 Y45.141 E360.85384 ; infill
G1 X67.886 Y45.141 E360.92587 ; infill
G1 X98.859 Y63.023 E363.32298 ; infill
G1 X98.859 Y62.403 E363.36457 ; infill
G1 X68.960 Y45.141 E365.67850 ; infill
G1 X70.035 Y45.141 E365.75054 ; infill
G1 X98.859 Y61.782 E367.98130 ; infill
G1 X98.859 Y61.162 E368.02288 ; infill
G1 X71.110 Y45.141 E370.17046 ; infill
G1 X72.185 Y45.141 E370.24250 ; infill
G1 X98.859 Y60.541 E372.30690 ; infill
G1 X98.859 Y59.921 E372.34849 ; infill
G1 X73.259 Y45.141 E374.32971 ; infill
G1 X74.334 Y45.141 E374.40175 ; infill
G1 X98.859 Y59.300 E376.29980 ; infill
G1 X98.859 Y58.680 E376.34138 ; infill
G1 X75.409 Y45.141 E378.15625 ; infill
G1 X76.484 Y45.141 E378.22829 ; infill
G1 X98.859 Y58.059 E379.95998 ; infill
G1 X98.859 Y57.439 E380.00157 ; infill
G1 X77.558 Y45.141 E381.65009 ; infill
G1 X78.633 Y45.141 E381.72212 ; infill
G1 X98.859 Y56.818 E383.28746 ; infill
G1 X98.859 Y56.198 E383.32905 ; infill
G1 X79.708 Y45.141 E384.81121 ; infill
G1 X80.783 Y45.141 E384.88324 ; infill
G1 X98.859 Y55.577 E386.28223 ; infill
G1 X98.859 Y54.957 E386.32382 ; infill
G1 X81.857 Y45.141 E387.63962 ; infill
G1 X82.932 Y45.141 E387.71166 ; infill
G1 X98.859 Y54.336 E388.94429 ; infill
G1 X98.859 Y53.716 E388.98587 ; infill
G1 X84.007 Y45.141 E390.13533 ; infill
G1 X85.082 Y45.141 E390.20736 ; infill
G1 X98.859 Y53.095 E391.27364 ; infill
G1 X98.859 Y52.475 E391.31522 ; infill
G1 X86.156 Y45.141 E392.29832 ; infill
G1 X87.231 Y45.141 E392.37036 ; infill
G1 X98.859 Y51.854 E393.27028 ; infill
G1 X98.859 Y51.234 E393.31187 ; infill
G1 X88.306 Y45.141 E394.12861 ; infill
G1 X89.381 Y45.141 E394.20064 ; infill
G1 X98.859 Y50.613 E394.93421 ; infill
G1 X98.859 Y49.993 E394.97580 ; infill
G1 X90.455 Y45.141 E395.62619 ; infill
G1 X91.530 Y45.141 E395.69822 ; infill
G1 X98.859 Y49.372 E396.26543 ; infill
G1 X98.859 Y48.752 E396.30702 ; infill
G1 X92.605 Y45.141 E396.79105 ; infill
G1 X93.680 Y45.141 E396.86309 ; infill
G1 X98.859 Y48.131 E397.26394 ; infill
G1 X98.859 Y47.511 E397.30553 ; infill
G1 X94.754 Y45.141 E397.62321 ; infill
G1 X95.829 Y45.141 E397.69525 ; infill
G1 X98.859 Y46.890 E397.92975 ; infill
G1 X98.859 Y46.270 E397.97134 ; infill
G1 X96.904 Y45.141 E398.12266 ; infill
G1 X97.979 Y45.141 E398.19470 ; infill
G1 X99.100 Y45.788 E398.28150 ; infill
M104 S220 ; set temperature
M140 S65 ; set bed temperature
G1 E394.68150 F3000.00000 ; retract
G92 E0 ; reset extrusion distance
G1 Z0.750 F5400.000 ; move to next layer (1)
G1 X42.077 Y44.150 F5400.000 ; move to first perimeter point
G1 E3.61500 F3000.00000 ; unretract
G1 F2400
G1 X42.077 Y44.077 E3.61717 ; perimeter
G1 X99.923 Y44.077 E5.33468 ; perimeter
G1 X99.923 Y101.923 E7.05220 ; perimeter
G1 X42.077 Y101.923 E8.76972 ; perimeter
G1 X42.077 Y44.210 E10.48329 ; perimeter
G1 E6.88329 F3000.00000 ; retract
G92 E0 ; reset extrusion distance
G1 X41.760 Y44.150 F5400.000 ; move to first perimeter point
G1 E3.61500 F3000.00000 ; unretract
G1 F2160
G1 X41.760 Y43.760 E3.62399 ; perimeter
G1 X100.240 Y43.760 E4.97132 ; perimeter
G1 X100.240 Y102.240 E6.31866 ; perimeter
G1 X41.760 Y102.240 E7.66599 ; perimeter
G1 X41.760 Y44.210 E9.00296 ; perimeter
G1 X42.035 Y43.874 F5400.000 ; move inwards before travel
G1 E5.40296 F3000.00000 ; retract
G92 E0 ; reset extrusion distance
G1 X42.220 Y45.244 F5400.000 ; move to first infill point
G1 E3.61500 F3000.00000 ; unretract
G1 F2400
G1 X42.718 Y44.381 E3.64464 ; infill
G1 X43.131 Y44.381 E3.65692 ; infill
G1 X42.381 Y45.681 E3.70157 ; infill
G1 X42.381 Y46.396 E3.72284 ; infill
G1 X43.544 Y44.381 E3.79205 ; infill
G1 X43.957 Y44.381 E3.80433 ; infill
G1 X42.381 Y47.111 E3.89809 ; infill
G1 X42.381 Y47.827 E3.91936 ; infill
G1 X44.370 Y44.381 E4.03769 ; infill
G1 X44.783 Y44.381 E4.04997 ; infill
G1 X42.381 Y48.542 E4.19285 ; infill
G1 X42.381 Y49.257 E4.21412 ; infill
G1 X45.196 Y44.381 E4.38157 ; infill
G1 X45.609 Y44.381 E4.39384 ; infill
G1 X42.381 Y49.972 E4.58585 ; infill
G1 X42.381 Y50.688 E4.60712 ; infill
G1 X46.022 Y44.381 E4.82368 ; infill
G1 X46.435 Y44.381 E4.83596 ; infill
G1 X42.381 Y51.403 E5.07708 ; infill
G1 X42.381 Y52.118 E5.09835 ; infill
G1 X46.848 Y44.381 E5.36404 ; infill
G1 X47.261 Y44.381 E5.37631 ; infill
G1 X42.381 Y52.833 E5.66656 ; infill
G1 X42.381 Y53.549 E5.68783 ; infill
G1 X47.674 Y44.381 E6.00263 ; infill
G1 X48.087 Y44.381 E6.01491 ; infill
G1 X42.381 Y54.264 E6.35427 ; infill
G1 X42.381 Y54.979 E6.37554 ; infill
G1 X48.500 Y44.381 E6.73946 ; infill
G1 X48.913 Y44.381 E6.75174 ; infill
G1 X42.381 Y55.694 E7.14022 ; infill
G1 X42.381 Y56.410 E7.16149 ; infill
G1 X49.326 Y44.381 E7.57452 ; infill
G1 X49.738 Y44.381 E7.58680 ; infill
G1 X42.381 Y57.125 E8.02440 ; infill
G1 X42.381 Y57.840 E8.04567 ; infill
G1 X50.151 Y44.381 E8.50783 ; infill
G1 X50.564 Y44.381 E8.52011 ; infill
G1 X42.381 Y58.555 E9.00683 ; infill
G1 X42.381 Y59.271 E9.02810 ; infill
G1 X50.977 Y44.381 E9.53937 ; infill
G1 X51.390 Y44.381 E9.55165 ; infill
G1 X42.381 Y59.986 E10.08749 ; infill
G1 X42.381 Y60.701 E10.10876 ; infill
G1 X51.803 Y44.381 E10.66915 ; infill
G1 X52.216 Y44.381 E10.68143 ; infill
G1 X42.381 Y61.416 E11.26639 ; infill
G1 X42.381 Y62.132 E11.28766 ; infill
G1 X52.629 Y44.381 E11.89717 ; infill
G1 X53.042 Y44.381 E11.90945 ; infill
G1 X42.381 Y62.847 E12.54353 ; infill
G1 X42.381 Y63.562 E12.56480 ; infill
G1 X53.455 Y44.381 E13.22343 ; infill
G1 X53.868 Y44.381 E13.23571 ; infill
G1 X42.381 Y64.277 E13.91890 ; infill
G1 X42.381 Y64.993 E13.94017 ; infill
