; generated by Slic3r 1.34.1-prusa3d-win64 on 2017-08-04 at 20:29:55

; Buse OEV5 - diamètre 0,5mm

; external perimeters extrusion width = 0.40mm
; perimeters extrusion width = 0.50mm
; infill extrusion width = 0.50mm
; solid infill extrusion width = 0.50mm
; top infill extrusion width = 0.40mm

M107 ; disable fan
M190 S70 ; attente chauffe plateau
M104 S195 ; préchauffe tête
G92 Z0
G1 Z5 F1200
G28 Y ; prise d'origine en Y
G28 X ; prise d'origine en X
G1 X70 Y70 F6000 ; parking
M109 S195 ; attente chauffe T0
G21 ; set units to millimeters
G90 ; use absolute coordinates
M82 ; use absolute distances for extrusion
G92 E0 ; reset extrusion distance
G1 E-3.50000 F3000.00000 ; retract
G92 E0 ; reset extrusion distance
G1 Z0.250 F7500.000 ; move to next layer (0)
G1 X21.718 Y16.624 F7500.000 ; move to first skirt point
G1 E3.50000 F3000.00000 ; unretract
G1 F1800
G1 X22.923 Y15.613 E3.57300 ; skirt
G1 X23.501 Y15.272 E3.60412 ; skirt
G1 X24.829 Y14.756 E3.67021 ; skirt
G1 X26.415 Y14.545 E3.74446 ; skirt
G1 X117.117 Y14.545 E7.95234 ; skirt
G1 X117.672 Y14.599 E7.97823 ; skirt
G1 X118.206 Y14.760 E8.00411 ; skirt
G1 X118.700 Y15.019 E8.03000 ; skirt
G1 X119.138 Y15.372 E8.05608 ; skirt
G1 X119.497 Y15.800 E8.08197 ; skirt
G1 X119.769 Y16.292 E8.10805 ; skirt
G1 X119.940 Y16.827 E8.13413 ; skirt
G1 X120.005 Y17.381 E8.16001 ; skirt
G1 X120.005 Y126.579 E13.22600 ; skirt
G1 X119.828 Y127.559 E13.27216 ; skirt
G1 X119.327 Y128.423 E13.31852 ; skirt
G1 X118.879 Y128.853 E13.34731 ; skirt
G1 X118.350 Y129.177 E13.37611 ; skirt
G1 X117.760 Y129.382 E13.40510 ; skirt
G1 X117.144 Y129.455 E13.43389 ; skirt
G1 X26.458 Y129.455 E17.64105 ; skirt
G1 X25.060 Y129.292 E17.70634 ; skirt
G1 X24.470 Y129.129 E17.73474 ; skirt
G1 X23.214 Y128.581 E17.79831 ; skirt
G1 X22.074 Y127.732 E17.86423 ; skirt
G1 X21.060 Y126.524 E17.93742 ; skirt
G1 X20.717 Y125.938 E17.96892 ; skirt
G1 X20.203 Y124.609 E18.03501 ; skirt
G1 X19.995 Y122.980 E18.11120 ; skirt
G1 X19.995 Y20.982 E22.84314 ; skirt
G1 X20.159 Y19.606 E22.90746 ; skirt
G1 X20.322 Y19.016 E22.93587 ; skirt
G1 X20.869 Y17.764 E22.99924 ; skirt
G1 X21.682 Y16.672 E23.06237 ; skirt
G1 E19.56237 F3000.00000 ; retract
G92 E0 ; reset extrusion distance
G1 X118.828 Y15.693 F7500.000 ; move to first skirt point
G1 E3.50000 F3000.00000 ; unretract
G1 F1800
G1 X119.361 Y16.473 E3.54382 ; skirt
G1 X119.559 Y17.397 E3.58765 ; skirt
G1 X119.559 Y126.574 E8.65266 ; skirt
G1 X119.409 Y127.406 E8.69190 ; skirt
G1 X118.984 Y128.138 E8.73114 ; skirt
G1 X118.602 Y128.503 E8.75565 ; skirt
G1 X118.154 Y128.776 E8.77998 ; skirt
G1 X117.658 Y128.947 E8.80431 ; skirt
G1 X117.134 Y129.009 E8.82883 ; skirt
G1 X26.459 Y129.009 E13.03544 ; skirt
G1 X25.137 Y128.852 E13.09722 ; skirt
G1 X24.628 Y128.712 E13.12173 ; skirt
G1 X23.437 Y128.194 E13.18196 ; skirt
G1 X22.357 Y127.387 E13.24452 ; skirt
G1 X21.416 Y126.253 E13.31288 ; skirt
G1 X21.124 Y125.754 E13.33971 ; skirt
G1 X20.637 Y124.505 E13.40189 ; skirt
G1 X20.441 Y122.979 E13.47330 ; skirt
G1 X20.441 Y20.990 E18.20481 ; skirt
G1 X20.598 Y19.683 E18.26588 ; skirt
G1 X20.738 Y19.178 E18.29021 ; skirt
G1 X21.256 Y17.987 E18.35044 ; skirt
G1 X22.063 Y16.907 E18.41299 ; skirt
G1 X23.194 Y15.968 E18.48118 ; skirt
G1 X23.689 Y15.677 E18.50783 ; skirt
G1 X24.934 Y15.190 E18.56984 ; skirt
G1 X26.429 Y14.992 E18.63982 ; skirt
G1 X117.116 Y14.991 E22.84704 ; skirt
G1 X118.039 Y15.174 E22.89069 ; skirt
G1 X118.778 Y15.660 E22.93173 ; skirt
G1 E19.43173 F3000.00000 ; retract
G92 E0 ; reset extrusion distance
G1 X80.146 Y48.804 F7500.000 ; move to first perimeter point
G1 E3.50000 F3000.00000 ; unretract
G1 F1800
G1 X80.146 Y95.196 E5.65228 ; perimeter
G1 X74.254 Y95.196 E5.92566 ; perimeter
G1 X74.254 Y48.804 E8.07794 ; perimeter
G1 X80.086 Y48.804 E8.34853 ; perimeter
G1 E4.84853 F3000.00000 ; retract
G92 E0 ; reset extrusion distance
G1 X79.700 Y49.250 F7500.000 ; move to first perimeter point
G1 E3.50000 F3000.00000 ; unretract
G1 F1620
G1 X79.700 Y94.750 E5.61087 ; perimeter
G1 X74.700 Y94.750 E5.84283 ; perimeter
G1 X74.700 Y49.250 E7.95369 ; perimeter
G1 X79.640 Y49.250 E8.18287 ; perimeter
G1 X80.053 Y49.063 F7500.000 ; move inwards before travel
G1 E4.68287 F3000.00000 ; retract
G92 E0 ; reset extrusion distance
G1 X116.416 Y18.134 F7500.000 ; move to first perimeter point
G1 E3.50000 F3000.00000 ; unretract
G1 F1800
G1 X116.416 Y125.866 E8.49799 ; perimeter
G1 X26.524 Y125.866 E12.66830 ; perimeter
G1 X25.711 Y125.759 E12.70638 ; perimeter
G1 X25.022 Y125.474 E12.74097 ; perimeter
G1 X24.430 Y125.020 E12.77556 ; perimeter
G1 X23.976 Y124.428 E12.81016 ; perimeter
G1 X23.691 Y123.739 E12.84475 ; perimeter
G1 X23.584 Y122.926 E12.88282 ; perimeter
G1 X23.584 Y21.074 E17.60797 ; perimeter
G1 X23.691 Y20.261 E17.64604 ; perimeter
G1 X23.976 Y19.572 E17.68064 ; perimeter
G1 X24.430 Y18.980 E17.71523 ; perimeter
G1 X25.022 Y18.526 E17.74982 ; perimeter
G1 X25.711 Y18.241 E17.78442 ; perimeter
G1 X26.524 Y18.134 E17.82249 ; perimeter
G1 X116.356 Y18.134 E21.99002 ; perimeter
G1 E18.49002 F3000.00000 ; retract
G92 E0 ; reset extrusion distance
G1 X116.862 Y17.688 F7500.000 ; move to first perimeter point
G1 E3.50000 F3000.00000 ; unretract
G1 F1620
G1 X116.862 Y126.312 E8.53940 ; perimeter
G1 X26.495 Y126.312 E12.73178 ; perimeter
G1 X25.594 Y126.194 E12.77394 ; perimeter
G1 X24.797 Y125.864 E12.81398 ; perimeter
G1 X24.112 Y125.338 E12.85403 ; perimeter
G1 X23.586 Y124.653 E12.89407 ; perimeter
G1 X23.256 Y123.856 E12.93412 ; perimeter
G1 X23.138 Y122.955 E12.97627 ; perimeter
G1 X23.138 Y21.045 E17.70414 ; perimeter
G1 X23.256 Y20.144 E17.74630 ; perimeter
G1 X23.586 Y19.347 E17.78634 ; perimeter
G1 X24.112 Y18.662 E17.82639 ; perimeter
G1 X24.797 Y18.136 E17.86643 ; perimeter
G1 X25.594 Y17.806 E17.90648 ; perimeter
G1 X26.495 Y17.688 E17.94863 ; perimeter
G1 X116.802 Y17.688 E22.13823 ; perimeter
G1 X116.663 Y18.034 F7500.000 ; move inwards before travel
G1 E18.63823 F3000.00000 ; retract
G92 E0 ; reset extrusion distance
G1 X116.238 Y19.215 F7500.000 ; move to first infill point
G1 E3.50000 F3000.00000 ; unretract
G1 F1800
G1 X115.536 Y18.513 E3.54609 ; infill
G1 X114.904 Y18.513 E3.57541 ; infill
G1 X116.037 Y19.646 E3.64979 ; infill
G1 X116.037 Y20.278 E3.67911 ; infill
G1 X114.272 Y18.513 E3.79495 ; infill
G1 X113.641 Y18.513 E3.82427 ; infill
G1 X116.037 Y20.909 E3.98158 ; infill
G1 X116.037 Y21.541 E4.01090 ; infill
G1 X113.009 Y18.513 E4.20968 ; infill
G1 X112.377 Y18.513 E4.23901 ; infill
G1 X116.037 Y22.173 E4.47925 ; infill
G1 X116.037 Y22.804 E4.50858 ; infill
G1 X111.746 Y18.513 E4.79029 ; infill
G1 X111.114 Y18.513 E4.81961 ; infill
G1 X116.037 Y23.436 E5.14280 ; infill
G1 X116.037 Y24.068 E5.17212 ; infill
G1 X110.482 Y18.513 E5.53677 ; infill
G1 X109.851 Y18.513 E5.56610 ; infill
G1 X116.037 Y24.699 E5.97222 ; infill
G1 X116.037 Y25.331 E6.00154 ; infill
G1 X109.219 Y18.513 E6.44913 ; infill
G1 X108.587 Y18.513 E6.47845 ; infill
G1 X116.037 Y25.963 E6.96751 ; infill
G1 X116.037 Y26.594 E6.99683 ; infill
G1 X107.956 Y18.513 E7.52736 ; infill
G1 X107.324 Y18.513 E7.55668 ; infill
G1 X116.037 Y27.226 E8.12868 ; infill
G1 X116.037 Y27.857 E8.15800 ; infill
G1 X106.693 Y18.513 E8.77147 ; infill
G1 X106.061 Y18.513 E8.80079 ; infill
G1 X116.037 Y28.489 E9.45572 ; infill
G1 X116.037 Y29.121 E9.48504 ; infill
G1 X105.429 Y18.513 E10.18145 ; infill
G1 X104.798 Y18.513 E10.21077 ; infill
G1 X116.037 Y29.752 E10.94864 ; infill
G1 X116.037 Y30.384 E10.97796 ; infill
G1 X104.166 Y18.513 E11.75730 ; infill
G1 X103.534 Y18.513 E11.78662 ; infill
G1 X116.037 Y31.016 E12.60743 ; infill
G1 X116.037 Y31.647 E12.63675 ; infill
G1 X102.903 Y18.513 E13.49903 ; infill
G1 X102.271 Y18.513 E13.52835 ; infill
G1 X116.037 Y32.279 E14.43209 ; infill
G1 X116.037 Y32.911 E14.46142 ; infill
G1 X101.639 Y18.513 E15.40663 ; infill
G1 X101.008 Y18.513 E15.43595 ; infill
G1 X116.037 Y33.542 E16.42263 ; infill
G1 X116.037 Y34.174 E16.45196 ; infill
G1 X100.376 Y18.513 E17.48011 ; infill
G1 X99.744 Y18.513 E17.50943 ; infill
G1 X116.037 Y34.806 E18.57905 ; infill
G1 X116.037 Y35.437 E18.60837 ; infill
G1 X99.113 Y18.513 E19.71946 ; infill
G1 X98.481 Y18.513 E19.74878 ; infill
G1 X116.037 Y36.069 E20.90134 ; infill
G1 X116.037 Y36.700 E20.93066 ; infill
G1 X97.850 Y18.513 E22.12468 ; infill
G1 X97.218 Y18.513 E22.15401 ; infill
G1 X116.037 Y37.332 E23.38950 ; infill
G1 X116.037 Y37.964 E23.41882 ; infill
G1 X96.586 Y18.513 E24.69578 ; infill
G1 X95.955 Y18.513 E24.72511 ; infill
G1 X116.037 Y38.595 E26.04354 ; infill
G1 X116.037 Y39.227 E26.07286 ; infill
G1 X95.323 Y18.513 E27.43276 ; infill
G1 X94.691 Y18.513 E27.46208 ; infill
G1 X116.037 Y39.859 E28.86345 ; infill
G1 X116.037 Y40.490 E28.89277 ; infill
G1 X94.060 Y18.513 E30.33561 ; infill
G1 X93.428 Y18.513 E30.36493 ; infill
G1 X116.037 Y41.122 E31.84923 ; infill
G1 X116.037 Y41.754 E31.87856 ; infill
G1 X92.796 Y18.513 E33.40433 ; infill
G1 X92.165 Y18.513 E33.43365 ; infill
G1 X116.037 Y42.385 E35.00089 ; infill
G1 X116.037 Y43.017 E35.03022 ; infill
G1 X91.533 Y18.513 E36.63893 ; infill
G1 X90.901 Y18.513 E36.66825 ; infill
G1 X116.037 Y43.649 E38.31843 ; infill
G1 X116.037 Y44.280 E38.34775 ; infill
G1 X90.270 Y18.513 E40.03940 ; infill
G1 X89.638 Y18.513 E40.06872 ; infill
G1 X116.037 Y44.912 E41.80184 ; infill
G1 X116.037 Y45.543 E41.83116 ; infill
G1 X89.007 Y18.513 E43.60575 ; infill
G1 X88.375 Y18.513 E43.63507 ; infill
G1 X116.037 Y46.175 E45.45112 ; infill
G1 X116.037 Y46.807 E45.48044 ; infill
G1 X87.743 Y18.513 E47.33797 ; infill
G1 X87.112 Y18.513 E47.36729 ; infill
G1 X116.037 Y47.438 E49.26628 ; infill
G1 X116.037 Y48.070 E49.29560 ; infill
G1 X86.480 Y18.513 E51.23606 ; infill
G1 X85.848 Y18.513 E51.26538 ; infill
G1 X116.037 Y48.702 E53.24731 ; infill
G1 X116.037 Y49.333 E53.27663 ; infill
G1 X85.217 Y18.513 E55.30003 ; infill
G1 X84.585 Y18.513 E55.32935 ; infill
G1 X116.037 Y49.965 E57.39422 ; infill
G1 X116.037 Y50.597 E57.42354 ; infill
G1 X83.953 Y18.513 E59.52987 ; infill
G1 X83.322 Y18.513 E59.55920 ; infill
G1 X116.037 Y51.228 E61.70700 ; infill
G1 X116.037 Y51.860 E61.73632 ; infill
G1 X82.690 Y18.513 E63.92559 ; infill
G1 X82.058 Y18.513 E63.95491 ; infill
G1 X116.037 Y52.492 E66.18565 ; infill
G1 X116.037 Y53.123 E66.21498 ; infill
G1 X81.427 Y18.513 E68.48718 ; infill
G1 X80.795 Y18.513 E68.51651 ; infill
G1 X116.037 Y53.755 E70.83018 ; infill
G1 X116.037 Y54.386 E70.85951 ; infill
G1 X80.163 Y18.513 E73.21465 ; infill
G1 X79.532 Y18.513 E73.24397 ; infill
G1 X116.037 Y55.018 E75.64059 ; infill
G1 X116.037 Y55.650 E75.66991 ; infill
G1 X78.900 Y18.513 E78.10799 ; infill
G1 X78.269 Y18.513 E78.13731 ; infill
G1 X116.037 Y56.281 E80.61687 ; infill
G1 X116.037 Y56.913 E80.64619 ; infill
G1 X77.637 Y18.513 E83.16721 ; infill
G1 X77.005 Y18.513 E83.19653 ; infill
G1 X116.037 Y57.545 E85.75902 ; infill
G1 X116.037 Y58.176 E85.78834 ; infill
G1 X76.374 Y18.513 E88.39230 ; infill
G1 X75.742 Y18.513 E88.42162 ; infill
G1 X116.037 Y58.808 E91.06704 ; infill
G1 X116.037 Y59.440 E91.09637 ; infill
G1 X75.110 Y18.513 E93.78326 ; infill
G1 X74.479 Y18.513 E93.81258 ; infill
G1 X116.037 Y60.071 E96.54095 ; infill
G1 X116.037 Y60.703 E96.57027 ; infill
G1 X73.847 Y18.513 E99.34010 ; infill
G1 X73.215 Y18.513 E99.36942 ; infill
G1 X116.037 Y61.335 E102.18072 ; infill
G1 X116.037 Y61.966 E102.21004 ; infill
G1 X72.584 Y18.513 E105.06281 ; infill
G1 X71.952 Y18.513 E105.09214 ; infill
G1 X116.037 Y62.598 E107.98637 ; infill
G1 X116.037 Y63.230 E108.01569 ; infill
G1 X71.320 Y18.513 E110.95140 ; infill
G1 X70.689 Y18.513 E110.98072 ; infill
G1 X116.037 Y63.861 E113.95790 ; infill
G1 X116.037 Y64.493 E113.98722 ; infill
G1 X70.057 Y18.513 E117.00586 ; infill
G1 X69.426 Y18.513 E117.03518 ; infill
G1 X116.037 Y65.124 E120.09529 ; infill
G1 X116.037 Y65.756 E120.12462 ; infill
G1 X68.794 Y18.513 E123.22620 ; infill
G1 X68.162 Y18.513 E123.25552 ; infill
G1 X116.037 Y66.388 E126.39857 ; infill
G1 X116.037 Y67.019 E126.42789 ; infill
G1 X67.531 Y18.513 E129.61241 ; infill
G1 X66.899 Y18.513 E129.64173 ; infill
G1 X116.037 Y67.651 E132.86772 ; infill
G1 X116.037 Y68.283 E132.89704 ; infill
G1 X66.267 Y18.513 E136.16449 ; infill
G1 X65.636 Y18.513 E136.19381 ; infill
G1 X116.037 Y68.914 E139.50274 ; infill
G1 X116.037 Y69.546 E139.53206 ; infill
G1 X65.004 Y18.513 E142.88245 ; infill
G1 X64.372 Y18.513 E142.91177 ; infill
G1 X116.037 Y70.178 E146.30363 ; infill
G1 X116.037 Y70.809 E146.33296 ; infill
G1 X63.741 Y18.513 E149.76628 ; infill
G1 X63.109 Y18.513 E149.79561 ; infill
G1 X116.037 Y71.441 E153.27040 ; infill
G1 X116.037 Y72.073 E153.29973 ; infill
G1 X62.477 Y18.513 E156.81599 ; infill
G1 X61.846 Y18.513 E156.84531 ; infill
G1 X116.037 Y72.704 E160.40305 ; infill
G1 X116.037 Y73.336 E160.43237 ; infill
G1 X61.214 Y18.513 E164.03157 ; infill
G1 X60.583 Y18.513 E164.06090 ; infill
G1 X116.037 Y73.967 E167.70157 ; infill
G1 X116.037 Y74.599 E167.73089 ; infill
G1 X59.951 Y18.513 E171.41303 ; infill
G1 X59.319 Y18.513 E171.44235 ; infill
G1 X116.037 Y75.231 E175.16596 ; infill
G1 X116.037 Y75.862 E175.19528 ; infill
G1 X58.688 Y18.513 E178.96036 ; infill
G1 X58.056 Y18.513 E178.98968 ; infill
G1 X116.037 Y76.494 E182.79623 ; infill
G1 X116.037 Y77.126 E182.82555 ; infill
G1 X57.424 Y18.513 E186.67357 ; infill
G1 X56.793 Y18.513 E186.70289 ; infill
G1 X116.037 Y77.757 E190.59237 ; infill
G1 X116.037 Y78.389 E190.62169 ; infill
G1 X56.161 Y18.513 E194.55264 ; infill
G1 X55.529 Y18.513 E194.58197 ; infill
G1 X116.037 Y79.021 E198.55439 ; infill
G1 X116.037 Y79.652 E198.58371 ; infill
G1 X54.898 Y18.513 E202.59760 ; infill
G1 X54.266 Y18.513 E202.62692 ; infill
G1 X116.037 Y80.284 E206.68228 ; infill
G1 X116.037 Y80.916 E206.71160 ; infill
G1 X53.634 Y18.513 E210.80843 ; infill
G1 X53.003 Y18.513 E210.83775 ; infill
G1 X116.037 Y81.547 E214.97604 ; infill
G1 X116.037 Y82.179 E215.00537 ; infill
G1 X52.371 Y18.513 E219.18513 ; infill
G1 X51.739 Y18.513 E219.21445 ; infill
G1 X116.037 Y82.810 E223.43568 ; infill
G1 X116.037 Y83.442 E223.46501 ; infill
G1 X51.108 Y18.513 E227.72771 ; infill
G1 X50.476 Y18.513 E227.75703 ; infill
G1 X116.037 Y84.074 E232.06120 ; infill
G1 X116.037 Y84.705 E232.09052 ; infill
G1 X80.526 Y49.194 E234.42188 ; infill
G1 X80.526 Y49.826 E234.45121 ; infill
G1 X116.037 Y85.337 E236.78257 ; infill
G1 X116.037 Y85.969 E236.81189 ; infill
G1 X80.526 Y50.458 E239.14326 ; infill
G1 X80.526 Y51.089 E239.17258 ; infill
G1 X116.037 Y86.600 E241.50394 ; infill
G1 X116.037 Y87.232 E241.53326 ; infill
G1 X80.526 Y51.721 E243.86463 ; infill
G1 X80.526 Y52.353 E243.89395 ; infill
G1 X116.037 Y87.864 E246.22531 ; infill
G1 X116.037 Y88.495 E246.25464 ; infill
G1 X80.526 Y52.984 E248.58600 ; infill
G1 X80.526 Y53.616 E248.61532 ; infill
G1 X116.037 Y89.127 E250.94668 ; infill
G1 X116.037 Y89.759 E250.97601 ; infill
G1 X80.526 Y54.248 E253.30737 ; infill
G1 X80.526 Y54.879 E253.33669 ; infill
G1 X116.037 Y90.390 E255.66806 ; infill
G1 X116.037 Y91.022 E255.69738 ; infill
G1 X80.526 Y55.511 E258.02874 ; infill
G1 X80.526 Y56.142 E258.05806 ; infill
G1 X116.037 Y91.654 E260.38943 ; infill
G1 X116.037 Y92.285 E260.41875 ; infill
G1 X80.526 Y56.774 E262.75011 ; infill
G1 X80.526 Y57.406 E262.77944 ; infill
G1 X116.037 Y92.917 E265.11080 ; infill
G1 X116.037 Y93.548 E265.14012 ; infill
G1 X80.526 Y58.037 E267.47149 ; infill
G1 X80.526 Y58.669 E267.50081 ; infill
G1 X116.037 Y94.180 E269.83217 ; infill
G1 X116.037 Y94.812 E269.86149 ; infill
G1 X80.526 Y59.301 E272.19286 ; infill
G1 X80.526 Y59.932 E272.22218 ; infill
G1 X116.037 Y95.443 E274.55354 ; infill
G1 X116.037 Y96.075 E274.58287 ; infill
G1 X80.526 Y60.564 E276.91423 ; infill
G1 X80.526 Y61.196 E276.94355 ; infill
G1 X116.037 Y96.707 E279.27492 ; infill
G1 X116.037 Y97.338 E279.30424 ; infill
G1 X80.526 Y61.827 E281.63560 ; infill
G1 X80.526 Y62.459 E281.66492 ; infill
G1 X116.037 Y97.970 E283.99629 ; infill
G1 X116.037 Y98.602 E284.02561 ; infill
G1 X80.526 Y63.091 E286.35697 ; infill
G1 X80.526 Y63.722 E286.38630 ; infill
