; generated by Slic3r 1.34.1-prusa3d-win64 on 2018-10-03 at 21:47:16

; Buse diamètre 0,5mm
; Ratio : 200%
; Debit : 5mm3/s
; DMax : 7,5mm3/s = 60mm/s

; external perimeters extrusion width = 0.55mm
; perimeters extrusion width = 0.55mm
; infill extrusion width = 0.50mm
; solid infill extrusion width = 0.50mm
; top infill extrusion width = 0.40mm

M107 ; disable fan
M190 S70 ; attente chauffe plateau
M104 S210 ; préchauffe tête
G92 Z0 ; définir hauteur actuelle comme 0
G0 Z10 F1500
G28 YX ; prise d'origine en Y puis X
G1 X130 Y10 F3000 ; parking
M109 S210 ; attente chauffe T0
G0 Z0.30 F1500 ; distance 0.3mm du plateau
G92 E0 ; remise à zéro axe E
G1 E15 F150 ; pousser 15mm de filament
G1 X100 Z0 F1500 ; essuyage sur plateau et on démarre (=rétraction, hauteur, début)
G21 ; set units to millimeters
G90 ; use absolute coordinates
M82 ; use absolute distances for extrusion
G92 E0 ; reset extrusion distance
G1 E-3.60000 F3000.00000 ; retract
G92 E0 ; reset extrusion distance
G1 Z0.300 F5400.000 ; move to next layer (0)
G1 X68.060 Y78.392 F5400.000 ; move to first perimeter point
G1 E3.63000 F3000.00000 ; unretract
G1 F600
G1 X68.647 Y78.681 E3.65694 ; perimeter
G1 X69.408 Y78.940 E3.69008 ; perimeter
G1 X70.197 Y79.097 E3.72322 ; perimeter
G1 X71.000 Y79.149 E3.75635 ; perimeter
G1 X71.803 Y79.097 E3.78949 ; perimeter
G1 X72.592 Y78.940 E3.82262 ; perimeter
G1 X73.353 Y78.681 E3.85576 ; perimeter
G1 X73.940 Y78.392 E3.88270 ; perimeter
G1 X78.041 Y85.495 E4.22057 ; perimeter
G1 X76.492 Y86.258 E4.29171 ; perimeter
G1 X74.714 Y86.862 E4.36904 ; perimeter
G1 X72.873 Y87.228 E4.44637 ; perimeter
G1 X71.000 Y87.351 E4.52370 ; perimeter
G1 X69.127 Y87.228 E4.60104 ; perimeter
G1 X67.286 Y86.862 E4.67837 ; perimeter
G1 X65.508 Y86.258 E4.75570 ; perimeter
G1 X63.959 Y85.495 E4.82684 ; perimeter
G1 X68.023 Y78.457 E5.16162 ; perimeter
G1 X68.260 Y77.933 F5400.000 ; move inwards before travel
G1 E1.56162 F3000.00000 ; retract
G92 E0 ; reset extrusion distance
G1 X73.984 Y74.275 F5400.000 ; move to first perimeter point
G1 E3.63000 F3000.00000 ; unretract
G1 F600
G1 X76.592 Y74.275 E3.73743 ; perimeter
G1 X76.290 Y75.190 E3.77713 ; perimeter
G1 X75.958 Y75.863 E3.80802 ; perimeter
G1 X75.542 Y76.485 E3.83888 ; perimeter
G1 X75.049 Y77.049 E3.86973 ; perimeter
G1 X74.485 Y77.542 E3.90058 ; perimeter
G1 X73.863 Y77.958 E3.93143 ; perimeter
G1 X73.191 Y78.290 E3.96229 ; perimeter
G1 X72.482 Y78.530 E3.99314 ; perimeter
G1 X71.747 Y78.676 E4.02399 ; perimeter
G1 X71.000 Y78.725 E4.05484 ; perimeter
G1 X70.253 Y78.676 E4.08570 ; perimeter
G1 X69.518 Y78.530 E4.11655 ; perimeter
G1 X68.809 Y78.290 E4.14740 ; perimeter
G1 X68.137 Y77.958 E4.17826 ; perimeter
G1 X67.515 Y77.542 E4.20911 ; perimeter
G1 X66.951 Y77.049 E4.23996 ; perimeter
G1 X66.458 Y76.485 E4.27081 ; perimeter
G1 X66.042 Y75.863 E4.30167 ; perimeter
G1 X65.710 Y75.190 E4.33256 ; perimeter
G1 X65.408 Y74.275 E4.37226 ; perimeter
G1 X68.016 Y74.275 E4.47969 ; perimeter
G1 X68.168 Y74.643 E4.49612 ; perimeter
G1 X68.402 Y74.993 E4.51346 ; perimeter
G1 X68.685 Y75.315 E4.53110 ; perimeter
G1 X69.007 Y75.598 E4.54875 ; perimeter
G1 X69.363 Y75.836 E4.56639 ; perimeter
G1 X69.747 Y76.025 E4.58404 ; perimeter
G1 X70.152 Y76.163 E4.60168 ; perimeter
G1 X70.573 Y76.247 E4.61933 ; perimeter
G1 X71.000 Y76.275 E4.63697 ; perimeter
G1 X71.427 Y76.247 E4.65462 ; perimeter
G1 X71.848 Y76.163 E4.67227 ; perimeter
G1 X72.253 Y76.025 E4.68991 ; perimeter
G1 X72.637 Y75.836 E4.70756 ; perimeter
G1 X72.993 Y75.598 E4.72520 ; perimeter
G1 X73.315 Y75.315 E4.74285 ; perimeter
G1 X73.598 Y74.993 E4.76049 ; perimeter
G1 X73.832 Y74.643 E4.77783 ; perimeter
G1 X73.956 Y74.344 E4.79117 ; perimeter
G1 X74.066 Y73.782 F5400.000 ; move inwards before travel
G1 E1.19117 F3000.00000 ; retract
G92 E0 ; reset extrusion distance
G1 X77.139 Y73.150 F5400.000 ; move to first perimeter point
G1 E3.63000 F3000.00000 ; unretract
G1 F600
G1 X85.341 Y73.150 E3.96787 ; perimeter
G1 X85.228 Y74.873 E4.03901 ; perimeter
G1 X84.862 Y76.714 E4.11634 ; perimeter
G1 X84.258 Y78.492 E4.19367 ; perimeter
G1 X83.428 Y80.175 E4.27100 ; perimeter
G1 X82.385 Y81.736 E4.34833 ; perimeter
G1 X81.148 Y83.148 E4.42566 ; perimeter
G1 X79.736 Y84.385 E4.50299 ; perimeter
G1 X78.300 Y85.345 E4.57413 ; perimeter
G1 X74.200 Y78.242 E4.91200 ; perimeter
G1 X74.743 Y77.879 E4.93894 ; perimeter
G1 X75.348 Y77.348 E4.97208 ; perimeter
G1 X75.879 Y76.743 E5.00522 ; perimeter
G1 X76.325 Y76.075 E5.03835 ; perimeter
G1 X76.681 Y75.353 E5.07149 ; perimeter
G1 X76.940 Y74.592 E5.10462 ; perimeter
G1 X77.097 Y73.803 E5.13776 ; perimeter
G1 X77.135 Y73.225 E5.16161 ; perimeter
G1 X77.162 Y72.651 F5400.000 ; move inwards before travel
G1 E1.56161 F3000.00000 ; retract
G92 E0 ; reset extrusion distance
G1 X76.678 Y72.275 F5400.000 ; move to first perimeter point
G1 E3.63000 F3000.00000 ; unretract
G1 F600
G1 X76.725 Y73.000 E3.65993 ; perimeter
G1 X76.678 Y73.725 E3.68986 ; perimeter
G1 X73.731 Y73.725 E3.81125 ; perimeter
G1 X73.610 Y74.081 E3.82675 ; perimeter
G1 X73.447 Y74.413 E3.84197 ; perimeter
G1 X73.242 Y74.720 E3.85720 ; perimeter
G1 X72.998 Y74.998 E3.87243 ; perimeter
G1 X72.720 Y75.242 E3.88765 ; perimeter
G1 X72.413 Y75.447 E3.90288 ; perimeter
G1 X72.081 Y75.610 E3.91810 ; perimeter
G1 X71.731 Y75.729 E3.93333 ; perimeter
G1 X71.369 Y75.801 E3.94855 ; perimeter
G1 X71.000 Y75.825 E3.96378 ; perimeter
G1 X70.631 Y75.801 E3.97901 ; perimeter
G1 X70.273 Y75.730 E3.99405 ; perimeter
G1 X69.919 Y75.610 E4.00945 ; perimeter
G1 X69.587 Y75.447 E4.02468 ; perimeter
G1 X69.280 Y75.242 E4.03991 ; perimeter
G1 X69.002 Y74.998 E4.05513 ; perimeter
G1 X68.758 Y74.720 E4.07036 ; perimeter
G1 X68.553 Y74.413 E4.08558 ; perimeter
G1 X68.390 Y74.081 E4.10081 ; perimeter
G1 X68.269 Y73.725 E4.11631 ; perimeter
G1 X65.322 Y73.725 E4.23770 ; perimeter
G1 X65.275 Y73.000 E4.26763 ; perimeter
G1 X65.322 Y72.275 E4.29756 ; perimeter
G1 X68.269 Y72.275 E4.41895 ; perimeter
G1 X68.390 Y71.919 E4.43445 ; perimeter
G1 X68.553 Y71.587 E4.44968 ; perimeter
G1 X68.761 Y71.277 E4.46508 ; perimeter
G1 X69.002 Y71.002 E4.48012 ; perimeter
G1 X69.280 Y70.758 E4.49535 ; perimeter
G1 X69.587 Y70.553 E4.51057 ; perimeter
G1 X69.919 Y70.390 E4.52580 ; perimeter
G1 X70.269 Y70.271 E4.54102 ; perimeter
G1 X70.631 Y70.199 E4.55625 ; perimeter
G1 X70.996 Y70.175 E4.57129 ; perimeter
G1 X71.369 Y70.199 E4.58669 ; perimeter
G1 X71.731 Y70.271 E4.60192 ; perimeter
G1 X72.081 Y70.390 E4.61715 ; perimeter
G1 X72.413 Y70.553 E4.63238 ; perimeter
G1 X72.720 Y70.758 E4.64760 ; perimeter
G1 X72.998 Y71.002 E4.66283 ; perimeter
G1 X73.242 Y71.280 E4.67805 ; perimeter
G1 X73.447 Y71.587 E4.69328 ; perimeter
G1 X73.610 Y71.919 E4.70850 ; perimeter
G1 X73.731 Y72.275 E4.72400 ; perimeter
G1 X76.603 Y72.275 E4.84230 ; perimeter
G1 X77.178 Y72.272 F5400.000 ; move inwards before travel
G1 E1.24230 F3000.00000 ; retract
G92 E0 ; reset extrusion distance
G1 X76.592 Y71.725 F5400.000 ; move to first perimeter point
G1 E3.63000 F3000.00000 ; unretract
G1 F600
G1 X73.984 Y71.725 E3.73743 ; perimeter
G1 X73.832 Y71.357 E3.75386 ; perimeter
G1 X73.598 Y71.007 E3.77120 ; perimeter
G1 X73.315 Y70.685 E3.78884 ; perimeter
G1 X72.993 Y70.402 E3.80649 ; perimeter
G1 X72.637 Y70.164 E3.82413 ; perimeter
G1 X72.253 Y69.975 E3.84178 ; perimeter
G1 X71.848 Y69.837 E3.85942 ; perimeter
G1 X71.427 Y69.753 E3.87707 ; perimeter
G1 X71.000 Y69.725 E3.89471 ; perimeter
G1 X70.573 Y69.753 E3.91236 ; perimeter
G1 X70.152 Y69.837 E3.93001 ; perimeter
G1 X69.747 Y69.975 E3.94765 ; perimeter
G1 X69.363 Y70.164 E3.96530 ; perimeter
G1 X69.007 Y70.402 E3.98294 ; perimeter
G1 X68.685 Y70.685 E4.00059 ; perimeter
G1 X68.402 Y71.007 E4.01823 ; perimeter
G1 X68.168 Y71.357 E4.03557 ; perimeter
G1 X68.016 Y71.725 E4.05200 ; perimeter
G1 X65.408 Y71.725 E4.15943 ; perimeter
G1 X65.710 Y70.810 E4.19913 ; perimeter
G1 X66.042 Y70.137 E4.23002 ; perimeter
G1 X66.458 Y69.515 E4.26087 ; perimeter
G1 X66.951 Y68.951 E4.29173 ; perimeter
G1 X67.515 Y68.458 E4.32258 ; perimeter
G1 X68.137 Y68.042 E4.35343 ; perimeter
G1 X68.809 Y67.710 E4.38429 ; perimeter
G1 X69.520 Y67.469 E4.41521 ; perimeter
G1 X70.344 Y67.318 E4.44974 ; perimeter
G1 X71.000 Y67.275 E4.47682 ; perimeter
G1 X71.747 Y67.324 E4.50767 ; perimeter
G1 X72.482 Y67.470 E4.53852 ; perimeter
G1 X73.191 Y67.710 E4.56937 ; perimeter
G1 X73.863 Y68.042 E4.60023 ; perimeter
G1 X74.485 Y68.458 E4.63108 ; perimeter
G1 X75.049 Y68.951 E4.66193 ; perimeter
G1 X75.542 Y69.515 E4.69279 ; perimeter
G1 X75.958 Y70.137 E4.72364 ; perimeter
G1 X76.290 Y70.810 E4.75453 ; perimeter
G1 X76.569 Y71.654 E4.79114 ; perimeter
G1 X76.655 Y72.221 F5400.000 ; move inwards before travel
G1 E1.19114 F3000.00000 ; retract
G92 E0 ; reset extrusion distance
G1 X78.300 Y60.655 F5400.000 ; move to first perimeter point
G1 E3.63000 F3000.00000 ; unretract
G1 F600
G1 X79.736 Y61.615 E3.70114 ; perimeter
G1 X81.148 Y62.852 E3.77847 ; perimeter
G1 X82.385 Y64.264 E3.85580 ; perimeter
G1 X83.428 Y65.825 E3.93313 ; perimeter
G1 X84.258 Y67.508 E4.01046 ; perimeter
G1 X84.862 Y69.286 E4.08780 ; perimeter
G1 X85.228 Y71.127 E4.16513 ; perimeter
G1 X85.341 Y72.850 E4.23627 ; perimeter
G1 X77.139 Y72.850 E4.57413 ; perimeter
G1 X77.097 Y72.197 E4.60108 ; perimeter
G1 X76.940 Y71.408 E4.63421 ; perimeter
G1 X76.681 Y70.647 E4.66735 ; perimeter
G1 X76.325 Y69.925 E4.70048 ; perimeter
G1 X75.879 Y69.257 E4.73362 ; perimeter
G1 X75.348 Y68.652 E4.76676 ; perimeter
G1 X74.743 Y68.121 E4.79989 ; perimeter
G1 X74.200 Y67.758 E4.82684 ; perimeter
G1 X78.263 Y60.720 E5.16161 ; perimeter
G1 X78.558 Y60.227 F5400.000 ; move inwards before travel
G1 X78.041 Y60.505 F5400.000 ; move to first perimeter point
G1 F600
G1 X73.940 Y67.608 E5.49948 ; perimeter
G1 X73.353 Y67.319 E5.52643 ; perimeter
G1 X72.592 Y67.060 E5.55956 ; perimeter
G1 X71.803 Y66.903 E5.59270 ; perimeter
G1 X71.000 Y66.851 E5.62583 ; perimeter
G1 X70.197 Y66.903 E5.65897 ; perimeter
G1 X69.408 Y67.060 E5.69211 ; perimeter
G1 X68.647 Y67.319 E5.72524 ; perimeter
G1 X68.060 Y67.608 E5.75219 ; perimeter
G1 X63.959 Y60.505 E6.09005 ; perimeter
G1 X65.508 Y59.742 E6.16119 ; perimeter
G1 X67.286 Y59.138 E6.23852 ; perimeter
G1 X69.127 Y58.772 E6.31586 ; perimeter
G1 X71.000 Y58.649 E6.39319 ; perimeter
G1 X72.873 Y58.772 E6.47052 ; perimeter
G1 X74.714 Y59.138 E6.54785 ; perimeter
G1 X76.492 Y59.742 E6.62518 ; perimeter
G1 X77.973 Y60.472 E6.69323 ; perimeter
G1 X78.484 Y60.736 F5400.000 ; move inwards before travel
G1 E3.09323 F3000.00000 ; retract
G92 E0 ; reset extrusion distance
G1 X63.700 Y60.655 F5400.000 ; move to first perimeter point
G1 E3.63000 F3000.00000 ; unretract
G1 F600
G1 X67.800 Y67.758 E3.96787 ; perimeter
G1 X67.257 Y68.121 E3.99481 ; perimeter
G1 X66.652 Y68.652 E4.02795 ; perimeter
G1 X66.121 Y69.257 E4.06108 ; perimeter
G1 X65.675 Y69.925 E4.09422 ; perimeter
G1 X65.319 Y70.647 E4.12736 ; perimeter
G1 X65.060 Y71.408 E4.16049 ; perimeter
G1 X64.903 Y72.197 E4.19363 ; perimeter
G1 X64.861 Y72.850 E4.22057 ; perimeter
G1 X56.659 Y72.850 E4.55844 ; perimeter
G1 X56.772 Y71.127 E4.62958 ; perimeter
G1 X57.138 Y69.286 E4.70691 ; perimeter
G1 X57.742 Y67.508 E4.78424 ; perimeter
G1 X58.572 Y65.825 E4.86157 ; perimeter
G1 X59.615 Y64.264 E4.93890 ; perimeter
G1 X60.852 Y62.852 E5.01623 ; perimeter
G1 X62.264 Y61.615 E5.09357 ; perimeter
G1 X63.637 Y60.697 E5.16161 ; perimeter
G1 X64.121 Y60.386 F5400.000 ; move inwards before travel
G1 E1.56161 F3000.00000 ; retract
G92 E0 ; reset extrusion distance
G1 X56.659 Y73.150 F5400.000 ; move to first perimeter point
G1 E3.63000 F3000.00000 ; unretract
G1 F600
G1 X64.861 Y73.150 E3.96787 ; perimeter
G1 X64.903 Y73.803 E3.99481 ; perimeter
G1 X65.060 Y74.592 E4.02795 ; perimeter
G1 X65.319 Y75.353 E4.06108 ; perimeter
G1 X65.675 Y76.075 E4.09422 ; perimeter
G1 X66.121 Y76.743 E4.12736 ; perimeter
G1 X66.652 Y77.348 E4.16049 ; perimeter
G1 X67.257 Y77.879 E4.19363 ; perimeter
G1 X67.800 Y78.242 E4.22057 ; perimeter
G1 X63.700 Y85.345 E4.55844 ; perimeter
G1 X62.264 Y84.385 E4.62958 ; perimeter
G1 X60.852 Y83.148 E4.70691 ; perimeter
G1 X59.615 Y81.736 E4.78424 ; perimeter
G1 X58.572 Y80.175 E4.86157 ; perimeter
G1 X57.742 Y78.492 E4.93890 ; perimeter
G1 X57.138 Y76.714 E5.01623 ; perimeter
G1 X56.772 Y74.873 E5.09357 ; perimeter
G1 X56.664 Y73.225 E5.16161 ; perimeter
G1 X56.637 Y72.650 F5400.000 ; move inwards before travel
G1 E1.56161 F3000.00000 ; retract
G92 E0 ; reset extrusion distance
G1 X56.178 Y73.182 F5400.000 ; move to first perimeter point
G1 E3.63000 F3000.00000 ; unretract
G1 F1080
G1 X56.166 Y73.000 E3.63749 ; perimeter
G1 X56.293 Y71.064 E3.71743 ; perimeter
G1 X56.672 Y69.161 E3.79736 ; perimeter
G1 X57.295 Y67.323 E3.87730 ; perimeter
G1 X58.154 Y65.583 E3.95723 ; perimeter
G1 X59.232 Y63.970 E4.03716 ; perimeter
G1 X60.511 Y62.511 E4.11710 ; perimeter
G1 X61.970 Y61.232 E4.19703 ; perimeter
G1 X63.583 Y60.154 E4.27696 ; perimeter
G1 X65.323 Y59.295 E4.35690 ; perimeter
G1 X67.161 Y58.672 E4.43683 ; perimeter
G1 X69.063 Y58.293 E4.51675 ; perimeter
G1 X71.048 Y58.169 E4.59867 ; perimeter
G1 X72.936 Y58.293 E4.67662 ; perimeter
G1 X74.839 Y58.672 E4.75655 ; perimeter
G1 X76.676 Y59.295 E4.83647 ; perimeter
G1 X78.457 Y60.181 E4.91839 ; perimeter
G1 X80.030 Y61.232 E4.99633 ; perimeter
G1 X81.489 Y62.511 E5.07627 ; perimeter
G1 X82.768 Y63.970 E5.15620 ; perimeter
G1 X83.846 Y65.583 E5.23614 ; perimeter
G1 X84.705 Y67.323 E5.31607 ; perimeter
G1 X85.328 Y69.161 E5.39600 ; perimeter
G1 X85.707 Y71.064 E5.47594 ; perimeter
G1 X85.834 Y73.000 E5.55587 ; perimeter
G1 X85.707 Y74.936 E5.63580 ; perimeter
G1 X85.338 Y76.792 E5.71375 ; perimeter
G1 X84.704 Y78.677 E5.79567 ; perimeter
G1 X83.846 Y80.417 E5.87559 ; perimeter
G1 X82.768 Y82.030 E5.95552 ; perimeter
G1 X81.489 Y83.489 E6.03546 ; perimeter
G1 X80.030 Y84.768 E6.11539 ; perimeter
G1 X78.417 Y85.846 E6.19532 ; perimeter
G1 X76.677 Y86.705 E6.27526 ; perimeter
G1 X74.839 Y87.328 E6.35519 ; perimeter
G1 X72.936 Y87.707 E6.43513 ; perimeter
G1 X71.000 Y87.834 E6.51506 ; perimeter
G1 X69.064 Y87.707 E6.59499 ; perimeter
G1 X67.161 Y87.328 E6.67493 ; perimeter
G1 X65.323 Y86.705 E6.75486 ; perimeter
G1 X63.583 Y85.846 E6.83479 ; perimeter
G1 X61.970 Y84.768 E6.91473 ; perimeter
G1 X60.511 Y83.489 E6.99466 ; perimeter
G1 X59.232 Y82.030 E7.07460 ; perimeter
G1 X58.154 Y80.417 E7.15453 ; perimeter
G1 X57.295 Y78.677 E7.23446 ; perimeter
G1 X56.672 Y76.839 E7.31440 ; perimeter
G1 X56.293 Y74.936 E7.39433 ; perimeter
G1 X56.183 Y73.256 E7.46368 ; perimeter
G1 X56.327 Y73.077 F5400.000 ; move inwards before travel
G1 E3.86368 F3000.00000 ; retract
G92 E0 ; reset extrusion distance
G1 X65.145 Y74.000 F5400.000 ; move to first infill point
G1 E3.63000 F3000.00000 ; unretract
G1 F600
G1 X68.153 Y74.000 E3.66127 ; infill
G1 E0.06127 F3000.00000 ; retract
G92 E0 ; reset extrusion distance
G1 X68.153 Y72.000 F5400.000 ; move to first infill point
G1 E3.63000 F3000.00000 ; unretract
G1 F600
G1 X65.145 Y72.000 E3.66127 ; infill
G1 E0.06127 F3000.00000 ; retract
G92 E0 ; reset extrusion distance
G1 X73.847 Y72.000 F5400.000 ; move to first infill point
G1 E3.63000 F3000.00000 ; unretract
G1 F600
G1 X76.855 Y72.000 E3.66127 ; infill
G1 E0.06127 F3000.00000 ; retract
G92 E0 ; reset extrusion distance
G1 X76.855 Y74.000 F5400.000 ; move to first infill point
G1 E3.63000 F3000.00000 ; unretract
G1 F600
G1 X73.847 Y74.000 E3.66127 ; infill
G1 E0.06127 F3000.00000 ; retract
G92 E0 ; reset extrusion distance
G1 X56.419 Y73.166 F5400.000 ; move to first infill point
G1 E3.63000 F3000.00000 ; unretract
G1 F600
G1 X56.408 Y72.954 E3.63070 ; infill
G1 X56.533 Y71.093 E3.63689 ; infill
G1 X56.905 Y69.223 E3.64321 ; infill
G1 X57.519 Y67.416 E3.64954 ; infill
G1 X58.364 Y65.702 E3.65588 ; infill
G1 X59.423 Y64.117 E3.66220 ; infill
G1 X60.682 Y62.682 E3.66854 ; infill
G1 X62.117 Y61.423 E3.67487 ; infill
G1 X63.664 Y60.386 E3.68105 ; infill
G1 X65.416 Y59.519 E3.68753 ; infill
G1 X67.223 Y58.905 E3.69386 ; infill
