; generated by Slic3r 1.34.1-prusa3d-win64 on 2017-08-12 at 15:39:30

; Buse OEV5 - diamètre 0,5mm

; external perimeters extrusion width = 0.40mm
; perimeters extrusion width = 0.50mm
; infill extrusion width = 0.50mm
; solid infill extrusion width = 0.50mm
; top infill extrusion width = 0.40mm

M107 ; disable fan
M190 S70 ; attente chauffe plateau
M104 S195 ; préchauffe tête
G92 Z0
G1 Z5 F1200
G28 Y ; prise d'origine en Y
G28 X ; prise d'origine en X
G1 X70 Y70 F6000 ; parking
M109 S195 ; attente chauffe T0
G21 ; set units to millimeters
G90 ; use absolute coordinates
M82 ; use absolute distances for extrusion
G92 E0 ; reset extrusion distance
G1 E-3.50000 F3000.00000 ; retract
G92 E0 ; reset extrusion distance
G1 Z0.250 F7500.000 ; move to next layer (0)
G1 X54.042 Y24.779 F7500.000 ; move to first skirt point
G1 E3.50000 F3000.00000 ; unretract
G1 F1800
G1 X54.766 Y23.353 E3.57418 ; skirt
G1 X55.580 Y22.056 E3.64525 ; skirt
G1 X56.497 Y20.844 E3.71573 ; skirt
G1 X57.725 Y19.506 E3.80000 ; skirt
G1 X58.872 Y18.473 E3.87162 ; skirt
G1 X60.145 Y17.520 E3.94538 ; skirt
G1 X61.436 Y16.721 E4.01583 ; skirt
G1 X63.679 Y15.669 E4.13074 ; skirt
G1 X65.484 Y15.075 E4.21889 ; skirt
G1 X66.958 Y14.749 E4.28896 ; skirt
G1 X68.489 Y14.548 E4.36059 ; skirt
G1 X70.002 Y14.482 E4.43085 ; skirt
G1 X71.505 Y14.547 E4.50064 ; skirt
G1 X73.000 Y14.741 E4.57055 ; skirt
G1 X74.476 Y15.064 E4.64065 ; skirt
G1 X75.918 Y15.513 E4.71074 ; skirt
G1 X77.309 Y16.081 E4.78045 ; skirt
G1 X78.654 Y16.770 E4.85055 ; skirt
G1 X79.930 Y17.571 E4.92045 ; skirt
G1 X81.156 Y18.497 E4.99171 ; skirt
G1 X82.275 Y19.506 E5.06162 ; skirt
G1 X83.503 Y20.843 E5.14584 ; skirt
G1 X84.428 Y22.068 E5.21707 ; skirt
G1 X85.216 Y23.322 E5.28577 ; skirt
G1 X85.918 Y24.688 E5.35701 ; skirt
G1 X86.487 Y26.082 E5.42688 ; skirt
G1 X86.936 Y27.524 E5.49694 ; skirt
G1 X87.256 Y28.983 E5.56623 ; skirt
G1 X87.453 Y30.493 E5.63689 ; skirt
G1 X87.518 Y31.990 E5.70637 ; skirt
G1 X87.518 Y112.000 E9.41826 ; skirt
G1 X87.449 Y113.547 E9.49011 ; skirt
G1 X87.173 Y115.419 E9.57789 ; skirt
G1 X86.521 Y117.819 E9.69326 ; skirt
G1 X85.958 Y119.221 E9.76335 ; skirt
G1 X85.234 Y120.647 E9.83753 ; skirt
G1 X84.420 Y121.944 E9.90861 ; skirt
G1 X83.503 Y123.156 E9.97909 ; skirt
G1 X82.275 Y124.494 E10.06336 ; skirt
G1 X81.128 Y125.527 E10.13497 ; skirt
G1 X79.855 Y126.480 E10.20873 ; skirt
G1 X78.564 Y127.279 E10.27918 ; skirt
G1 X76.321 Y128.331 E10.39409 ; skirt
G1 X74.516 Y128.925 E10.48225 ; skirt
G1 X73.042 Y129.251 E10.55231 ; skirt
G1 X71.511 Y129.452 E10.62394 ; skirt
G1 X69.998 Y129.518 E10.69420 ; skirt
G1 X68.495 Y129.453 E10.76399 ; skirt
G1 X67.000 Y129.259 E10.83390 ; skirt
G1 X65.524 Y128.936 E10.90400 ; skirt
G1 X64.086 Y128.489 E10.97390 ; skirt
G1 X62.691 Y127.919 E11.04381 ; skirt
G1 X61.346 Y127.230 E11.11390 ; skirt
G1 X60.069 Y126.429 E11.18380 ; skirt
G1 X58.847 Y125.506 E11.25487 ; skirt
G1 X57.725 Y124.494 E11.32497 ; skirt
G1 X56.497 Y123.157 E11.40919 ; skirt
G1 X55.574 Y121.935 E11.48023 ; skirt
G1 X54.784 Y120.678 E11.54913 ; skirt
G1 X54.082 Y119.312 E11.62036 ; skirt
G1 X53.513 Y117.918 E11.69023 ; skirt
G1 X53.064 Y116.476 E11.76030 ; skirt
G1 X52.744 Y115.017 E11.82959 ; skirt
G1 X52.548 Y113.511 E11.90004 ; skirt
G1 X52.482 Y112.010 E11.96972 ; skirt
G1 X52.482 Y32.000 E15.68161 ; skirt
G1 X52.551 Y30.453 E15.75346 ; skirt
G1 X52.827 Y28.581 E15.84124 ; skirt
G1 X53.479 Y26.181 E15.95661 ; skirt
G1 X54.014 Y24.849 E16.02323 ; skirt
G1 X54.428 Y25.015 F7500.000 ; move to first skirt point
G1 F1800
G1 X55.155 Y23.573 E16.09813 ; skirt
G1 X55.947 Y22.310 E16.16731 ; skirt
G1 X56.837 Y21.133 E16.23578 ; skirt
G1 X58.041 Y19.821 E16.31836 ; skirt
G1 X59.155 Y18.818 E16.38791 ; skirt
G1 X60.386 Y17.896 E16.45926 ; skirt
G1 X61.643 Y17.116 E16.52791 ; skirt
G1 X63.849 Y16.082 E16.64092 ; skirt
G1 X65.604 Y15.505 E16.72663 ; skirt
G1 X67.042 Y15.187 E16.79494 ; skirt
G1 X68.528 Y14.992 E16.86450 ; skirt
G1 X70.003 Y14.929 E16.93299 ; skirt
G1 X71.468 Y14.992 E17.00102 ; skirt
G1 X72.924 Y15.181 E17.06914 ; skirt
G1 X74.359 Y15.495 E17.13725 ; skirt
G1 X75.764 Y15.932 E17.20555 ; skirt
G1 X77.123 Y16.487 E17.27366 ; skirt
G1 X78.433 Y17.158 E17.34195 ; skirt
G1 X79.677 Y17.938 E17.41006 ; skirt
G1 X80.867 Y18.837 E17.47924 ; skirt
G1 X81.959 Y19.821 E17.54746 ; skirt
G1 X83.162 Y21.131 E17.62994 ; skirt
G1 X84.061 Y22.321 E17.69914 ; skirt
G1 X84.831 Y23.549 E17.76637 ; skirt
G1 X85.513 Y24.876 E17.83557 ; skirt
G1 X86.068 Y26.235 E17.90370 ; skirt
G1 X86.504 Y27.637 E17.97183 ; skirt
G1 X86.818 Y29.072 E18.03996 ; skirt
G1 X87.008 Y30.532 E18.10827 ; skirt
G1 X87.071 Y31.992 E18.17604 ; skirt
G1 X87.071 Y112.000 E21.88784 ; skirt
G1 X87.008 Y113.468 E21.95603 ; skirt
G1 X86.813 Y114.955 E22.02557 ; skirt
G1 X86.495 Y116.396 E22.09404 ; skirt
G1 X85.918 Y118.151 E22.17976 ; skirt
G1 X84.882 Y120.359 E22.29289 ; skirt
G1 X84.105 Y121.613 E22.36135 ; skirt
G1 X83.180 Y122.846 E22.43286 ; skirt
G1 X82.179 Y123.959 E22.50233 ; skirt
G1 X80.869 Y125.162 E22.58482 ; skirt
G1 X79.691 Y126.052 E22.65330 ; skirt
G1 X78.424 Y126.847 E22.72268 ; skirt
G1 X77.050 Y127.546 E22.79421 ; skirt
G1 X75.684 Y128.095 E22.86251 ; skirt
G1 X73.327 Y128.736 E22.97583 ; skirt
G1 X71.502 Y129.005 E23.06140 ; skirt
G1 X70.001 Y129.071 E23.13114 ; skirt
G1 X68.532 Y129.008 E23.19935 ; skirt
G1 X67.076 Y128.819 E23.26747 ; skirt
G1 X65.641 Y128.505 E23.33558 ; skirt
G1 X64.236 Y128.068 E23.40387 ; skirt
G1 X62.876 Y127.513 E23.47198 ; skirt
G1 X61.567 Y126.842 E23.54027 ; skirt
G1 X60.323 Y126.062 E23.60838 ; skirt
G1 X59.133 Y125.163 E23.67756 ; skirt
G1 X58.041 Y124.179 E23.74578 ; skirt
G1 X56.838 Y122.869 E23.82827 ; skirt
G1 X55.939 Y121.679 E23.89747 ; skirt
G1 X55.169 Y120.451 E23.96470 ; skirt
G1 X54.487 Y119.124 E24.03390 ; skirt
G1 X53.932 Y117.765 E24.10203 ; skirt
G1 X53.496 Y116.363 E24.17016 ; skirt
G1 X53.182 Y114.928 E24.23829 ; skirt
G1 X52.992 Y113.468 E24.30660 ; skirt
G1 X52.929 Y112.008 E24.37437 ; skirt
G1 X52.929 Y32.000 E28.08617 ; skirt
G1 X52.995 Y30.497 E28.15596 ; skirt
G1 X53.264 Y28.674 E28.24146 ; skirt
G1 X53.903 Y26.320 E28.35462 ; skirt
G1 X54.400 Y25.085 E28.41639 ; skirt
G1 E24.91639 F3000.00000 ; retract
G92 E0 ; reset extrusion distance
G1 X83.071 Y42.015 F7500.000 ; move to first perimeter point
G1 E3.50000 F3000.00000 ; unretract
G1 F1800
G1 X83.071 Y112.016 E6.74753 ; perimeter
G1 X83.016 Y113.206 E6.80279 ; perimeter
G1 X82.850 Y114.402 E6.85881 ; perimeter
G1 X82.573 Y115.577 E6.91483 ; perimeter
G1 X82.189 Y116.722 E6.97084 ; perimeter
G1 X81.702 Y117.827 E7.02686 ; perimeter
G1 X81.114 Y118.882 E7.08287 ; perimeter
G1 X80.432 Y119.878 E7.13889 ; perimeter
G1 X79.660 Y120.807 E7.19491 ; perimeter
G1 X78.807 Y121.660 E7.25092 ; perimeter
G1 X77.878 Y122.432 E7.30694 ; perimeter
G1 X76.882 Y123.114 E7.36295 ; perimeter
G1 X75.827 Y123.702 E7.41897 ; perimeter
G1 X74.722 Y124.189 E7.47498 ; perimeter
G1 X73.577 Y124.573 E7.53100 ; perimeter
G1 X72.402 Y124.850 E7.58702 ; perimeter
G1 X71.206 Y125.016 E7.64303 ; perimeter
G1 X70.000 Y125.072 E7.69905 ; perimeter
G1 X68.794 Y125.016 E7.75506 ; perimeter
G1 X67.598 Y124.850 E7.81108 ; perimeter
G1 X66.423 Y124.573 E7.86709 ; perimeter
G1 X65.278 Y124.189 E7.92311 ; perimeter
G1 X64.173 Y123.702 E7.97913 ; perimeter
G1 X63.118 Y123.114 E8.03514 ; perimeter
G1 X62.122 Y122.432 E8.09116 ; perimeter
G1 X61.193 Y121.660 E8.14717 ; perimeter
G1 X60.340 Y120.807 E8.20319 ; perimeter
G1 X59.568 Y119.878 E8.25921 ; perimeter
G1 X58.886 Y118.882 E8.31522 ; perimeter
G1 X58.298 Y117.827 E8.37124 ; perimeter
G1 X57.811 Y116.722 E8.42725 ; perimeter
G1 X57.427 Y115.577 E8.48327 ; perimeter
G1 X57.150 Y114.402 E8.53928 ; perimeter
G1 X56.984 Y113.206 E8.59530 ; perimeter
G1 X56.929 Y112.016 E8.65057 ; perimeter
G1 X56.929 Y31.984 E12.36347 ; perimeter
G1 X56.984 Y30.794 E12.41874 ; perimeter
G1 X57.150 Y29.598 E12.47476 ; perimeter
G1 X57.427 Y28.423 E12.53077 ; perimeter
G1 X57.811 Y27.278 E12.58679 ; perimeter
G1 X58.298 Y26.173 E12.64281 ; perimeter
G1 X58.886 Y25.118 E12.69882 ; perimeter
G1 X59.568 Y24.122 E12.75484 ; perimeter
G1 X60.340 Y23.193 E12.81085 ; perimeter
G1 X61.193 Y22.340 E12.86687 ; perimeter
G1 X62.122 Y21.568 E12.92288 ; perimeter
G1 X63.118 Y20.886 E12.97890 ; perimeter
G1 X64.173 Y20.298 E13.03492 ; perimeter
G1 X65.278 Y19.811 E13.09093 ; perimeter
G1 X66.423 Y19.427 E13.14695 ; perimeter
G1 X67.598 Y19.150 E13.20296 ; perimeter
G1 X68.794 Y18.984 E13.25898 ; perimeter
G1 X70.000 Y18.928 E13.31499 ; perimeter
G1 X71.206 Y18.984 E13.37101 ; perimeter
G1 X72.402 Y19.150 E13.42703 ; perimeter
G1 X73.577 Y19.427 E13.48304 ; perimeter
G1 X74.722 Y19.811 E13.53906 ; perimeter
G1 X75.827 Y20.298 E13.59507 ; perimeter
G1 X76.882 Y20.886 E13.65109 ; perimeter
G1 X77.878 Y21.568 E13.70711 ; perimeter
G1 X78.807 Y22.340 E13.76312 ; perimeter
G1 X79.660 Y23.193 E13.81914 ; perimeter
G1 X80.432 Y24.122 E13.87515 ; perimeter
G1 X81.114 Y25.118 E13.93117 ; perimeter
G1 X81.702 Y26.173 E13.98718 ; perimeter
G1 X82.189 Y27.278 E14.04320 ; perimeter
G1 X82.573 Y28.423 E14.09922 ; perimeter
G1 X82.850 Y29.598 E14.15523 ; perimeter
G1 X83.016 Y30.794 E14.21125 ; perimeter
G1 X83.071 Y31.984 E14.26652 ; perimeter
G1 X83.071 Y41.940 E14.72842 ; perimeter
G1 X82.625 Y42.015 F7500.000 ; move to first perimeter point
G1 F1620
G1 X82.625 Y112.006 E17.97546 ; perimeter
G1 X82.571 Y113.165 E18.02930 ; perimeter
G1 X82.410 Y114.320 E18.08340 ; perimeter
G1 X82.143 Y115.455 E18.13750 ; perimeter
G1 X81.773 Y116.561 E18.19160 ; perimeter
G1 X81.302 Y117.628 E18.24570 ; perimeter
G1 X80.734 Y118.646 E18.29980 ; perimeter
G1 X80.075 Y119.608 E18.35390 ; perimeter
G1 X79.330 Y120.506 E18.40800 ; perimeter
G1 X78.506 Y121.330 E18.46210 ; perimeter
G1 X77.608 Y122.075 E18.51621 ; perimeter
G1 X76.646 Y122.734 E18.57031 ; perimeter
G1 X75.628 Y123.302 E18.62441 ; perimeter
G1 X74.561 Y123.773 E18.67851 ; perimeter
G1 X73.455 Y124.143 E18.73261 ; perimeter
G1 X72.320 Y124.410 E18.78671 ; perimeter
G1 X71.165 Y124.571 E18.84081 ; perimeter
G1 X70.000 Y124.625 E18.89491 ; perimeter
G1 X68.835 Y124.571 E18.94901 ; perimeter
G1 X67.680 Y124.410 E19.00312 ; perimeter
G1 X66.545 Y124.143 E19.05722 ; perimeter
G1 X65.439 Y123.773 E19.11132 ; perimeter
G1 X64.372 Y123.302 E19.16542 ; perimeter
G1 X63.354 Y122.734 E19.21952 ; perimeter
G1 X62.392 Y122.075 E19.27362 ; perimeter
G1 X61.494 Y121.330 E19.32772 ; perimeter
G1 X60.670 Y120.506 E19.38182 ; perimeter
G1 X59.925 Y119.608 E19.43592 ; perimeter
G1 X59.266 Y118.646 E19.49003 ; perimeter
G1 X58.698 Y117.628 E19.54413 ; perimeter
G1 X58.227 Y116.561 E19.59823 ; perimeter
G1 X57.857 Y115.455 E19.65233 ; perimeter
G1 X57.590 Y114.320 E19.70643 ; perimeter
G1 X57.429 Y113.165 E19.76053 ; perimeter
G1 X57.375 Y112.006 E19.81436 ; perimeter
G1 X57.375 Y31.994 E23.52631 ; perimeter
G1 X57.429 Y30.835 E23.58014 ; perimeter
G1 X57.590 Y29.680 E23.63425 ; perimeter
G1 X57.857 Y28.545 E23.68835 ; perimeter
G1 X58.227 Y27.439 E23.74245 ; perimeter
G1 X58.698 Y26.372 E23.79655 ; perimeter
G1 X59.266 Y25.354 E23.85065 ; perimeter
G1 X59.925 Y24.392 E23.90475 ; perimeter
G1 X60.670 Y23.494 E23.95885 ; perimeter
G1 X61.494 Y22.670 E24.01295 ; perimeter
G1 X62.392 Y21.925 E24.06705 ; perimeter
G1 X63.354 Y21.266 E24.12116 ; perimeter
G1 X64.372 Y20.698 E24.17526 ; perimeter
G1 X65.439 Y20.227 E24.22936 ; perimeter
G1 X66.545 Y19.857 E24.28346 ; perimeter
G1 X67.680 Y19.590 E24.33756 ; perimeter
G1 X68.835 Y19.429 E24.39166 ; perimeter
G1 X70.000 Y19.375 E24.44576 ; perimeter
G1 X71.165 Y19.429 E24.49986 ; perimeter
G1 X72.320 Y19.590 E24.55396 ; perimeter
G1 X73.455 Y19.857 E24.60807 ; perimeter
G1 X74.561 Y20.227 E24.66217 ; perimeter
G1 X75.628 Y20.698 E24.71627 ; perimeter
G1 X76.646 Y21.266 E24.77037 ; perimeter
G1 X77.608 Y21.925 E24.82447 ; perimeter
G1 X78.506 Y22.670 E24.87857 ; perimeter
G1 X79.330 Y23.494 E24.93267 ; perimeter
G1 X80.075 Y24.392 E24.98677 ; perimeter
G1 X80.734 Y25.354 E25.04087 ; perimeter
G1 X81.302 Y26.372 E25.09498 ; perimeter
G1 X81.773 Y27.439 E25.14908 ; perimeter
G1 X82.143 Y28.545 E25.20318 ; perimeter
G1 X82.410 Y29.680 E25.25728 ; perimeter
G1 X82.571 Y30.835 E25.31138 ; perimeter
G1 X82.625 Y31.994 E25.36521 ; perimeter
G1 X82.625 Y41.940 E25.82663 ; perimeter
G1 X83.058 Y42.265 F7500.000 ; move inwards before travel
G1 E22.32663 F3000.00000 ; retract
G92 E0 ; reset extrusion distance
G1 X83.929 Y42.015 F7500.000 ; move to first perimeter point
G1 E3.50000 F3000.00000 ; unretract
G1 F1800
G1 X83.929 Y111.985 E6.74608 ; perimeter
G1 X83.876 Y113.198 E6.80239 ; perimeter
G1 X83.722 Y114.386 E6.85800 ; perimeter
G1 X83.466 Y115.557 E6.91360 ; perimeter
G1 X83.108 Y116.707 E6.96946 ; perimeter
G1 X83.007 Y116.966 E6.98237 ; perimeter
G1 X82.658 Y117.810 E7.02474 ; perimeter
G1 X82.110 Y118.878 E7.08042 ; perimeter
G1 X81.474 Y119.893 E7.13603 ; perimeter
G1 X80.752 Y120.850 E7.19163 ; perimeter
G1 X79.943 Y121.750 E7.24776 ; perimeter
G1 X78.850 Y122.752 E7.31654 ; perimeter
G1 X77.893 Y123.474 E7.37214 ; perimeter
G1 X76.878 Y124.110 E7.42774 ; perimeter
G1 X75.811 Y124.657 E7.48335 ; perimeter
G1 X74.702 Y125.110 E7.53895 ; perimeter
G1 X73.556 Y125.466 E7.59460 ; perimeter
G1 X72.662 Y125.664 E7.63709 ; perimeter
G1 X72.389 Y125.722 E7.65003 ; perimeter
G1 X71.198 Y125.876 E7.70577 ; perimeter
G1 X70.000 Y125.928 E7.76138 ; perimeter
G1 X68.802 Y125.876 E7.81699 ; perimeter
G1 X67.614 Y125.722 E7.87260 ; perimeter
G1 X66.443 Y125.466 E7.92821 ; perimeter
G1 X65.298 Y125.110 E7.98381 ; perimeter
G1 X64.189 Y124.657 E8.03942 ; perimeter
G1 X63.122 Y124.110 E8.09502 ; perimeter
G1 X62.107 Y123.474 E8.15063 ; perimeter
G1 X61.150 Y122.752 E8.20623 ; perimeter
G1 X60.057 Y121.750 E8.27500 ; perimeter
G1 X59.248 Y120.850 E8.33114 ; perimeter
G1 X58.526 Y119.893 E8.38674 ; perimeter
G1 X57.890 Y118.878 E8.44234 ; perimeter
G1 X57.343 Y117.811 E8.49795 ; perimeter
G1 X56.890 Y116.702 E8.55355 ; perimeter
G1 X56.534 Y115.557 E8.60916 ; perimeter
G1 X56.278 Y114.386 E8.66477 ; perimeter
G1 X56.124 Y113.198 E8.72037 ; perimeter
G1 X56.071 Y111.985 E8.77668 ; perimeter
G1 X56.071 Y32.015 E12.48670 ; perimeter
G1 X56.124 Y30.802 E12.54300 ; perimeter
G1 X56.278 Y29.611 E12.59875 ; perimeter
G1 X56.534 Y28.444 E12.65417 ; perimeter
G1 X56.890 Y27.298 E12.70983 ; perimeter
G1 X57.343 Y26.189 E12.76543 ; perimeter
G1 X57.890 Y25.122 E12.82104 ; perimeter
G1 X58.526 Y24.107 E12.87664 ; perimeter
G1 X59.248 Y23.150 E12.93224 ; perimeter
G1 X60.057 Y22.250 E12.98837 ; perimeter
G1 X61.150 Y21.248 E13.05715 ; perimeter
G1 X62.107 Y20.526 E13.11275 ; perimeter
G1 X63.122 Y19.890 E13.16835 ; perimeter
G1 X64.190 Y19.342 E13.22404 ; perimeter
G1 X65.034 Y18.993 E13.26641 ; perimeter
G1 X65.293 Y18.892 E13.27932 ; perimeter
G1 X66.443 Y18.534 E13.33517 ; perimeter
G1 X67.614 Y18.278 E13.39078 ; perimeter
G1 X68.802 Y18.124 E13.44639 ; perimeter
G1 X70.001 Y18.072 E13.50203 ; perimeter
G1 X71.197 Y18.124 E13.55760 ; perimeter
G1 X72.386 Y18.278 E13.61321 ; perimeter
G1 X73.557 Y18.534 E13.66882 ; perimeter
G1 X74.702 Y18.890 E13.72443 ; perimeter
G1 X75.811 Y19.343 E13.78003 ; perimeter
G1 X76.878 Y19.890 E13.83564 ; perimeter
G1 X77.893 Y20.526 E13.89124 ; perimeter
G1 X78.859 Y21.254 E13.94732 ; perimeter
G1 X79.951 Y22.258 E14.01615 ; perimeter
G1 X80.752 Y23.150 E14.07175 ; perimeter
G1 X81.474 Y24.107 E14.12735 ; perimeter
G1 X82.110 Y25.122 E14.18296 ; perimeter
G1 X82.657 Y26.189 E14.23856 ; perimeter
G1 X83.110 Y27.298 E14.29417 ; perimeter
G1 X83.466 Y28.443 E14.34977 ; perimeter
G1 X83.722 Y29.614 E14.40538 ; perimeter
G1 X83.876 Y30.802 E14.46099 ; perimeter
G1 X83.929 Y32.015 E14.51729 ; perimeter
G1 X83.929 Y41.940 E14.97775 ; perimeter
G1 X84.375 Y42.015 F7500.000 ; move to first perimeter point
G1 F1620
G1 X84.375 Y111.995 E18.22428 ; perimeter
G1 X84.322 Y113.236 E18.28192 ; perimeter
G1 X84.162 Y114.463 E18.33931 ; perimeter
G1 X83.898 Y115.671 E18.39671 ; perimeter
G1 X83.530 Y116.854 E18.45419 ; perimeter
