; generated by Slic3r 1.34.1-prusa3d-win64 on 2018-10-03 at 22:46:10

; Buse diamètre 0,5mm
; Ratio : 200%
; Debit : 5mm3/s
; DMax : 7,5mm3/s = 60mm/s

; external perimeters extrusion width = 0.55mm
; perimeters extrusion width = 0.55mm
; infill extrusion width = 0.50mm
; solid infill extrusion width = 0.50mm
; top infill extrusion width = 0.40mm

M107 ; disable fan
M190 S70 ; attente chauffe plateau
M104 S210 ; préchauffe tête
G92 Z0 ; définir hauteur actuelle comme 0
G0 Z10 F1500
G28 YX ; prise d'origine en Y puis X
G1 X130 Y10 F3000 ; parking
M109 S210 ; attente chauffe T0
G0 Z0.30 F1500 ; distance 0.3mm du plateau
G92 E0 ; remise à zéro axe E
G1 E15 F150 ; pousser 15mm de filament
G1 X100 Z0 F1500 ; essuyage sur plateau et on démarre (=rétraction, hauteur, début)
G21 ; set units to millimeters
G90 ; use absolute coordinates
M82 ; use absolute distances for extrusion
G92 E0 ; reset extrusion distance
G1 E-3.60000 F3000.00000 ; retract
G92 E0 ; reset extrusion distance
G1 Z0.300 F5400.000 ; move to next layer (0)
G1 X68.060 Y78.392 F5400.000 ; move to first perimeter point
G1 E3.63000 F3000.00000 ; unretract
G1 F600
G1 X68.647 Y78.681 E3.65694 ; perimeter
G1 X69.408 Y78.940 E3.69008 ; perimeter
G1 X70.197 Y79.097 E3.72322 ; perimeter
G1 X71.000 Y79.149 E3.75635 ; perimeter
G1 X71.803 Y79.097 E3.78949 ; perimeter
G1 X72.592 Y78.940 E3.82262 ; perimeter
G1 X73.353 Y78.681 E3.85576 ; perimeter
G1 X73.940 Y78.392 E3.88270 ; perimeter
G1 X78.041 Y85.495 E4.22057 ; perimeter
G1 X76.492 Y86.258 E4.29171 ; perimeter
G1 X74.714 Y86.862 E4.36904 ; perimeter
G1 X72.873 Y87.228 E4.44637 ; perimeter
G1 X71.000 Y87.351 E4.52370 ; perimeter
G1 X69.127 Y87.228 E4.60104 ; perimeter
G1 X67.286 Y86.862 E4.67837 ; perimeter
G1 X65.508 Y86.258 E4.75570 ; perimeter
G1 X63.959 Y85.495 E4.82684 ; perimeter
G1 X68.023 Y78.457 E5.16161 ; perimeter
G1 X68.260 Y77.933 F5400.000 ; move inwards before travel
G1 E1.56161 F3000.00000 ; retract
G92 E0 ; reset extrusion distance
G1 X74.200 Y78.242 F5400.000 ; move to first perimeter point
G1 E3.63000 F3000.00000 ; unretract
G1 F600
G1 X74.743 Y77.879 E3.65694 ; perimeter
G1 X75.348 Y77.348 E3.69008 ; perimeter
G1 X75.879 Y76.743 E3.72322 ; perimeter
G1 X76.325 Y76.075 E3.75635 ; perimeter
G1 X76.681 Y75.353 E3.78949 ; perimeter
G1 X76.940 Y74.592 E3.82262 ; perimeter
G1 X77.097 Y73.803 E3.85576 ; perimeter
G1 X77.139 Y73.150 E3.88270 ; perimeter
G1 X85.341 Y73.150 E4.22057 ; perimeter
G1 X85.228 Y74.873 E4.29171 ; perimeter
G1 X84.862 Y76.714 E4.36904 ; perimeter
G1 X84.258 Y78.492 E4.44637 ; perimeter
G1 X83.428 Y80.175 E4.52370 ; perimeter
G1 X82.385 Y81.736 E4.60104 ; perimeter
G1 X81.148 Y83.148 E4.67837 ; perimeter
G1 X79.736 Y84.385 E4.75570 ; perimeter
G1 X78.300 Y85.345 E4.82684 ; perimeter
G1 X74.237 Y78.307 E5.16161 ; perimeter
G1 X73.902 Y77.840 F5400.000 ; move inwards before travel
G1 E1.56161 F3000.00000 ; retract
G92 E0 ; reset extrusion distance
G1 X77.139 Y72.850 F5400.000 ; move to first perimeter point
G1 E3.63000 F3000.00000 ; unretract
G1 F600
G1 X77.097 Y72.197 E3.65694 ; perimeter
G1 X76.940 Y71.408 E3.69008 ; perimeter
G1 X76.681 Y70.647 E3.72322 ; perimeter
G1 X76.325 Y69.925 E3.75635 ; perimeter
G1 X75.879 Y69.257 E3.78949 ; perimeter
G1 X75.348 Y68.652 E3.82262 ; perimeter
G1 X74.743 Y68.121 E3.85576 ; perimeter
G1 X74.200 Y67.758 E3.88270 ; perimeter
G1 X78.300 Y60.655 E4.22057 ; perimeter
G1 X79.736 Y61.615 E4.29171 ; perimeter
G1 X81.148 Y62.852 E4.36904 ; perimeter
G1 X82.385 Y64.264 E4.44637 ; perimeter
G1 X83.428 Y65.825 E4.52370 ; perimeter
G1 X84.258 Y67.508 E4.60104 ; perimeter
G1 X84.862 Y69.286 E4.67837 ; perimeter
G1 X85.228 Y71.127 E4.75570 ; perimeter
G1 X85.341 Y72.850 E4.82684 ; perimeter
G1 X77.214 Y72.850 E5.16161 ; perimeter
G1 X76.643 Y72.907 F5400.000 ; move inwards before travel
G1 E1.56161 F3000.00000 ; retract
G92 E0 ; reset extrusion distance
G1 X76.592 Y71.725 F5400.000 ; move to first perimeter point
G1 E3.63000 F3000.00000 ; unretract
G1 F600
G1 X74.126 Y71.725 E3.73160 ; perimeter
G1 X73.922 Y71.313 E3.75054 ; perimeter
G1 X73.677 Y70.946 E3.76872 ; perimeter
G1 X73.386 Y70.614 E3.78691 ; perimeter
G1 X73.054 Y70.323 E3.80509 ; perimeter
G1 X72.687 Y70.078 E3.82328 ; perimeter
G1 X72.291 Y69.882 E3.84146 ; perimeter
G1 X71.873 Y69.740 E3.85964 ; perimeter
G1 X71.440 Y69.654 E3.87783 ; perimeter
G1 X71.000 Y69.625 E3.89601 ; perimeter
G1 X70.560 Y69.654 E3.91420 ; perimeter
G1 X70.127 Y69.740 E3.93238 ; perimeter
G1 X69.709 Y69.882 E3.95057 ; perimeter
G1 X69.313 Y70.078 E3.96875 ; perimeter
G1 X68.946 Y70.323 E3.98693 ; perimeter
G1 X68.614 Y70.614 E4.00512 ; perimeter
G1 X68.323 Y70.946 E4.02330 ; perimeter
G1 X68.078 Y71.313 E4.04149 ; perimeter
G1 X67.874 Y71.725 E4.06042 ; perimeter
G1 X65.408 Y71.725 E4.16203 ; perimeter
G1 X65.710 Y70.810 E4.20173 ; perimeter
G1 X66.042 Y70.137 E4.23262 ; perimeter
G1 X66.458 Y69.515 E4.26347 ; perimeter
G1 X66.951 Y68.951 E4.29433 ; perimeter
G1 X67.515 Y68.458 E4.32518 ; perimeter
G1 X68.137 Y68.042 E4.35603 ; perimeter
G1 X68.809 Y67.710 E4.38688 ; perimeter
G1 X69.520 Y67.469 E4.41780 ; perimeter
G1 X70.344 Y67.318 E4.45233 ; perimeter
G1 X71.000 Y67.275 E4.47941 ; perimeter
G1 X71.747 Y67.323 E4.51027 ; perimeter
G1 X72.483 Y67.470 E4.54119 ; perimeter
G1 X73.273 Y67.751 E4.57572 ; perimeter
G1 X73.863 Y68.042 E4.60280 ; perimeter
G1 X74.485 Y68.458 E4.63365 ; perimeter
G1 X75.049 Y68.951 E4.66450 ; perimeter
G1 X75.542 Y69.515 E4.69535 ; perimeter
G1 X75.958 Y70.137 E4.72621 ; perimeter
G1 X76.290 Y70.810 E4.75710 ; perimeter
G1 X76.569 Y71.654 E4.79371 ; perimeter
G1 X76.655 Y72.221 F5400.000 ; move inwards before travel
G1 E1.19371 F3000.00000 ; retract
G92 E0 ; reset extrusion distance
G1 X76.592 Y72.275 F5400.000 ; move to first perimeter point
G1 E3.63000 F3000.00000 ; unretract
G1 F600
G1 X76.678 Y72.275 E3.63354 ; perimeter
G1 X76.725 Y73.000 E3.66347 ; perimeter
G1 X76.678 Y73.725 E3.69340 ; perimeter
G1 X73.731 Y73.725 E3.81479 ; perimeter
G1 X73.610 Y74.081 E3.83029 ; perimeter
G1 X73.447 Y74.413 E3.84551 ; perimeter
G1 X73.242 Y74.720 E3.86074 ; perimeter
G1 X72.998 Y74.998 E3.87596 ; perimeter
G1 X72.720 Y75.242 E3.89119 ; perimeter
G1 X72.413 Y75.447 E3.90642 ; perimeter
G1 X72.081 Y75.610 E3.92164 ; perimeter
G1 X71.731 Y75.729 E3.93687 ; perimeter
G1 X71.369 Y75.801 E3.95209 ; perimeter
G1 X71.000 Y75.825 E3.96732 ; perimeter
G1 X70.631 Y75.801 E3.98254 ; perimeter
G1 X70.269 Y75.729 E3.99777 ; perimeter
G1 X69.919 Y75.610 E4.01299 ; perimeter
G1 X69.587 Y75.447 E4.02822 ; perimeter
G1 X69.280 Y75.242 E4.04345 ; perimeter
G1 X69.002 Y74.998 E4.05867 ; perimeter
G1 X68.758 Y74.720 E4.07390 ; perimeter
G1 X68.553 Y74.413 E4.08912 ; perimeter
G1 X68.390 Y74.081 E4.10435 ; perimeter
G1 X68.269 Y73.725 E4.11985 ; perimeter
G1 X65.322 Y73.725 E4.24124 ; perimeter
G1 X65.275 Y73.000 E4.27117 ; perimeter
G1 X65.322 Y72.275 E4.30110 ; perimeter
G1 X68.269 Y72.275 E4.42249 ; perimeter
G1 X68.390 Y71.919 E4.43798 ; perimeter
G1 X68.553 Y71.587 E4.45321 ; perimeter
G1 X68.758 Y71.280 E4.46844 ; perimeter
G1 X69.002 Y71.002 E4.48366 ; perimeter
G1 X69.280 Y70.758 E4.49889 ; perimeter
G1 X69.587 Y70.553 E4.51411 ; perimeter
G1 X69.919 Y70.390 E4.52934 ; perimeter
G1 X70.269 Y70.271 E4.54456 ; perimeter
G1 X70.631 Y70.199 E4.55979 ; perimeter
G1 X70.996 Y70.175 E4.57483 ; perimeter
G1 X71.369 Y70.199 E4.59023 ; perimeter
G1 X71.731 Y70.271 E4.60546 ; perimeter
G1 X72.081 Y70.390 E4.62069 ; perimeter
G1 X72.413 Y70.553 E4.63592 ; perimeter
G1 X72.720 Y70.758 E4.65114 ; perimeter
G1 X72.998 Y71.002 E4.66637 ; perimeter
G1 X73.242 Y71.280 E4.68159 ; perimeter
G1 X73.447 Y71.587 E4.69682 ; perimeter
G1 X73.610 Y71.919 E4.71204 ; perimeter
G1 X73.731 Y72.275 E4.72754 ; perimeter
G1 X76.517 Y72.275 E4.84230 ; perimeter
G1 X76.638 Y72.202 F5400.000 ; move inwards before travel
G1 E1.24230 F3000.00000 ; retract
G92 E0 ; reset extrusion distance
G1 X76.592 Y74.275 F5400.000 ; move to first perimeter point
G1 E3.63000 F3000.00000 ; unretract
G1 F600
G1 X76.290 Y75.190 E3.66970 ; perimeter
G1 X75.958 Y75.863 E3.70059 ; perimeter
G1 X75.542 Y76.485 E3.73145 ; perimeter
G1 X75.049 Y77.049 E3.76230 ; perimeter
G1 X74.485 Y77.542 E3.79315 ; perimeter
G1 X73.863 Y77.958 E3.82400 ; perimeter
G1 X73.191 Y78.290 E3.85486 ; perimeter
G1 X72.482 Y78.530 E3.88571 ; perimeter
G1 X71.747 Y78.677 E3.91656 ; perimeter
G1 X71.000 Y78.725 E3.94742 ; perimeter
G1 X70.253 Y78.677 E3.97827 ; perimeter
G1 X69.518 Y78.530 E4.00912 ; perimeter
G1 X68.809 Y78.290 E4.03997 ; perimeter
G1 X68.137 Y77.958 E4.07083 ; perimeter
G1 X67.515 Y77.542 E4.10168 ; perimeter
G1 X66.951 Y77.049 E4.13253 ; perimeter
G1 X66.458 Y76.485 E4.16338 ; perimeter
G1 X66.042 Y75.863 E4.19424 ; perimeter
G1 X65.710 Y75.190 E4.22513 ; perimeter
G1 X65.408 Y74.275 E4.26483 ; perimeter
G1 X67.874 Y74.275 E4.36643 ; perimeter
G1 X68.078 Y74.687 E4.38537 ; perimeter
G1 X68.323 Y75.054 E4.40355 ; perimeter
G1 X68.614 Y75.386 E4.42174 ; perimeter
G1 X68.946 Y75.677 E4.43992 ; perimeter
G1 X69.313 Y75.922 E4.45811 ; perimeter
G1 X69.709 Y76.118 E4.47629 ; perimeter
G1 X70.127 Y76.260 E4.49448 ; perimeter
G1 X70.560 Y76.346 E4.51266 ; perimeter
G1 X71.000 Y76.375 E4.53084 ; perimeter
G1 X71.440 Y76.346 E4.54903 ; perimeter
G1 X71.873 Y76.260 E4.56721 ; perimeter
G1 X72.291 Y76.118 E4.58540 ; perimeter
G1 X72.687 Y75.922 E4.60358 ; perimeter
G1 X73.054 Y75.677 E4.62176 ; perimeter
G1 X73.386 Y75.386 E4.63995 ; perimeter
G1 X73.677 Y75.054 E4.65813 ; perimeter
G1 X73.922 Y74.687 E4.67632 ; perimeter
G1 X74.126 Y74.275 E4.69525 ; perimeter
G1 X76.517 Y74.275 E4.79377 ; perimeter
G1 X77.086 Y74.355 F5400.000 ; move inwards before travel
G1 E1.19377 F3000.00000 ; retract
G92 E0 ; reset extrusion distance
G1 X67.800 Y78.242 F5400.000 ; move to first perimeter point
G1 E3.63000 F3000.00000 ; unretract
G1 F600
G1 X63.700 Y85.345 E3.96787 ; perimeter
G1 X62.264 Y84.385 E4.03901 ; perimeter
G1 X60.852 Y83.148 E4.11634 ; perimeter
G1 X59.615 Y81.736 E4.19367 ; perimeter
G1 X58.572 Y80.175 E4.27100 ; perimeter
G1 X57.742 Y78.492 E4.34833 ; perimeter
G1 X57.138 Y76.714 E4.42566 ; perimeter
G1 X56.772 Y74.873 E4.50299 ; perimeter
G1 X56.659 Y73.150 E4.57413 ; perimeter
G1 X64.861 Y73.150 E4.91200 ; perimeter
G1 X64.903 Y73.803 E4.93894 ; perimeter
G1 X65.060 Y74.592 E4.97208 ; perimeter
G1 X65.319 Y75.353 E5.00522 ; perimeter
G1 X65.675 Y76.075 E5.03835 ; perimeter
G1 X66.121 Y76.743 E5.07149 ; perimeter
G1 X66.652 Y77.348 E5.10462 ; perimeter
G1 X67.257 Y77.879 E5.13776 ; perimeter
G1 X67.738 Y78.200 E5.16161 ; perimeter
G1 X68.221 Y78.511 F5400.000 ; move inwards before travel
G1 E1.56161 F3000.00000 ; retract
G92 E0 ; reset extrusion distance
G1 X64.861 Y72.850 F5400.000 ; move to first perimeter point
G1 E3.63000 F3000.00000 ; unretract
G1 F600
G1 X56.659 Y72.850 E3.96787 ; perimeter
G1 X56.772 Y71.127 E4.03901 ; perimeter
G1 X57.138 Y69.286 E4.11634 ; perimeter
G1 X57.742 Y67.508 E4.19367 ; perimeter
G1 X58.572 Y65.825 E4.27100 ; perimeter
G1 X59.615 Y64.264 E4.34833 ; perimeter
G1 X60.852 Y62.852 E4.42566 ; perimeter
G1 X62.264 Y61.615 E4.50299 ; perimeter
G1 X63.700 Y60.655 E4.57413 ; perimeter
G1 X67.800 Y67.758 E4.91200 ; perimeter
G1 X67.257 Y68.121 E4.93894 ; perimeter
G1 X66.652 Y68.652 E4.97208 ; perimeter
G1 X66.121 Y69.257 E5.00522 ; perimeter
G1 X65.675 Y69.925 E5.03835 ; perimeter
G1 X65.319 Y70.647 E5.07149 ; perimeter
G1 X65.060 Y71.408 E5.10462 ; perimeter
G1 X64.903 Y72.197 E5.13776 ; perimeter
G1 X64.865 Y72.775 E5.16161 ; perimeter
G1 X64.838 Y73.349 F5400.000 ; move inwards before travel
G1 E1.56161 F3000.00000 ; retract
G92 E0 ; reset extrusion distance
G1 X68.060 Y67.608 F5400.000 ; move to first perimeter point
G1 E3.63000 F3000.00000 ; unretract
G1 F600
G1 X63.959 Y60.505 E3.96787 ; perimeter
G1 X65.508 Y59.742 E4.03901 ; perimeter
G1 X67.286 Y59.138 E4.11634 ; perimeter
G1 X69.127 Y58.772 E4.19367 ; perimeter
G1 X71.000 Y58.649 E4.27100 ; perimeter
G1 X72.873 Y58.772 E4.34833 ; perimeter
G1 X74.714 Y59.138 E4.42566 ; perimeter
G1 X76.492 Y59.742 E4.50299 ; perimeter
G1 X78.041 Y60.505 E4.57413 ; perimeter
G1 X73.940 Y67.608 E4.91200 ; perimeter
G1 X73.353 Y67.319 E4.93894 ; perimeter
G1 X72.592 Y67.060 E4.97208 ; perimeter
G1 X71.803 Y66.903 E5.00521 ; perimeter
G1 X71.000 Y66.851 E5.03835 ; perimeter
G1 X70.197 Y66.903 E5.07149 ; perimeter
G1 X69.408 Y67.060 E5.10462 ; perimeter
G1 X68.647 Y67.319 E5.13776 ; perimeter
G1 X68.127 Y67.575 E5.16161 ; perimeter
G1 X67.616 Y67.838 F5400.000 ; move inwards before travel
G1 E1.56161 F3000.00000 ; retract
G92 E0 ; reset extrusion distance
G1 X63.611 Y60.203 F5400.000 ; move to first perimeter point
G1 E3.63000 F3000.00000 ; unretract
G1 F1080
G1 X65.345 Y59.348 E3.70963 ; perimeter
G1 X67.175 Y58.726 E3.78926 ; perimeter
G1 X69.071 Y58.349 E3.86886 ; perimeter
G1 X71.071 Y58.228 E3.95141 ; perimeter
G1 X72.929 Y58.349 E4.02812 ; perimeter
G1 X74.825 Y58.726 E4.10775 ; perimeter
G1 X76.655 Y59.348 E4.18738 ; perimeter
G1 X78.389 Y60.203 E4.26700 ; perimeter
G1 X79.996 Y61.277 E4.34663 ; perimeter
G1 X81.449 Y62.551 E4.42626 ; perimeter
G1 X82.723 Y64.004 E4.50589 ; perimeter
G1 X83.797 Y65.611 E4.58552 ; perimeter
G1 X84.652 Y67.345 E4.66515 ; perimeter
G1 X85.274 Y69.175 E4.74478 ; perimeter
G1 X85.651 Y71.071 E4.82441 ; perimeter
G1 X85.777 Y73.000 E4.90403 ; perimeter
G1 X85.651 Y74.929 E4.98366 ; perimeter
G1 X85.274 Y76.825 E5.06329 ; perimeter
G1 X84.652 Y78.655 E5.14292 ; perimeter
G1 X83.797 Y80.389 E5.22255 ; perimeter
G1 X82.723 Y81.996 E5.30218 ; perimeter
G1 X81.449 Y83.449 E5.38181 ; perimeter
G1 X79.996 Y84.723 E5.46143 ; perimeter
G1 X78.389 Y85.797 E5.54106 ; perimeter
G1 X76.655 Y86.652 E5.62069 ; perimeter
G1 X74.825 Y87.274 E5.70032 ; perimeter
G1 X72.929 Y87.651 E5.77995 ; perimeter
G1 X71.000 Y87.777 E5.85958 ; perimeter
G1 X69.071 Y87.651 E5.93921 ; perimeter
G1 X67.175 Y87.274 E6.01883 ; perimeter
G1 X65.345 Y86.652 E6.09846 ; perimeter
G1 X63.611 Y85.797 E6.17809 ; perimeter
G1 X62.004 Y84.723 E6.25772 ; perimeter
G1 X60.551 Y83.449 E6.33733 ; perimeter
G1 X59.237 Y81.937 E6.41987 ; perimeter
G1 X58.203 Y80.389 E6.49658 ; perimeter
G1 X57.348 Y78.655 E6.57621 ; perimeter
G1 X56.726 Y76.825 E6.65584 ; perimeter
G1 X56.349 Y74.929 E6.73547 ; perimeter
G1 X56.223 Y73.000 E6.81510 ; perimeter
G1 X56.349 Y71.071 E6.89473 ; perimeter
G1 X56.726 Y69.175 E6.97435 ; perimeter
G1 X57.348 Y67.345 E7.05398 ; perimeter
G1 X58.203 Y65.611 E7.13361 ; perimeter
G1 X59.277 Y64.004 E7.21324 ; perimeter
G1 X60.551 Y62.551 E7.29287 ; perimeter
G1 X62.004 Y61.277 E7.37250 ; perimeter
G1 X63.549 Y60.244 E7.44904 ; perimeter
G1 X64.044 Y60.453 F5400.000 ; move inwards before travel
G1 E3.84904 F3000.00000 ; retract
G92 E0 ; reset extrusion distance
G1 X65.145 Y72.000 F5400.000 ; move to first infill point
G1 E3.63000 F3000.00000 ; unretract
G1 F600
G1 X67.998 Y72.000 E3.65965 ; infill
G1 X68.062 Y71.986 E3.66034 ; infill
G1 X68.315 Y71.450 E3.66650 ; infill
G1 X68.541 Y71.113 E3.67072 ; infill
G1 X68.808 Y70.808 E3.67493 ; infill
G1 X69.113 Y70.541 E3.67915 ; infill
G1 X69.454 Y70.313 E3.68341 ; infill
G1 X69.814 Y70.136 E3.68758 ; infill
G1 X70.193 Y70.007 E3.69174 ; infill
G1 X70.595 Y69.927 E3.69601 ; infill
G1 X71.000 Y69.900 E3.70022 ; infill
G1 X71.405 Y69.927 E3.70444 ; infill
G1 X71.807 Y70.007 E3.70870 ; infill
G1 X72.186 Y70.136 E3.71286 ; infill
G1 X72.546 Y70.313 E3.71703 ; infill
G1 X72.887 Y70.541 E3.72129 ; infill
G1 X73.192 Y70.808 E3.72551 ; infill
G1 X73.459 Y71.113 E3.72972 ; infill
G1 X73.685 Y71.450 E3.73394 ; infill
G1 X73.938 Y71.986 E3.74010 ; infill
G1 X74.002 Y72.000 E3.74079 ; infill
G1 X76.855 Y72.000 E3.77044 ; infill
G1 E0.17044 F3000.00000 ; retract
G92 E0 ; reset extrusion distance
G1 X76.855 Y74.000 F5400.000 ; move to first infill point
G1 E3.63000 F3000.00000 ; unretract
G1 F600
G1 X74.002 Y74.000 E3.65965 ; infill
G1 X73.938 Y74.013 E3.66034 ; infill
G1 X73.685 Y74.550 E3.66650 ; infill
G1 X73.459 Y74.887 E3.67072 ; infill
