; generated by Slic3r 1.34.1-prusa3d-win64 on 2019-01-12 at 17:24:11

; Buse diamètre 0,4mm
; Ratio : 200%
; Debit : 3,2mm3/s = 40mm/s
; DMax : 4,8mm3/s = 60mm/s

; external perimeters extrusion width = 0.40mm
; perimeters extrusion width = 0.40mm
; infill extrusion width = 0.40mm
; solid infill extrusion width = 0.40mm
; top infill extrusion width = 0.32mm

M107 ; disable fan
M190 S70 ; attente chauffe plateau
M104 S210 ; préchauffe tête
G92 Z0 ; définir hauteur actuelle comme 0
G0 Z10 F1500
G28 YX ; prise d'origine en Y puis X
G1 X130 Y10 F3000 ; parking
M109 S210 ; attente chauffe T0
G0 Z0.30 F1500 ; distance 0.3mm du plateau
G92 E0 ; remise à zéro axe E
G1 E15 F150 ; pousser 15mm de filament
G1 X100 Z0 F1500 ; essuyage sur plateau et on démarre (=rétraction, hauteur, début)
G21 ; set units to millimeters
G90 ; use absolute coordinates
M82 ; use absolute distances for extrusion
G92 E0 ; reset extrusion distance
G1 E-3.60000 F3000.00000 ; retract
G92 E0 ; reset extrusion distance
G1 Z0.450 F5400.000 ; move to next layer (0)
G1 X68.356 Y78.231 F5400.000 ; move to first perimeter point
G1 E3.61500 F3000.00000 ; unretract
G1 F1080
G1 X69.474 Y78.694 E3.68077 ; perimeter
G1 X71.001 Y78.895 E3.76442 ; perimeter
G1 X72.525 Y78.694 E3.84797 ; perimeter
G1 X73.644 Y78.231 E3.91374 ; perimeter
G1 X82.594 Y93.733 E4.88629 ; perimeter
G1 X81.155 Y94.469 E4.97412 ; perimeter
G1 X80.089 Y94.942 E5.03749 ; perimeter
G1 X79.001 Y95.362 E5.10084 ; perimeter
G1 X77.893 Y95.728 E5.16423 ; perimeter
G1 X76.772 Y96.038 E5.22745 ; perimeter
G1 X75.634 Y96.294 E5.29083 ; perimeter
G1 X74.486 Y96.492 E5.35414 ; perimeter
G1 X73.327 Y96.636 E5.41754 ; perimeter
G1 X72.165 Y96.721 E5.48087 ; perimeter
G1 X71.001 Y96.749 E5.54414 ; perimeter
G1 X69.835 Y96.721 E5.60751 ; perimeter
G1 X68.673 Y96.636 E5.67084 ; perimeter
G1 X67.514 Y96.492 E5.73424 ; perimeter
G1 X66.366 Y96.294 E5.79755 ; perimeter
G1 X65.228 Y96.038 E5.86093 ; perimeter
G1 X64.107 Y95.728 E5.92415 ; perimeter
G1 X62.999 Y95.362 E5.98754 ; perimeter
G1 X61.911 Y94.942 E6.05089 ; perimeter
G1 X60.845 Y94.469 E6.11426 ; perimeter
G1 X59.406 Y93.733 E6.20209 ; perimeter
G1 X68.326 Y78.283 E7.17138 ; perimeter
G1 X68.514 Y77.864 F5400.000 ; move inwards before travel
G1 E3.57138 F3000.00000 ; retract
G92 E0 ; reset extrusion distance
G1 X66.195 Y74.999 F5400.000 ; move to first perimeter point
G1 E3.61500 F3000.00000 ; unretract
G1 F600
G1 X67.726 Y74.999 E3.69821 ; perimeter
G1 X68.279 Y75.721 E3.74761 ; perimeter
G1 X69.077 Y76.333 E3.80223 ; perimeter
G1 X70.004 Y76.717 E3.85677 ; perimeter
G1 X71.001 Y76.847 E3.91138 ; perimeter
G1 X71.996 Y76.717 E3.96589 ; perimeter
G1 X72.923 Y76.333 E4.02043 ; perimeter
G1 X73.721 Y75.721 E4.07505 ; perimeter
G1 X74.274 Y74.999 E4.12445 ; perimeter
G1 X75.805 Y74.999 E4.20766 ; perimeter
G1 X75.550 Y75.625 E4.24437 ; perimeter
G1 X74.713 Y76.713 E4.31896 ; perimeter
G1 X73.625 Y77.549 E4.39353 ; perimeter
G1 X72.360 Y78.073 E4.46790 ; perimeter
G1 X71.001 Y78.251 E4.54238 ; perimeter
G1 X69.640 Y78.073 E4.61697 ; perimeter
G1 X68.375 Y77.549 E4.69135 ; perimeter
G1 X67.287 Y76.713 E4.76591 ; perimeter
G1 X66.450 Y75.625 E4.84050 ; perimeter
G1 X66.218 Y75.055 E4.87395 ; perimeter
G1 X66.120 Y74.606 F5400.000 ; move inwards before travel
G1 E1.27395 F3000.00000 ; retract
G92 E0 ; reset extrusion distance
G1 X76.120 Y72.001 F5400.000 ; move to first perimeter point
G1 E3.61500 F3000.00000 ; unretract
G1 F600
G1 X76.251 Y72.999 E3.66969 ; perimeter
G1 X76.120 Y73.999 E3.72448 ; perimeter
G1 X73.646 Y73.999 E3.85893 ; perimeter
G1 X73.469 Y74.425 E3.88397 ; perimeter
G1 X73.017 Y75.017 E3.92447 ; perimeter
G1 X72.425 Y75.469 E3.96496 ; perimeter
G1 X71.738 Y75.755 E4.00535 ; perimeter
G1 X71.001 Y75.851 E4.04575 ; perimeter
G1 X70.262 Y75.755 E4.08626 ; perimeter
G1 X69.575 Y75.469 E4.12666 ; perimeter
G1 X68.983 Y75.017 E4.16715 ; perimeter
G1 X68.531 Y74.425 E4.20765 ; perimeter
G1 X68.354 Y73.999 E4.23269 ; perimeter
G1 X65.880 Y73.999 E4.36713 ; perimeter
G1 X65.749 Y73.001 E4.42182 ; perimeter
G1 X65.880 Y72.001 E4.47661 ; perimeter
G1 X68.354 Y72.001 E4.61106 ; perimeter
G1 X68.531 Y71.575 E4.63610 ; perimeter
G1 X68.983 Y70.983 E4.67660 ; perimeter
G1 X69.576 Y70.530 E4.71712 ; perimeter
G1 X70.272 Y70.244 E4.75804 ; perimeter
G1 X70.999 Y70.149 E4.79786 ; perimeter
G1 X71.738 Y70.245 E4.83837 ; perimeter
G1 X72.425 Y70.531 E4.87877 ; perimeter
G1 X73.017 Y70.983 E4.91926 ; perimeter
G1 X73.469 Y71.575 E4.95976 ; perimeter
G1 X73.646 Y72.001 E4.98480 ; perimeter
G1 X76.060 Y72.001 E5.11598 ; perimeter
G1 X76.520 Y71.987 F5400.000 ; move inwards before travel
G1 E1.51598 F3000.00000 ; retract
G92 E0 ; reset extrusion distance
G1 X75.805 Y71.001 F5400.000 ; move to first perimeter point
G1 E3.61500 F3000.00000 ; unretract
G1 F600
G1 X74.274 Y71.001 E3.69821 ; perimeter
G1 X73.721 Y70.279 E3.74761 ; perimeter
G1 X72.923 Y69.667 E3.80223 ; perimeter
G1 X71.996 Y69.283 E3.85677 ; perimeter
G1 X70.999 Y69.153 E3.91138 ; perimeter
G1 X70.004 Y69.283 E3.96589 ; perimeter
G1 X69.077 Y69.667 E4.02043 ; perimeter
G1 X68.279 Y70.279 E4.07505 ; perimeter
G1 X67.726 Y71.001 E4.12445 ; perimeter
G1 X66.195 Y71.001 E4.20766 ; perimeter
G1 X66.450 Y70.375 E4.24437 ; perimeter
G1 X67.287 Y69.287 E4.31896 ; perimeter
G1 X68.375 Y68.451 E4.39353 ; perimeter
G1 X69.640 Y67.927 E4.46790 ; perimeter
G1 X70.999 Y67.749 E4.54238 ; perimeter
G1 X72.360 Y67.927 E4.61697 ; perimeter
G1 X73.625 Y68.451 E4.69135 ; perimeter
G1 X74.713 Y69.287 E4.76591 ; perimeter
G1 X75.550 Y70.375 E4.84050 ; perimeter
G1 X75.782 Y70.945 E4.87395 ; perimeter
G1 X75.880 Y71.394 F5400.000 ; move inwards before travel
G1 E1.27395 F3000.00000 ; retract
G92 E0 ; reset extrusion distance
G1 X76.852 Y73.324 F5400.000 ; move to first perimeter point
G1 E3.61500 F3000.00000 ; unretract
G1 F1080
G1 X94.741 Y73.324 E4.58699 ; perimeter
G1 X94.721 Y74.165 E4.63270 ; perimeter
G1 X94.636 Y75.327 E4.69602 ; perimeter
G1 X94.492 Y76.486 E4.75942 ; perimeter
G1 X94.294 Y77.634 E4.82273 ; perimeter
G1 X94.038 Y78.772 E4.88611 ; perimeter
G1 X93.728 Y79.893 E4.94933 ; perimeter
G1 X93.362 Y81.001 E5.01272 ; perimeter
G1 X92.942 Y82.089 E5.07607 ; perimeter
G1 X92.469 Y83.154 E5.13939 ; perimeter
G1 X91.946 Y84.195 E5.20269 ; perimeter
G1 X91.371 Y85.210 E5.26604 ; perimeter
G1 X90.747 Y86.194 E5.32938 ; perimeter
G1 X90.076 Y87.148 E5.39275 ; perimeter
G1 X89.358 Y88.068 E5.45613 ; perimeter
G1 X88.598 Y88.949 E5.51936 ; perimeter
G1 X87.794 Y89.794 E5.58274 ; perimeter
G1 X86.949 Y90.598 E5.64613 ; perimeter
G1 X86.068 Y91.358 E5.70936 ; perimeter
G1 X85.148 Y92.076 E5.77274 ; perimeter
G1 X84.194 Y92.747 E5.83611 ; perimeter
G1 X83.157 Y93.405 E5.90287 ; perimeter
G1 X74.208 Y77.906 E6.87530 ; perimeter
G1 X75.169 Y77.169 E6.94111 ; perimeter
G1 X76.106 Y75.947 E7.02477 ; perimeter
G1 X76.694 Y74.526 E7.10835 ; perimeter
G1 X76.844 Y73.384 E7.17092 ; perimeter
G1 X76.889 Y72.926 F5400.000 ; move inwards before travel
G1 E3.57092 F3000.00000 ; retract
G92 E0 ; reset extrusion distance
G1 X76.852 Y72.676 F5400.000 ; move to first perimeter point
G1 E3.61500 F3000.00000 ; unretract
G1 F1080
G1 X76.694 Y71.474 E3.68083 ; perimeter
G1 X76.106 Y70.053 E3.76441 ; perimeter
G1 X75.169 Y68.831 E3.84807 ; perimeter
G1 X74.208 Y68.094 E3.91387 ; perimeter
G1 X83.157 Y52.595 E4.88631 ; perimeter
G1 X84.194 Y53.253 E4.95307 ; perimeter
G1 X85.148 Y53.924 E5.01643 ; perimeter
G1 X86.068 Y54.642 E5.07982 ; perimeter
G1 X86.949 Y55.402 E5.14305 ; perimeter
G1 X87.794 Y56.206 E5.20643 ; perimeter
G1 X88.598 Y57.051 E5.26982 ; perimeter
G1 X89.358 Y57.932 E5.33305 ; perimeter
G1 X90.076 Y58.852 E5.39643 ; perimeter
G1 X90.747 Y59.806 E5.45980 ; perimeter
G1 X91.371 Y60.790 E5.52314 ; perimeter
G1 X91.946 Y61.805 E5.58649 ; perimeter
G1 X92.469 Y62.846 E5.64979 ; perimeter
G1 X92.942 Y63.911 E5.71311 ; perimeter
G1 X93.362 Y64.999 E5.77646 ; perimeter
G1 X93.728 Y66.107 E5.83985 ; perimeter
G1 X94.038 Y67.228 E5.90307 ; perimeter
G1 X94.294 Y68.366 E5.96645 ; perimeter
G1 X94.492 Y69.514 E6.02976 ; perimeter
G1 X94.636 Y70.673 E6.09316 ; perimeter
G1 X94.721 Y71.835 E6.15648 ; perimeter
G1 X94.741 Y72.676 E6.20218 ; perimeter
G1 X76.912 Y72.676 E7.17092 ; perimeter
G1 X76.454 Y72.717 F5400.000 ; move inwards before travel
G1 E3.57092 F3000.00000 ; retract
G92 E0 ; reset extrusion distance
G1 X73.644 Y67.769 F5400.000 ; move to first perimeter point
G1 E3.61500 F3000.00000 ; unretract
G1 F1080
G1 X72.526 Y67.306 E3.68077 ; perimeter
G1 X70.999 Y67.105 E3.76442 ; perimeter
G1 X69.474 Y67.306 E3.84797 ; perimeter
G1 X68.356 Y67.769 E3.91374 ; perimeter
G1 X59.406 Y52.267 E4.88633 ; perimeter
G1 X60.845 Y51.531 E4.97413 ; perimeter
G1 X61.911 Y51.058 E5.03749 ; perimeter
G1 X62.999 Y50.638 E5.10084 ; perimeter
G1 X64.107 Y50.272 E5.16424 ; perimeter
G1 X65.228 Y49.962 E5.22745 ; perimeter
G1 X66.366 Y49.706 E5.29084 ; perimeter
G1 X67.514 Y49.508 E5.35414 ; perimeter
G1 X68.673 Y49.364 E5.41755 ; perimeter
G1 X69.835 Y49.279 E5.48087 ; perimeter
G1 X70.993 Y49.251 E5.54380 ; perimeter
G1 X72.165 Y49.279 E5.60752 ; perimeter
G1 X73.327 Y49.364 E5.67084 ; perimeter
G1 X74.486 Y49.508 E5.73425 ; perimeter
G1 X75.634 Y49.706 E5.79755 ; perimeter
G1 X76.772 Y49.962 E5.86093 ; perimeter
G1 X77.893 Y50.272 E5.92415 ; perimeter
G1 X79.001 Y50.638 E5.98754 ; perimeter
G1 X80.089 Y51.058 E6.05090 ; perimeter
G1 X81.155 Y51.531 E6.11426 ; perimeter
G1 X82.594 Y52.267 E6.20209 ; perimeter
G1 X73.674 Y67.717 E7.17138 ; perimeter
G1 X73.486 Y68.136 F5400.000 ; move inwards before travel
G1 E3.57138 F3000.00000 ; retract
G92 E0 ; reset extrusion distance
G1 X67.792 Y68.094 F5400.000 ; move to first perimeter point
G1 E3.61500 F3000.00000 ; unretract
G1 F1080
G1 X66.831 Y68.831 E3.68080 ; perimeter
G1 X65.894 Y70.053 E3.76447 ; perimeter
G1 X65.306 Y71.474 E3.84805 ; perimeter
G1 X65.148 Y72.676 E3.91387 ; perimeter
G1 X47.259 Y72.676 E4.88587 ; perimeter
G1 X47.279 Y71.835 E4.93157 ; perimeter
G1 X47.364 Y70.673 E4.99489 ; perimeter
G1 X47.508 Y69.514 E5.05830 ; perimeter
G1 X47.706 Y68.366 E5.12160 ; perimeter
G1 X47.962 Y67.228 E5.18498 ; perimeter
G1 X48.272 Y66.107 E5.24820 ; perimeter
G1 X48.638 Y64.999 E5.31159 ; perimeter
G1 X49.061 Y63.905 E5.37528 ; perimeter
G1 X49.531 Y62.846 E5.43826 ; perimeter
G1 X50.057 Y61.800 E5.50190 ; perimeter
G1 X50.629 Y60.790 E5.56491 ; perimeter
G1 X51.253 Y59.806 E5.62825 ; perimeter
G1 X51.924 Y58.852 E5.69162 ; perimeter
G1 X52.642 Y57.932 E5.75500 ; perimeter
G1 X53.402 Y57.051 E5.81823 ; perimeter
G1 X54.206 Y56.206 E5.88162 ; perimeter
G1 X55.047 Y55.406 E5.94467 ; perimeter
G1 X55.932 Y54.642 E6.00823 ; perimeter
G1 X56.852 Y53.924 E6.07162 ; perimeter
G1 X57.806 Y53.253 E6.13499 ; perimeter
G1 X58.843 Y52.595 E6.20170 ; perimeter
G1 X67.762 Y68.042 E7.17085 ; perimeter
G1 X68.029 Y68.417 F5400.000 ; move inwards before travel
G1 E3.57085 F3000.00000 ; retract
G92 E0 ; reset extrusion distance
G1 X65.148 Y73.324 F5400.000 ; move to first perimeter point
G1 E3.61500 F3000.00000 ; unretract
G1 F1080
G1 X65.306 Y74.526 E3.68083 ; perimeter
G1 X65.894 Y75.947 E3.76441 ; perimeter
G1 X66.831 Y77.169 E3.84807 ; perimeter
G1 X67.792 Y77.906 E3.91387 ; perimeter
G1 X58.843 Y93.405 E4.88631 ; perimeter
G1 X57.806 Y92.747 E4.95307 ; perimeter
G1 X56.852 Y92.076 E5.01643 ; perimeter
G1 X55.932 Y91.358 E5.07982 ; perimeter
G1 X55.051 Y90.598 E5.14305 ; perimeter
G1 X54.206 Y89.794 E5.20643 ; perimeter
G1 X53.402 Y88.949 E5.26982 ; perimeter
G1 X52.642 Y88.068 E5.33305 ; perimeter
G1 X51.924 Y87.148 E5.39643 ; perimeter
G1 X51.253 Y86.194 E5.45980 ; perimeter
G1 X50.629 Y85.210 E5.52314 ; perimeter
G1 X50.054 Y84.195 E5.58649 ; perimeter
G1 X49.531 Y83.154 E5.64979 ; perimeter
G1 X49.058 Y82.089 E5.71311 ; perimeter
G1 X48.638 Y81.001 E5.77646 ; perimeter
G1 X48.272 Y79.893 E5.83985 ; perimeter
G1 X47.962 Y78.772 E5.90307 ; perimeter
G1 X47.706 Y77.634 E5.96645 ; perimeter
G1 X47.508 Y76.486 E6.02976 ; perimeter
G1 X47.364 Y75.327 E6.09316 ; perimeter
G1 X47.279 Y74.165 E6.15648 ; perimeter
G1 X47.259 Y73.324 E6.20218 ; perimeter
G1 X65.088 Y73.324 E7.17092 ; perimeter
G1 X65.546 Y73.283 F5400.000 ; move inwards before travel
G1 E3.57092 F3000.00000 ; retract
G92 E0 ; reset extrusion distance
G1 X47.015 Y74.667 F5400.000 ; move to first perimeter point
G1 E3.61500 F3000.00000 ; unretract
G1 F1080
G1 X46.979 Y74.181 E3.64151 ; perimeter
G1 X46.951 Y73.001 E3.70564 ; perimeter
G1 X46.979 Y71.819 E3.76986 ; perimeter
G1 X47.066 Y70.644 E3.83392 ; perimeter
G1 X47.210 Y69.472 E3.89807 ; perimeter
G1 X47.412 Y68.308 E3.96225 ; perimeter
G1 X47.672 Y67.156 E4.02640 ; perimeter
G1 X47.986 Y66.020 E4.09047 ; perimeter
G1 X48.357 Y64.897 E4.15468 ; perimeter
G1 X48.780 Y63.797 E4.21875 ; perimeter
G1 X49.259 Y62.718 E4.28288 ; perimeter
G1 X49.790 Y61.663 E4.34704 ; perimeter
G1 X50.372 Y60.636 E4.41119 ; perimeter
G1 X51.003 Y59.638 E4.47533 ; perimeter
G1 X51.684 Y58.674 E4.53946 ; perimeter
G1 X52.408 Y57.744 E4.60354 ; perimeter
G1 X53.180 Y56.849 E4.66774 ; perimeter
G1 X53.994 Y55.994 E4.73186 ; perimeter
G1 X54.849 Y55.180 E4.79599 ; perimeter
G1 X55.744 Y54.408 E4.86019 ; perimeter
G1 X56.674 Y53.684 E4.92427 ; perimeter
G1 X57.638 Y53.003 E4.98840 ; perimeter
G1 X58.636 Y52.372 E5.05253 ; perimeter
G1 X59.663 Y51.790 E5.11668 ; perimeter
G1 X60.718 Y51.259 E5.18085 ; perimeter
G1 X61.797 Y50.780 E5.24498 ; perimeter
G1 X62.897 Y50.357 E5.30904 ; perimeter
G1 X64.020 Y49.986 E5.37326 ; perimeter
G1 X65.156 Y49.672 E5.43732 ; perimeter
G1 X66.308 Y49.412 E5.50148 ; perimeter
G1 X67.472 Y49.210 E5.56566 ; perimeter
G1 X68.644 Y49.066 E5.62981 ; perimeter
G1 X69.819 Y48.979 E5.69386 ; perimeter
G1 X71.005 Y48.951 E5.75833 ; perimeter
G1 X72.181 Y48.979 E5.82221 ; perimeter
G1 X73.356 Y49.066 E5.88626 ; perimeter
G1 X74.528 Y49.210 E5.95042 ; perimeter
G1 X75.692 Y49.412 E6.01460 ; perimeter
G1 X76.844 Y49.672 E6.07875 ; perimeter
G1 X77.980 Y49.986 E6.14282 ; perimeter
G1 X79.103 Y50.357 E6.20703 ; perimeter
G1 X80.203 Y50.780 E6.27110 ; perimeter
G1 X81.282 Y51.259 E6.33523 ; perimeter
G1 X82.337 Y51.790 E6.39939 ; perimeter
G1 X83.364 Y52.372 E6.46354 ; perimeter
G1 X84.362 Y53.003 E6.52768 ; perimeter
G1 X85.326 Y53.684 E6.59181 ; perimeter
G1 X86.256 Y54.408 E6.65589 ; perimeter
G1 X87.151 Y55.180 E6.72009 ; perimeter
G1 X88.006 Y55.994 E6.78421 ; perimeter
G1 X88.820 Y56.849 E6.84834 ; perimeter
G1 X89.592 Y57.744 E6.91254 ; perimeter
G1 X90.316 Y58.674 E6.97661 ; perimeter
G1 X90.997 Y59.638 E7.04074 ; perimeter
G1 X91.628 Y60.636 E7.10488 ; perimeter
G1 X92.210 Y61.663 E7.16903 ; perimeter
G1 X92.741 Y62.718 E7.23320 ; perimeter
G1 X93.220 Y63.797 E7.29733 ; perimeter
G1 X93.643 Y64.897 E7.36139 ; perimeter
G1 X94.014 Y66.020 E7.42561 ; perimeter
G1 X94.328 Y67.156 E7.48967 ; perimeter
G1 X94.588 Y68.308 E7.55383 ; perimeter
G1 X94.790 Y69.472 E7.61801 ; perimeter
G1 X94.934 Y70.644 E7.68216 ; perimeter
G1 X95.021 Y71.819 E7.74621 ; perimeter
G1 X95.049 Y73.001 E7.81044 ; perimeter
G1 X95.021 Y74.181 E7.87456 ; perimeter
G1 X94.934 Y75.356 E7.93861 ; perimeter
G1 X94.790 Y76.528 E8.00277 ; perimeter
G1 X94.588 Y77.692 E8.06695 ; perimeter
G1 X94.328 Y78.844 E8.13110 ; perimeter
G1 X94.014 Y79.980 E8.19517 ; perimeter
G1 X93.643 Y81.103 E8.25938 ; perimeter
G1 X93.220 Y82.203 E8.32345 ; perimeter
G1 X92.741 Y83.282 E8.38758 ; perimeter
G1 X92.210 Y84.337 E8.45174 ; perimeter
G1 X91.628 Y85.364 E8.51589 ; perimeter
G1 X90.997 Y86.362 E8.58003 ; perimeter
G1 X90.316 Y87.326 E8.64416 ; perimeter
G1 X89.592 Y88.256 E8.70824 ; perimeter
G1 X88.820 Y89.151 E8.77244 ; perimeter
G1 X88.006 Y90.006 E8.83656 ; perimeter
G1 X87.151 Y90.820 E8.90069 ; perimeter
G1 X86.256 Y91.592 E8.96489 ; perimeter
G1 X85.326 Y92.316 E9.02896 ; perimeter
G1 X84.362 Y92.997 E9.09309 ; perimeter
G1 X83.364 Y93.628 E9.15723 ; perimeter
G1 X82.337 Y94.210 E9.22138 ; perimeter
G1 X81.282 Y94.741 E9.28555 ; perimeter
G1 X80.203 Y95.220 E9.34968 ; perimeter
G1 X79.103 Y95.643 E9.41374 ; perimeter
