; generated by Slic3r 1.34.1-prusa3d-win64 on 2019-01-20 at 13:49:48

; Buse diamètre 0,4mm
; Ratio : 200%
; Debit : 3,2mm3/s = 40mm/s
; DMax : 4,8mm3/s = 60mm/s

; external perimeters extrusion width = 0.32mm
; perimeters extrusion width = 0.40mm
; infill extrusion width = 0.40mm
; solid infill extrusion width = 0.40mm
; top infill extrusion width = 0.32mm
; support material extrusion width = 0.40mm

M107 ; disable fan
M190 S70 ; attente chauffe plateau
M104 S210 ; préchauffe tête
G92 Z0 ; définir hauteur actuelle comme 0
G0 Z10 F1500
G28 YX ; prise d'origine en Y puis X
G1 X130 Y10 F3000 ; parking
M109 S210 ; attente chauffe T0
G0 Z0.30 F1500 ; distance 0.3mm du plateau
G92 E0 ; remise à zéro axe E
G1 E15 F150 ; pousser 15mm de filament
G1 X100 Z0 F1500 ; essuyage sur plateau et on démarre (=rétraction, hauteur, début)
G21 ; set units to millimeters
G90 ; use absolute coordinates
M82 ; use absolute distances for extrusion
G92 E0 ; reset extrusion distance
G1 E-3.60000 F3000.00000 ; retract
G92 E0 ; reset extrusion distance
G1 Z0.430 F5400.000 ; move to next layer (0)
G1 X61.795 Y77.129 F5400.000 ; move to first support material point
G1 E3.61500 F3000.00000 ; unretract
G1 F1200
G1 X61.795 Y69.509 E4.09393 ; support material
G1 X61.891 Y69.224 E4.11279 ; support material
G1 X62.460 Y68.072 E4.19356 ; support material
G1 X62.875 Y67.451 E4.24051 ; support material
G1 X62.875 Y78.552 E4.93826 ; support material
G1 X63.189 Y79.023 E4.97387 ; support material
G1 X63.954 Y79.896 E5.04681 ; support material
G1 X63.954 Y66.109 E5.91334 ; support material
G1 X64.044 Y66.007 E5.92186 ; support material
G1 X65.034 Y65.151 E6.00415 ; support material
G1 X65.034 Y80.847 E6.99069 ; support material
G1 X66.114 Y81.561 E7.07206 ; support material
G1 X66.114 Y64.439 E8.14820 ; support material
G1 X67.194 Y63.907 E8.22387 ; support material
G1 X67.194 Y81.728 E9.34396 ; support material
G1 X67.839 Y81.728 E9.38453 ; support material
G1 X67.839 Y82.317 E9.42159 ; support material
G1 X68.274 Y82.465 E9.45041 ; support material
G1 X68.274 Y63.535 E10.64020 ; support material
G1 X68.446 Y63.476 E10.65162 ; support material
G1 X69.354 Y63.296 E10.70979 ; support material
G1 X69.354 Y82.706 E11.92975 ; support material
G1 X69.736 Y82.782 E11.95427 ; support material
G1 X70.433 Y82.828 E11.99819 ; support material
G1 X70.433 Y63.175 E13.23337 ; support material
G1 X71.026 Y63.137 E13.27069 ; support material
G1 X71.513 Y63.169 E13.30139 ; support material
G1 X71.513 Y82.828 E14.53701 ; support material
G1 X72.275 Y82.778 E14.58498 ; support material
G1 X72.593 Y82.715 E14.60537 ; support material
G1 X72.593 Y63.283 E15.82667 ; support material
G1 X73.540 Y63.472 E15.88737 ; support material
G1 X73.673 Y63.517 E15.89617 ; support material
G1 X73.673 Y82.483 E17.08824 ; support material
G1 X74.753 Y82.117 E17.15991 ; support material
G1 X74.753 Y63.884 E18.30589 ; support material
G1 X75.833 Y64.413 E18.38147 ; support material
G1 X75.833 Y81.587 E19.46091 ; support material
G1 X75.941 Y81.534 E19.46852 ; support material
G1 X76.912 Y80.885 E19.54193 ; support material
G1 X76.912 Y65.117 E20.53294 ; support material
G1 X77.013 Y65.184 E20.54053 ; support material
G1 X77.992 Y66.043 E20.62241 ; support material
G1 X77.992 Y79.952 E21.49657 ; support material
G1 X78.816 Y79.013 E21.57507 ; support material
G1 X79.072 Y78.629 E21.60407 ; support material
G1 X79.072 Y67.368 E22.31185 ; support material
G1 X79.534 Y68.059 E22.36409 ; support material
G1 X79.728 Y68.453 E22.39171 ; support material
G1 X79.728 Y69.839 E22.47885 ; support material
G1 X80.152 Y69.839 E22.50549 ; support material
G1 X80.152 Y77.237 E22.97046 ; support material
G1 E19.37046 F3000.00000 ; retract
G92 E0 ; reset extrusion distance
G1 Z0.430 F5400.000 ; move to next layer (1)
G1 X81.655 Y77.413 F5400.000 ; move to first perimeter point
G1 E3.61500 F3000.00000 ; unretract
G1 F1080
G1 X80.974 Y78.788 E3.74702 ; perimeter
G1 X80.141 Y80.035 E3.87598 ; perimeter
G1 X79.158 Y81.158 E4.00440 ; perimeter
G1 X78.036 Y82.142 E4.13282 ; perimeter
G1 X76.801 Y82.966 E4.26057 ; perimeter
G1 X75.413 Y83.655 E4.39381 ; perimeter
G1 X73.959 Y84.146 E4.52583 ; perimeter
G1 X72.489 Y84.438 E4.65479 ; perimeter
G1 X71.000 Y84.537 E4.78321 ; perimeter
G1 X69.511 Y84.440 E4.91163 ; perimeter
G1 X68.054 Y84.149 E5.03938 ; perimeter
G1 X66.587 Y83.655 E5.17262 ; perimeter
G1 X65.212 Y82.974 E5.30464 ; perimeter
G1 X63.965 Y82.141 E5.43360 ; perimeter
G1 X62.842 Y81.158 E5.56202 ; perimeter
G1 X61.858 Y80.036 E5.69044 ; perimeter
G1 X61.034 Y78.801 E5.81819 ; perimeter
G1 X60.345 Y77.413 E5.95143 ; perimeter
G1 X59.854 Y75.959 E6.08345 ; perimeter
G1 X59.562 Y74.489 E6.21241 ; perimeter
G1 X59.463 Y73.000 E6.34083 ; perimeter
G1 X59.560 Y71.511 E6.46925 ; perimeter
G1 X59.851 Y70.054 E6.59700 ; perimeter
G1 X60.345 Y68.587 E6.73024 ; perimeter
G1 X61.026 Y67.212 E6.86225 ; perimeter
G1 X61.859 Y65.965 E6.99122 ; perimeter
G1 X62.842 Y64.842 E7.11964 ; perimeter
G1 X63.964 Y63.858 E7.24806 ; perimeter
G1 X65.199 Y63.034 E7.37580 ; perimeter
G1 X66.587 Y62.345 E7.50905 ; perimeter
G1 X68.031 Y61.856 E7.64023 ; perimeter
G1 X69.469 Y61.569 E7.76638 ; perimeter
G1 X71.000 Y61.465 E7.89842 ; perimeter
G1 X72.518 Y61.565 E8.02927 ; perimeter
G1 X73.969 Y61.856 E8.15663 ; perimeter
G1 X75.413 Y62.345 E8.28782 ; perimeter
G1 X76.788 Y63.026 E8.41984 ; perimeter
G1 X78.035 Y63.859 E8.54880 ; perimeter
G1 X79.158 Y64.842 E8.67722 ; perimeter
G1 X80.142 Y65.964 E8.80564 ; perimeter
G1 X80.966 Y67.199 E8.93339 ; perimeter
G1 X81.655 Y68.587 E9.06663 ; perimeter
G1 X82.146 Y70.041 E9.19865 ; perimeter
G1 X82.438 Y71.511 E9.32761 ; perimeter
G1 X82.537 Y73.000 E9.45603 ; perimeter
G1 X82.435 Y74.518 E9.58689 ; perimeter
G1 X82.144 Y75.969 E9.71425 ; perimeter
G1 X81.674 Y77.357 E9.84027 ; perimeter
G1 X81.898 Y77.731 F5400.000 ; move inwards before travel
M104 S215 ; set temperature
M140 S65 ; set bed temperature
G1 E6.24027 F3000.00000 ; retract
G92 E0 ; reset extrusion distance
G1 Z0.630 F5400.000 ; move to next layer (2)
G1 X82.098 Y74.421 F5400.000 ; move to first perimeter point
G1 E3.61500 F3000.00000 ; unretract
G1 F1939.03
G1 X81.809 Y75.855 E3.64870 ; perimeter
G1 X81.328 Y77.278 E3.68330 ; perimeter
G1 X80.680 Y78.589 E3.71701 ; perimeter
G1 X79.871 Y79.808 E3.75070 ; perimeter
G1 X78.914 Y80.913 E3.78439 ; perimeter
G1 X77.843 Y81.853 E3.81721 ; perimeter
G1 X76.624 Y82.662 E3.85091 ; perimeter
G1 X75.278 Y83.328 E3.88551 ; perimeter
G1 X73.892 Y83.797 E3.91922 ; perimeter
G1 X72.459 Y84.087 E3.95291 ; perimeter
G1 X71.001 Y84.191 E3.98660 ; perimeter
G1 X69.579 Y84.098 E4.01943 ; perimeter
G1 X68.145 Y83.809 E4.05313 ; perimeter
G1 X66.722 Y83.328 E4.08773 ; perimeter
G1 X65.411 Y82.680 E4.12143 ; perimeter
G1 X64.192 Y81.871 E4.15512 ; perimeter
G1 X63.087 Y80.914 E4.18881 ; perimeter
G1 X62.147 Y79.843 E4.22164 ; perimeter
G1 X61.338 Y78.624 E4.25534 ; perimeter
G1 X60.672 Y77.278 E4.28994 ; perimeter
G1 X60.203 Y75.892 E4.32365 ; perimeter
G1 X59.913 Y74.459 E4.35734 ; perimeter
G1 X59.809 Y73.001 E4.39103 ; perimeter
G1 X59.902 Y71.579 E4.42385 ; perimeter
G1 X60.191 Y70.145 E4.45756 ; perimeter
G1 X60.672 Y68.722 E4.49216 ; perimeter
G1 X61.320 Y67.411 E4.52586 ; perimeter
G1 X62.129 Y66.192 E4.55955 ; perimeter
G1 X63.086 Y65.087 E4.59324 ; perimeter
G1 X64.157 Y64.147 E4.62607 ; perimeter
G1 X65.376 Y63.338 E4.65977 ; perimeter
G1 X66.722 Y62.672 E4.69437 ; perimeter
G1 X68.108 Y62.203 E4.72807 ; perimeter
G1 X69.541 Y61.913 E4.76177 ; perimeter
G1 X70.976 Y61.816 E4.79489 ; perimeter
G1 X72.421 Y61.902 E4.82825 ; perimeter
G1 X73.855 Y62.191 E4.86196 ; perimeter
G1 X75.278 Y62.672 E4.89656 ; perimeter
G1 X76.589 Y63.320 E4.93027 ; perimeter
G1 X77.808 Y64.129 E4.96396 ; perimeter
G1 X78.913 Y65.086 E4.99764 ; perimeter
G1 X79.853 Y66.157 E5.03047 ; perimeter
G1 X80.662 Y67.376 E5.06417 ; perimeter
G1 X81.328 Y68.722 E5.09877 ; perimeter
G1 X81.797 Y70.108 E5.13248 ; perimeter
G1 X82.087 Y71.541 E5.16617 ; perimeter
G1 X82.191 Y72.999 E5.19986 ; perimeter
G1 X82.102 Y74.361 E5.23130 ; perimeter
G1 X82.415 Y74.665 F5400.000 ; move inwards before travel
G1 X82.566 Y74.516 F5400.000 ; move to first perimeter point
G1 F1939.03
G1 X82.272 Y75.975 E5.26559 ; perimeter
G1 X81.770 Y77.461 E5.30174 ; perimeter
G1 X81.074 Y78.867 E5.33789 ; perimeter
G1 X80.230 Y80.138 E5.37304 ; perimeter
G1 X79.252 Y81.252 E5.40719 ; perimeter
G1 X78.138 Y82.230 E5.44134 ; perimeter
G1 X76.867 Y83.074 E5.47649 ; perimeter
G1 X75.461 Y83.770 E5.51264 ; perimeter
G1 X73.975 Y84.272 E5.54879 ; perimeter
G1 X72.479 Y84.574 E5.58394 ; perimeter
G1 X71.000 Y84.671 E5.61809 ; perimeter
G1 X69.521 Y84.574 E5.65224 ; perimeter
G1 X68.025 Y84.272 E5.68739 ; perimeter
G1 X66.539 Y83.770 E5.72354 ; perimeter
G1 X65.133 Y83.074 E5.75969 ; perimeter
G1 X63.862 Y82.230 E5.79484 ; perimeter
G1 X62.748 Y81.252 E5.82899 ; perimeter
G1 X61.770 Y80.138 E5.86314 ; perimeter
G1 X60.926 Y78.867 E5.89829 ; perimeter
G1 X60.230 Y77.461 E5.93444 ; perimeter
G1 X59.728 Y75.975 E5.97059 ; perimeter
G1 X59.426 Y74.479 E6.00574 ; perimeter
G1 X59.329 Y73.000 E6.03989 ; perimeter
G1 X59.426 Y71.521 E6.07403 ; perimeter
G1 X59.728 Y70.025 E6.10918 ; perimeter
G1 X60.230 Y68.539 E6.14533 ; perimeter
G1 X60.926 Y67.133 E6.18148 ; perimeter
G1 X61.770 Y65.862 E6.21663 ; perimeter
G1 X62.748 Y64.748 E6.25078 ; perimeter
G1 X63.862 Y63.770 E6.28493 ; perimeter
G1 X65.133 Y62.926 E6.32008 ; perimeter
G1 X66.539 Y62.230 E6.35623 ; perimeter
G1 X68.025 Y61.728 E6.39238 ; perimeter
G1 X69.521 Y61.426 E6.42753 ; perimeter
G1 X71.000 Y61.329 E6.46168 ; perimeter
G1 X72.479 Y61.426 E6.49583 ; perimeter
G1 X73.975 Y61.728 E6.53098 ; perimeter
G1 X75.461 Y62.230 E6.56713 ; perimeter
G1 X76.867 Y62.926 E6.60328 ; perimeter
G1 X78.138 Y63.770 E6.63843 ; perimeter
G1 X79.252 Y64.748 E6.67258 ; perimeter
G1 X80.230 Y65.862 E6.70673 ; perimeter
G1 X81.074 Y67.133 E6.74188 ; perimeter
G1 X81.770 Y68.539 E6.77803 ; perimeter
G1 X82.272 Y70.025 E6.81418 ; perimeter
G1 X82.574 Y71.521 E6.84933 ; perimeter
G1 X82.671 Y73.000 E6.88348 ; perimeter
G1 X82.575 Y74.457 E6.91711 ; perimeter
G1 X82.196 Y74.668 F5400.000 ; move inwards before travel
G1 X82.334 Y74.458 F5400.000 ; move to first infill point
G1 F1077.24
G1 X82.041 Y75.913 E6.93172 ; infill
G1 X81.551 Y77.364 E6.94680 ; infill
G1 X80.884 Y78.713 E6.96161 ; infill
G1 X80.036 Y79.990 E6.97670 ; infill
G1 X79.083 Y81.083 E6.99098 ; infill
G1 X77.992 Y82.039 E7.00526 ; infill
G1 X76.748 Y82.867 E7.01998 ; infill
G1 X75.374 Y83.547 E7.03506 ; infill
G1 X73.949 Y84.029 E7.04987 ; infill
G1 X72.447 Y84.332 E7.06497 ; infill
G1 X71.000 Y84.431 E7.07924 ; infill
G1 X69.553 Y84.336 E7.09352 ; infill
G1 X68.087 Y84.041 E7.10824 ; infill
G1 X66.636 Y83.551 E7.12332 ; infill
G1 X65.287 Y82.884 E7.13814 ; infill
G1 X64.010 Y82.036 E7.15323 ; infill
G1 X62.917 Y81.083 E7.16750 ; infill
G1 X61.961 Y79.992 E7.18179 ; infill
G1 X61.133 Y78.748 E7.19650 ; infill
G1 X60.453 Y77.374 E7.21159 ; infill
G1 X59.971 Y75.949 E7.22640 ; infill
G1 X59.668 Y74.447 E7.24149 ; infill
G1 X59.569 Y73.000 E7.25577 ; infill
G1 X59.664 Y71.553 E7.27005 ; infill
G1 X59.959 Y70.087 E7.28476 ; infill
G1 X60.449 Y68.636 E7.29985 ; infill
G1 X61.116 Y67.287 E7.31466 ; infill
G1 X61.964 Y66.010 E7.32975 ; infill
G1 X62.917 Y64.917 E7.34403 ; infill
G1 X64.008 Y63.961 E7.35831 ; infill
G1 X65.252 Y63.133 E7.37302 ; infill
G1 X66.626 Y62.453 E7.38811 ; infill
G1 X68.051 Y61.971 E7.40292 ; infill
G1 X69.553 Y61.668 E7.41801 ; infill
G1 X71.000 Y61.573 E7.43229 ; infill
G1 X72.447 Y61.664 E7.44656 ; infill
G1 X73.913 Y61.959 E7.46128 ; infill
G1 X75.364 Y62.449 E7.47637 ; infill
G1 X76.713 Y63.116 E7.49118 ; infill
G1 X77.990 Y63.964 E7.50627 ; infill
G1 X79.083 Y64.917 E7.52055 ; infill
G1 X80.039 Y66.008 E7.53483 ; infill
G1 X80.867 Y67.252 E7.54954 ; infill
G1 X81.547 Y68.626 E7.56463 ; infill
G1 X82.029 Y70.051 E7.57944 ; infill
G1 X82.332 Y71.553 E7.59453 ; infill
G1 X82.431 Y73.000 E7.60881 ; infill
G1 X82.339 Y74.398 E7.62260 ; infill
G1 E4.02260 F3000.00000 ; retract
G92 E0 ; reset extrusion distance
G1 Z0.726 F5400.000 ; move to next layer (3)
G1 X76.903 Y65.177 F5400.000 ; move to first support material point
G1 E3.61500 F3000.00000 ; unretract
G1 F2154.48
G1 X65.534 Y65.177 E4.08578 ; support material
G1 X65.534 Y67.534 E4.18338 ; support material
G1 X63.177 Y67.534 E4.28098 ; support material
G1 X77.319 Y67.534 E4.86659 ; support material
G1 X77.319 Y69.891 E4.96419 ; support material
G1 X63.177 Y69.891 E5.54980 ; support material
G1 X63.177 Y72.248 E5.64740 ; support material
G1 X79.676 Y72.248 E6.33062 ; support material
G1 X79.676 Y74.605 E6.42822 ; support material
G1 X63.177 Y74.605 E7.11143 ; support material
G1 X63.177 Y76.962 E7.20903 ; support material
G1 X77.319 Y76.962 E7.79464 ; support material
G1 X77.319 Y79.319 E7.89224 ; support material
G1 X63.705 Y79.319 E8.45600 ; support material
G1 X70.248 Y79.319 E8.72695 ; support material
G1 X70.248 Y81.676 E8.82455 ; support material
G1 X72.766 Y81.676 E8.92880 ; support material
G1 E5.32880 F3000.00000 ; retract
G92 E0 ; reset extrusion distance
G1 Z0.830 F5400.000 ; move to next layer (4)
G1 X82.012 Y74.389 F5400.000 ; move to first perimeter point
G1 E3.61500 F3000.00000 ; unretract
G1 F1922.78
G1 X81.722 Y75.810 E3.64842 ; perimeter
G1 X81.239 Y77.241 E3.68321 ; perimeter
G1 X80.596 Y78.542 E3.71664 ; perimeter
G1 X79.796 Y79.751 E3.75006 ; perimeter
G1 X78.898 Y80.776 E3.78144 ; perimeter
G1 X78.865 Y80.838 E3.78306 ; perimeter
G1 X77.804 Y81.768 E3.81558 ; perimeter
G1 X76.594 Y82.569 E3.84899 ; perimeter
G1 X75.241 Y83.239 E3.88379 ; perimeter
G1 X73.867 Y83.704 E3.91721 ; perimeter
G1 X72.446 Y83.994 E3.95063 ; perimeter
G1 X71.086 Y84.083 E3.98202 ; perimeter
G1 X71.019 Y84.104 E3.98363 ; perimeter
G1 X69.611 Y84.012 E4.01615 ; perimeter
G1 X68.190 Y83.722 E4.04957 ; perimeter
G1 X66.759 Y83.239 E4.08436 ; perimeter
G1 X65.458 Y82.596 E4.11779 ; perimeter
G1 X64.249 Y81.796 E4.15121 ; perimeter
G1 X63.224 Y80.898 E4.18259 ; perimeter
G1 X63.162 Y80.865 E4.18421 ; perimeter
G1 X62.232 Y79.804 E4.21673 ; perimeter
G1 X61.431 Y78.595 E4.25015 ; perimeter
G1 X60.761 Y77.241 E4.28494 ; perimeter
G1 X60.296 Y75.867 E4.31836 ; perimeter
G1 X60.006 Y74.446 E4.35178 ; perimeter
G1 X59.917 Y73.086 E4.38317 ; perimeter
G1 X59.896 Y73.019 E4.38479 ; perimeter
G1 X59.988 Y71.611 E4.41730 ; perimeter
G1 X60.278 Y70.190 E4.45072 ; perimeter
G1 X60.761 Y68.759 E4.48551 ; perimeter
G1 X61.404 Y67.458 E4.51894 ; perimeter
G1 X62.204 Y66.249 E4.55236 ; perimeter
G1 X63.102 Y65.224 E4.58375 ; perimeter
G1 X63.135 Y65.162 E4.58536 ; perimeter
G1 X64.196 Y64.232 E4.61788 ; perimeter
G1 X65.406 Y63.431 E4.65130 ; perimeter
G1 X66.759 Y62.761 E4.68609 ; perimeter
G1 X68.133 Y62.296 E4.71951 ; perimeter
G1 X69.554 Y62.006 E4.75293 ; perimeter
G1 X70.981 Y61.896 E4.78589 ; perimeter
G1 X72.389 Y61.988 E4.81841 ; perimeter
G1 X73.810 Y62.278 E4.85183 ; perimeter
G1 X75.241 Y62.761 E4.88662 ; perimeter
G1 X76.542 Y63.404 E4.92005 ; perimeter
G1 X77.751 Y64.204 E4.95347 ; perimeter
G1 X78.776 Y65.102 E4.98485 ; perimeter
G1 X78.838 Y65.135 E4.98647 ; perimeter
G1 X79.768 Y66.196 E5.01899 ; perimeter
G1 X80.569 Y67.406 E5.05241 ; perimeter
G1 X81.239 Y68.759 E5.08720 ; perimeter
G1 X81.704 Y70.133 E5.12062 ; perimeter
G1 X81.994 Y71.554 E5.15404 ; perimeter
G1 X82.083 Y72.914 E5.18543 ; perimeter
G1 X82.104 Y72.981 E5.18704 ; perimeter
G1 X82.015 Y74.329 E5.21818 ; perimeter
G1 X82.324 Y74.638 F5400.000 ; move inwards before travel
G1 X82.479 Y74.484 F5400.000 ; move to first perimeter point
G1 F1922.78
G1 X82.186 Y75.927 E5.25211 ; perimeter
G1 X81.682 Y77.425 E5.28851 ; perimeter
G1 X80.979 Y78.840 E5.32491 ; perimeter
G1 X80.144 Y80.102 E5.35978 ; perimeter
G1 X79.190 Y81.190 E5.39312 ; perimeter
G1 X78.102 Y82.144 E5.42646 ; perimeter
G1 X76.840 Y82.979 E5.46133 ; perimeter
G1 X75.425 Y83.682 E5.49773 ; perimeter
G1 X73.927 Y84.186 E5.53413 ; perimeter
