; generated by Slic3r 1.34.1-prusa3d-win64 on 2018-10-03 at 18:09:54

; Buse diamètre 0,5mm
; Ratio : 200%
; Debit : 5mm3/s
; DMax : 7,5mm3/s = 60mm/s

; external perimeters extrusion width = 0.50mm
; perimeters extrusion width = 0.50mm
; infill extrusion width = 0.50mm
; solid infill extrusion width = 0.50mm
; top infill extrusion width = 0.40mm

M107 ; disable fan
M190 S70 ; attente chauffe plateau
M104 S210 ; préchauffe tête
G92 Z0 ; définir hauteur actuelle comme 0
G0 Z10 F1500
G28 YX ; prise d'origine en Y puis X
G1 X130 Y10 F3000 ; parking
M109 S210 ; attente chauffe T0
G0 Z0.30 F1500 ; distance 0.3mm du plateau
G92 E0 ; remise à zéro axe E
G1 E15 F150 ; pousser 15mm de filament
G1 X100 Z0 F1500 ; essuyage sur plateau et on démarre (=rétraction, hauteur, début)
G21 ; set units to millimeters
G90 ; use absolute coordinates
M82 ; use absolute distances for extrusion
G92 E0 ; reset extrusion distance
G1 E-3.60000 F3000.00000 ; retract
G92 E0 ; reset extrusion distance
G1 Z0.300 F5400.000 ; move to next layer (0)
G1 X71.149 Y79.139 F5400.000 ; move to first perimeter point
G1 E3.62000 F3000.00000 ; unretract
G1 F600
G1 X71.802 Y79.096 E3.64697 ; perimeter
G1 X72.591 Y78.939 E3.68011 ; perimeter
G1 X73.352 Y78.680 E3.71323 ; perimeter
G1 X74.074 Y78.325 E3.74637 ; perimeter
G1 X74.743 Y77.878 E3.77951 ; perimeter
G1 X75.235 Y77.446 E3.80647 ; perimeter
G1 X79.611 Y81.821 E4.06138 ; perimeter
G1 X78.848 Y82.536 E4.10444 ; perimeter
G1 X77.536 Y83.479 E4.17100 ; perimeter
G1 X76.112 Y84.242 E4.23755 ; perimeter
G1 X74.602 Y84.815 E4.30410 ; perimeter
G1 X73.030 Y85.182 E4.37061 ; perimeter
G1 X71.149 Y85.382 E4.44852 ; perimeter
G1 X71.149 Y79.214 E4.70261 ; perimeter
G1 X71.077 Y78.644 F5400.000 ; move inwards before travel
G1 E1.10261 F3000.00000 ; retract
G92 E0 ; reset extrusion distance
G1 X73.985 Y74.276 F5400.000 ; move to first perimeter point
G1 E3.62000 F3000.00000 ; unretract
G1 F600
G1 X76.593 Y74.276 E3.72742 ; perimeter
G1 X76.290 Y75.190 E3.76711 ; perimeter
G1 X75.958 Y75.864 E3.79802 ; perimeter
G1 X75.542 Y76.486 E3.82888 ; perimeter
G1 X75.048 Y77.048 E3.85969 ; perimeter
G1 X74.486 Y77.542 E3.89051 ; perimeter
G1 X73.862 Y77.958 E3.92143 ; perimeter
G1 X73.191 Y78.289 E3.95222 ; perimeter
G1 X72.481 Y78.531 E3.98312 ; perimeter
G1 X71.747 Y78.677 E4.01398 ; perimeter
G1 X70.999 Y78.727 E4.04485 ; perimeter
G1 X70.253 Y78.677 E4.07563 ; perimeter
G1 X69.519 Y78.531 E4.10649 ; perimeter
G1 X68.809 Y78.289 E4.13738 ; perimeter
G1 X68.136 Y77.958 E4.16826 ; perimeter
G1 X67.514 Y77.542 E4.19911 ; perimeter
G1 X66.952 Y77.048 E4.22992 ; perimeter
G1 X66.458 Y76.486 E4.26074 ; perimeter
G1 X66.042 Y75.864 E4.29159 ; perimeter
G1 X65.710 Y75.190 E4.32251 ; perimeter
G1 X65.407 Y74.276 E4.36219 ; perimeter
G1 X68.015 Y74.276 E4.46961 ; perimeter
G1 X68.168 Y74.644 E4.48605 ; perimeter
G1 X68.402 Y74.994 E4.50336 ; perimeter
G1 X68.684 Y75.316 E4.52101 ; perimeter
G1 X69.006 Y75.598 E4.53865 ; perimeter
G1 X69.362 Y75.836 E4.55625 ; perimeter
G1 X69.747 Y76.025 E4.57394 ; perimeter
G1 X70.154 Y76.163 E4.59164 ; perimeter
G1 X70.573 Y76.247 E4.60924 ; perimeter
G1 X70.999 Y76.276 E4.62685 ; perimeter
G1 X71.427 Y76.247 E4.64453 ; perimeter
G1 X71.846 Y76.163 E4.66213 ; perimeter
G1 X72.253 Y76.025 E4.67982 ; perimeter
G1 X72.637 Y75.836 E4.69745 ; perimeter
G1 X72.994 Y75.598 E4.71513 ; perimeter
G1 X73.316 Y75.316 E4.73276 ; perimeter
G1 X73.598 Y74.994 E4.75041 ; perimeter
G1 X73.832 Y74.644 E4.76772 ; perimeter
G1 X73.956 Y74.345 E4.78106 ; perimeter
G1 X74.067 Y73.783 F5400.000 ; move inwards before travel
G1 E1.18106 F3000.00000 ; retract
G92 E0 ; reset extrusion distance
G1 X77.138 Y73.150 F5400.000 ; move to first perimeter point
G1 E3.62000 F3000.00000 ; unretract
G1 F600
G1 X83.328 Y73.150 E3.87498 ; perimeter
G1 X83.292 Y74.193 E3.91797 ; perimeter
G1 X83.033 Y75.788 E3.98454 ; perimeter
G1 X82.565 Y77.334 E4.05109 ; perimeter
G1 X81.901 Y78.806 E4.11761 ; perimeter
G1 X81.050 Y80.180 E4.18417 ; perimeter
G1 X79.861 Y81.650 E4.26208 ; perimeter
G1 X75.448 Y77.235 E4.51921 ; perimeter
G1 X75.878 Y76.743 E4.54613 ; perimeter
G1 X76.325 Y76.075 E4.57925 ; perimeter
G1 X76.680 Y75.352 E4.61241 ; perimeter
G1 X76.939 Y74.591 E4.64554 ; perimeter
G1 X77.095 Y73.802 E4.67866 ; perimeter
G1 X77.133 Y73.225 E4.70251 ; perimeter
G1 X77.161 Y72.651 F5400.000 ; move inwards before travel
G1 X77.140 Y72.851 F5400.000 ; move to first perimeter point
G1 F600
G1 X77.095 Y72.198 E4.72949 ; perimeter
G1 X76.939 Y71.409 E4.76262 ; perimeter
G1 X76.680 Y70.648 E4.79574 ; perimeter
G1 X76.325 Y69.926 E4.82887 ; perimeter
G1 X75.878 Y69.257 E4.86201 ; perimeter
G1 X75.446 Y68.765 E4.88898 ; perimeter
G1 X79.821 Y64.389 E5.14388 ; perimeter
G1 X80.536 Y65.152 E5.18695 ; perimeter
G1 X81.479 Y66.464 E5.25351 ; perimeter
G1 X82.242 Y67.888 E5.32006 ; perimeter
G1 X82.815 Y69.398 E5.38661 ; perimeter
G1 X83.182 Y70.970 E5.45312 ; perimeter
G1 X83.382 Y72.851 E5.53103 ; perimeter
G1 X77.215 Y72.851 E5.78511 ; perimeter
G1 X76.645 Y72.924 F5400.000 ; move inwards before travel
G1 E2.18511 F3000.00000 ; retract
G92 E0 ; reset extrusion distance
G1 X75.236 Y68.552 F5400.000 ; move to first perimeter point
G1 E3.62000 F3000.00000 ; unretract
G1 F600
G1 X74.743 Y68.123 E3.64689 ; perimeter
G1 X74.074 Y67.675 E3.68007 ; perimeter
G1 X73.352 Y67.320 E3.71320 ; perimeter
G1 X72.591 Y67.061 E3.74632 ; perimeter
G1 X71.803 Y66.905 E3.77944 ; perimeter
G1 X71.148 Y66.862 E3.80646 ; perimeter
G1 X71.148 Y60.672 E4.06144 ; perimeter
G1 X72.193 Y60.708 E4.10452 ; perimeter
G1 X73.788 Y60.967 E4.17108 ; perimeter
G1 X75.334 Y61.435 E4.23763 ; perimeter
G1 X76.806 Y62.099 E4.30415 ; perimeter
G1 X78.180 Y62.950 E4.37072 ; perimeter
G1 X79.650 Y64.139 E4.44863 ; perimeter
G1 X75.289 Y68.499 E4.70266 ; perimeter
G1 X74.937 Y68.953 F5400.000 ; move inwards before travel
G1 E1.10266 F3000.00000 ; retract
G92 E0 ; reset extrusion distance
G1 X76.592 Y71.726 F5400.000 ; move to first perimeter point
G1 E3.62000 F3000.00000 ; unretract
G1 F600
G1 X73.985 Y71.726 E3.72741 ; perimeter
G1 X73.832 Y71.358 E3.74385 ; perimeter
G1 X73.598 Y71.006 E3.76123 ; perimeter
G1 X73.316 Y70.684 E3.77887 ; perimeter
G1 X72.994 Y70.402 E3.79650 ; perimeter
G1 X72.637 Y70.164 E3.81418 ; perimeter
G1 X72.253 Y69.975 E3.83181 ; perimeter
G1 X71.846 Y69.837 E3.84950 ; perimeter
G1 X71.428 Y69.753 E3.86708 ; perimeter
G1 X70.999 Y69.726 E3.88478 ; perimeter
G1 X70.572 Y69.753 E3.90240 ; perimeter
G1 X70.154 Y69.837 E3.91998 ; perimeter
G1 X69.747 Y69.975 E3.93768 ; perimeter
G1 X69.362 Y70.164 E3.95537 ; perimeter
G1 X69.006 Y70.402 E3.97297 ; perimeter
G1 X68.684 Y70.684 E3.99062 ; perimeter
G1 X68.402 Y71.006 E4.00825 ; perimeter
G1 X68.168 Y71.358 E4.02563 ; perimeter
G1 X68.015 Y71.726 E4.04208 ; perimeter
G1 X65.408 Y71.726 E4.14949 ; perimeter
G1 X65.710 Y70.810 E4.18924 ; perimeter
G1 X66.042 Y70.138 E4.22008 ; perimeter
G1 X66.458 Y69.514 E4.25100 ; perimeter
G1 X66.952 Y68.952 E4.28182 ; perimeter
G1 X67.514 Y68.458 E4.31263 ; perimeter
G1 X68.136 Y68.042 E4.34349 ; perimeter
G1 X68.809 Y67.711 E4.37437 ; perimeter
G1 X69.519 Y67.469 E4.40526 ; perimeter
G1 X70.254 Y67.323 E4.43613 ; perimeter
G1 X70.909 Y67.281 E4.46319 ; perimeter
G1 X71.745 Y67.323 E4.49765 ; perimeter
G1 X72.481 Y67.469 E4.52859 ; perimeter
G1 X73.191 Y67.711 E4.55949 ; perimeter
G1 X73.862 Y68.042 E4.59028 ; perimeter
G1 X74.486 Y68.458 E4.62120 ; perimeter
G1 X75.048 Y68.952 E4.65202 ; perimeter
G1 X75.542 Y69.514 E4.68284 ; perimeter
G1 X75.958 Y70.138 E4.71376 ; perimeter
G1 X76.290 Y70.810 E4.74460 ; perimeter
G1 X76.569 Y71.655 E4.78127 ; perimeter
G1 X76.655 Y72.222 F5400.000 ; move inwards before travel
G1 E1.18127 F3000.00000 ; retract
G92 E0 ; reset extrusion distance
G1 X76.592 Y72.276 F5400.000 ; move to first perimeter point
G1 E3.62000 F3000.00000 ; unretract
G1 F600
G1 X76.678 Y72.276 E3.62354 ; perimeter
G1 X76.724 Y73.001 E3.65346 ; perimeter
G1 X76.678 Y73.726 E3.68339 ; perimeter
G1 X73.731 Y73.726 E3.80482 ; perimeter
G1 X73.611 Y74.081 E3.82025 ; perimeter
G1 X73.446 Y74.414 E3.83555 ; perimeter
G1 X73.242 Y74.720 E3.85071 ; perimeter
G1 X72.998 Y74.998 E3.86595 ; perimeter
G1 X72.720 Y75.242 E3.88120 ; perimeter
G1 X72.412 Y75.446 E3.89642 ; perimeter
G1 X72.081 Y75.611 E3.91163 ; perimeter
G1 X71.731 Y75.729 E3.92687 ; perimeter
G1 X71.369 Y75.800 E3.94207 ; perimeter
G1 X70.999 Y75.827 E3.95735 ; perimeter
G1 X70.631 Y75.800 E3.97254 ; perimeter
G1 X70.269 Y75.729 E3.98774 ; perimeter
G1 X69.919 Y75.611 E4.00296 ; perimeter
G1 X69.586 Y75.446 E4.01827 ; perimeter
G1 X69.280 Y75.242 E4.03343 ; perimeter
G1 X69.002 Y74.998 E4.04866 ; perimeter
G1 X68.758 Y74.720 E4.06390 ; perimeter
G1 X68.554 Y74.414 E4.07906 ; perimeter
G1 X68.389 Y74.081 E4.09436 ; perimeter
G1 X68.269 Y73.726 E4.10980 ; perimeter
G1 X65.323 Y73.726 E4.23119 ; perimeter
G1 X65.273 Y73.001 E4.26112 ; perimeter
G1 X65.323 Y72.276 E4.29106 ; perimeter
G1 X68.269 Y72.276 E4.41242 ; perimeter
G1 X68.389 Y71.918 E4.42796 ; perimeter
G1 X68.554 Y71.588 E4.44317 ; perimeter
G1 X68.758 Y71.280 E4.45839 ; perimeter
G1 X69.002 Y71.002 E4.47364 ; perimeter
G1 X69.280 Y70.758 E4.48888 ; perimeter
G1 X69.586 Y70.554 E4.50404 ; perimeter
G1 X69.919 Y70.389 E4.51934 ; perimeter
G1 X70.269 Y70.271 E4.53456 ; perimeter
G1 X70.632 Y70.199 E4.54979 ; perimeter
G1 X70.995 Y70.176 E4.56477 ; perimeter
G1 X71.368 Y70.199 E4.58018 ; perimeter
G1 X71.731 Y70.271 E4.59542 ; perimeter
G1 X72.082 Y70.389 E4.61065 ; perimeter
G1 X72.412 Y70.554 E4.62587 ; perimeter
G1 X72.720 Y70.758 E4.64108 ; perimeter
G1 X72.998 Y71.002 E4.65634 ; perimeter
G1 X73.242 Y71.280 E4.67159 ; perimeter
G1 X73.446 Y71.588 E4.68681 ; perimeter
G1 X73.611 Y71.919 E4.70202 ; perimeter
G1 X73.731 Y72.276 E4.71756 ; perimeter
G1 X76.517 Y72.276 E4.83233 ; perimeter
G1 X76.638 Y72.203 F5400.000 ; move inwards before travel
G1 E1.23233 F3000.00000 ; retract
G92 E0 ; reset extrusion distance
G1 X70.849 Y66.860 F5400.000 ; move to first perimeter point
G1 E3.62000 F3000.00000 ; unretract
G1 F600
G1 X70.198 Y66.905 E3.64689 ; perimeter
G1 X69.409 Y67.061 E3.68003 ; perimeter
G1 X68.648 Y67.320 E3.71315 ; perimeter
G1 X67.925 Y67.675 E3.74631 ; perimeter
G1 X67.257 Y68.123 E3.77945 ; perimeter
G1 X66.765 Y68.553 E3.80639 ; perimeter
G1 X62.389 Y64.179 E4.06128 ; perimeter
G1 X63.152 Y63.464 E4.10434 ; perimeter
G1 X64.464 Y62.521 E4.17090 ; perimeter
G1 X65.888 Y61.758 E4.23745 ; perimeter
G1 X67.398 Y61.186 E4.30399 ; perimeter
G1 X68.970 Y60.818 E4.37050 ; perimeter
G1 X70.849 Y60.618 E4.44834 ; perimeter
G1 X70.849 Y66.785 E4.70241 ; perimeter
G1 X70.922 Y67.355 F5400.000 ; move inwards before travel
G1 E1.10241 F3000.00000 ; retract
G92 E0 ; reset extrusion distance
G1 X66.552 Y68.765 F5400.000 ; move to first perimeter point
G1 E3.62000 F3000.00000 ; unretract
G1 F600
G1 X66.122 Y69.257 E3.64692 ; perimeter
G1 X65.675 Y69.926 E3.68007 ; perimeter
G1 X65.320 Y70.648 E3.71320 ; perimeter
G1 X65.061 Y71.409 E3.74633 ; perimeter
G1 X64.904 Y72.197 E3.77945 ; perimeter
G1 X64.862 Y72.852 E3.80647 ; perimeter
G1 X58.672 Y72.852 E4.06147 ; perimeter
G1 X58.708 Y71.807 E4.10455 ; perimeter
G1 X58.967 Y70.212 E4.17111 ; perimeter
G1 X59.435 Y68.666 E4.23766 ; perimeter
G1 X60.099 Y67.194 E4.30418 ; perimeter
G1 X60.950 Y65.821 E4.37075 ; perimeter
G1 X62.139 Y64.350 E4.44866 ; perimeter
G1 X66.499 Y68.712 E4.70270 ; perimeter
G1 X66.953 Y69.063 F5400.000 ; move inwards before travel
G1 E1.10270 F3000.00000 ; retract
G92 E0 ; reset extrusion distance
G1 X64.861 Y73.151 F5400.000 ; move to first perimeter point
G1 E3.62000 F3000.00000 ; unretract
G1 F600
G1 X64.904 Y73.802 E3.64689 ; perimeter
G1 X65.061 Y74.591 E3.68002 ; perimeter
G1 X65.320 Y75.352 E3.71315 ; perimeter
G1 X65.675 Y76.075 E3.74632 ; perimeter
G1 X66.122 Y76.743 E3.77942 ; perimeter
G1 X66.554 Y77.235 E3.80639 ; perimeter
G1 X62.179 Y81.611 E4.06130 ; perimeter
G1 X61.464 Y80.848 E4.10436 ; perimeter
G1 X60.521 Y79.536 E4.17092 ; perimeter
G1 X59.758 Y78.112 E4.23747 ; perimeter
G1 X59.185 Y76.602 E4.30402 ; perimeter
G1 X58.818 Y75.030 E4.37053 ; perimeter
G1 X58.618 Y73.151 E4.44836 ; perimeter
G1 X64.786 Y73.151 E4.70245 ; perimeter
G1 X65.355 Y73.079 F5400.000 ; move inwards before travel
G1 E1.10245 F3000.00000 ; retract
G92 E0 ; reset extrusion distance
G1 X66.765 Y77.448 F5400.000 ; move to first perimeter point
G1 E3.62000 F3000.00000 ; unretract
G1 F600
G1 X67.257 Y77.878 E3.64692 ; perimeter
G1 X67.925 Y78.325 E3.68003 ; perimeter
G1 X68.648 Y78.680 E3.71320 ; perimeter
G1 X69.409 Y78.939 E3.74633 ; perimeter
G1 X70.197 Y79.096 E3.77945 ; perimeter
G1 X70.850 Y79.138 E3.80639 ; perimeter
G1 X70.850 Y85.328 E4.06139 ; perimeter
G1 X69.807 Y85.292 E4.10438 ; perimeter
G1 X68.212 Y85.033 E4.17095 ; perimeter
G1 X66.666 Y84.565 E4.23750 ; perimeter
G1 X65.194 Y83.901 E4.30402 ; perimeter
G1 X63.820 Y83.050 E4.37059 ; perimeter
G1 X62.350 Y81.861 E4.44849 ; perimeter
G1 X66.712 Y77.501 E4.70253 ; perimeter
G1 X67.063 Y77.047 F5400.000 ; move inwards before travel
G1 E1.10253 F3000.00000 ; retract
G92 E0 ; reset extrusion distance
G1 X61.999 Y82.157 F5400.000 ; move to first perimeter point
G1 E3.62000 F3000.00000 ; unretract
G1 F1080
G1 X60.838 Y80.812 E3.69319 ; perimeter
G1 X59.949 Y79.459 E3.75989 ; perimeter
G1 X59.174 Y77.897 E3.83172 ; perimeter
G1 X58.619 Y76.278 E3.90219 ; perimeter
G1 X58.275 Y74.638 E3.97123 ; perimeter
G1 X58.160 Y73.113 E4.03424 ; perimeter
G1 X58.291 Y71.337 E4.10760 ; perimeter
G1 X58.619 Y69.754 E4.17419 ; perimeter
G1 X59.176 Y68.101 E4.24607 ; perimeter
G1 X59.927 Y66.564 E4.31653 ; perimeter
G1 X60.844 Y65.161 E4.38558 ; perimeter
G1 X61.843 Y63.999 E4.44871 ; perimeter
G1 X63.188 Y62.838 E4.52191 ; perimeter
G1 X64.541 Y61.949 E4.58861 ; perimeter
G1 X66.103 Y61.174 E4.66044 ; perimeter
G1 X67.722 Y60.619 E4.73091 ; perimeter
G1 X69.362 Y60.275 E4.79995 ; perimeter
G1 X70.893 Y60.161 E4.86319 ; perimeter
G1 X72.663 Y60.291 E4.93632 ; perimeter
G1 X74.246 Y60.619 E5.00290 ; perimeter
G1 X75.899 Y61.175 E5.07477 ; perimeter
G1 X77.436 Y61.927 E5.14524 ; perimeter
G1 X78.839 Y62.844 E5.21429 ; perimeter
G1 X80.001 Y63.843 E5.27742 ; perimeter
G1 X81.162 Y65.188 E5.35062 ; perimeter
G1 X82.051 Y66.541 E5.41732 ; perimeter
G1 X82.826 Y68.103 E5.48915 ; perimeter
G1 X83.381 Y69.722 E5.55962 ; perimeter
G1 X83.725 Y71.362 E5.62866 ; perimeter
G1 X83.839 Y72.891 E5.69182 ; perimeter
G1 X83.709 Y74.663 E5.76503 ; perimeter
G1 X83.381 Y76.246 E5.83162 ; perimeter
G1 X82.824 Y77.899 E5.90350 ; perimeter
G1 X82.073 Y79.436 E5.97395 ; perimeter
G1 X81.156 Y80.839 E6.04300 ; perimeter
G1 X80.157 Y82.001 E6.10614 ; perimeter
G1 X78.812 Y83.162 E6.17933 ; perimeter
G1 X77.459 Y84.051 E6.24604 ; perimeter
G1 X75.897 Y84.826 E6.31786 ; perimeter
G1 X74.278 Y85.381 E6.38834 ; perimeter
G1 X72.638 Y85.725 E6.45737 ; perimeter
G1 X71.115 Y85.840 E6.52029 ; perimeter
G1 X69.337 Y85.709 E6.59374 ; perimeter
G1 X67.754 Y85.381 E6.66034 ; perimeter
G1 X66.101 Y84.825 E6.73220 ; perimeter
G1 X64.564 Y84.073 E6.80267 ; perimeter
G1 X63.161 Y83.156 E6.87172 ; perimeter
G1 X62.056 Y82.206 E6.93177 ; perimeter
G1 X62.129 Y81.674 F5400.000 ; move inwards before travel
G1 X62.135 Y81.973 F5400.000 ; move to first infill point
G1 F600
G1 X63.311 Y82.957 E6.93916 ; infill
G1 X63.702 Y83.242 E6.94149 ; infill
G1 X63.712 Y83.247 F5400.000 ; move to first infill point
G1 F600
G1 X64.683 Y83.865 E6.94481 ; infill
G1 X64.946 Y84.011 E6.94567 ; infill
G1 E3.34567 F3000.00000 ; retract
G92 E0 ; reset extrusion distance
G1 X65.637 Y84.347 F5400.000 ; move to first infill point
G1 E3.62000 F3000.00000 ; unretract
G1 F600
G1 X66.375 Y84.680 E3.62155 ; infill
G1 E0.02155 F3000.00000 ; retract
G92 E0 ; reset extrusion distance
G1 X67.588 Y85.079 F5400.000 ; move to first infill point
G1 E3.62000 F3000.00000 ; unretract
G1 F600
G1 X68.009 Y85.205 E3.62032 ; infill
G1 E0.02032 F3000.00000 ; retract
G92 E0 ; reset extrusion distance
