; generated by Slic3r 1.34.1-prusa3d-win64 on 2018-10-03 at 21:46:01

; Buse diamètre 0,5mm
; Ratio : 200%
; Debit : 5mm3/s
; DMax : 7,5mm3/s = 60mm/s

; external perimeters extrusion width = 0.60mm
; perimeters extrusion width = 0.60mm
; infill extrusion width = 0.50mm
; solid infill extrusion width = 0.50mm
; top infill extrusion width = 0.40mm

M107 ; disable fan
M190 S70 ; attente chauffe plateau
M104 S210 ; préchauffe tête
G92 Z0 ; définir hauteur actuelle comme 0
G0 Z10 F1500
G28 YX ; prise d'origine en Y puis X
G1 X130 Y10 F3000 ; parking
M109 S210 ; attente chauffe T0
G0 Z0.30 F1500 ; distance 0.3mm du plateau
G92 E0 ; remise à zéro axe E
G1 E15 F150 ; pousser 15mm de filament
G1 X100 Z0 F1500 ; essuyage sur plateau et on démarre (=rétraction, hauteur, début)
G21 ; set units to millimeters
G90 ; use absolute coordinates
M82 ; use absolute distances for extrusion
G92 E0 ; reset extrusion distance
G1 E-3.60000 F3000.00000 ; retract
G92 E0 ; reset extrusion distance
G1 Z0.300 F5400.000 ; move to next layer (0)
G1 X68.060 Y78.392 F5400.000 ; move to first perimeter point
G1 E3.63000 F3000.00000 ; unretract
G1 F600
G1 X68.647 Y78.681 E3.65694 ; perimeter
G1 X69.408 Y78.940 E3.69008 ; perimeter
G1 X70.197 Y79.097 E3.72322 ; perimeter
G1 X71.000 Y79.149 E3.75635 ; perimeter
G1 X71.803 Y79.097 E3.78949 ; perimeter
G1 X72.592 Y78.940 E3.82262 ; perimeter
G1 X73.353 Y78.681 E3.85576 ; perimeter
G1 X73.940 Y78.392 E3.88270 ; perimeter
G1 X77.791 Y85.062 E4.19997 ; perimeter
G1 X76.300 Y85.796 E4.26842 ; perimeter
G1 X74.585 Y86.379 E4.34305 ; perimeter
G1 X72.808 Y86.732 E4.41769 ; perimeter
G1 X71.000 Y86.851 E4.49233 ; perimeter
G1 X69.192 Y86.732 E4.56697 ; perimeter
G1 X67.415 Y86.379 E4.64160 ; perimeter
G1 X65.700 Y85.796 E4.71624 ; perimeter
G1 X64.209 Y85.062 E4.78468 ; perimeter
G1 X68.023 Y78.457 E5.09886 ; perimeter
G1 X68.259 Y77.933 F5400.000 ; move inwards before travel
G1 E1.49886 F3000.00000 ; retract
G92 E0 ; reset extrusion distance
G1 X74.126 Y74.275 F5400.000 ; move to first perimeter point
G1 E3.63000 F3000.00000 ; unretract
G1 F600
G1 X76.592 Y74.275 E3.73160 ; perimeter
G1 X76.290 Y75.190 E3.77131 ; perimeter
G1 X75.958 Y75.863 E3.80220 ; perimeter
G1 X75.542 Y76.485 E3.83305 ; perimeter
G1 X75.049 Y77.049 E3.86390 ; perimeter
G1 X74.485 Y77.542 E3.89476 ; perimeter
G1 X73.863 Y77.958 E3.92561 ; perimeter
G1 X73.191 Y78.290 E3.95646 ; perimeter
G1 X72.482 Y78.530 E3.98731 ; perimeter
G1 X71.747 Y78.676 E4.01817 ; perimeter
G1 X71.000 Y78.725 E4.04902 ; perimeter
G1 X70.253 Y78.676 E4.07987 ; perimeter
G1 X69.518 Y78.530 E4.11072 ; perimeter
G1 X68.809 Y78.290 E4.14158 ; perimeter
G1 X68.137 Y77.958 E4.17243 ; perimeter
G1 X67.515 Y77.542 E4.20328 ; perimeter
G1 X66.951 Y77.049 E4.23414 ; perimeter
G1 X66.458 Y76.485 E4.26499 ; perimeter
G1 X66.042 Y75.863 E4.29584 ; perimeter
G1 X65.710 Y75.190 E4.32673 ; perimeter
G1 X65.408 Y74.275 E4.36643 ; perimeter
G1 X67.874 Y74.275 E4.46804 ; perimeter
G1 X68.078 Y74.687 E4.48697 ; perimeter
G1 X68.323 Y75.054 E4.50516 ; perimeter
G1 X68.614 Y75.386 E4.52334 ; perimeter
G1 X68.946 Y75.677 E4.54153 ; perimeter
G1 X69.313 Y75.922 E4.55971 ; perimeter
G1 X69.709 Y76.118 E4.57790 ; perimeter
G1 X70.127 Y76.260 E4.59608 ; perimeter
G1 X70.560 Y76.346 E4.61426 ; perimeter
G1 X71.000 Y76.375 E4.63245 ; perimeter
G1 X71.440 Y76.346 E4.65063 ; perimeter
G1 X71.873 Y76.260 E4.66882 ; perimeter
G1 X72.291 Y76.118 E4.68700 ; perimeter
G1 X72.687 Y75.922 E4.70518 ; perimeter
G1 X73.054 Y75.677 E4.72337 ; perimeter
G1 X73.386 Y75.386 E4.74155 ; perimeter
G1 X73.677 Y75.054 E4.75974 ; perimeter
G1 X73.922 Y74.687 E4.77792 ; perimeter
G1 X74.093 Y74.342 E4.79377 ; perimeter
G1 X74.212 Y73.783 F5400.000 ; move inwards before travel
G1 E1.19377 F3000.00000 ; retract
G92 E0 ; reset extrusion distance
G1 X77.139 Y73.150 F5400.000 ; move to first perimeter point
G1 E3.63000 F3000.00000 ; unretract
G1 F600
G1 X84.841 Y73.150 E3.94727 ; perimeter
G1 X84.732 Y74.808 E4.01571 ; perimeter
G1 X84.379 Y76.585 E4.09035 ; perimeter
G1 X83.796 Y78.300 E4.16499 ; perimeter
G1 X82.995 Y79.925 E4.23962 ; perimeter
G1 X81.989 Y81.432 E4.31426 ; perimeter
G1 X80.794 Y82.794 E4.38890 ; perimeter
G1 X79.432 Y83.989 E4.46354 ; perimeter
G1 X78.050 Y84.912 E4.53198 ; perimeter
G1 X74.200 Y78.242 E4.84925 ; perimeter
G1 X74.743 Y77.879 E4.87619 ; perimeter
G1 X75.348 Y77.348 E4.90933 ; perimeter
G1 X75.879 Y76.743 E4.94247 ; perimeter
G1 X76.325 Y76.075 E4.97560 ; perimeter
G1 X76.681 Y75.353 E5.00874 ; perimeter
G1 X76.940 Y74.592 E5.04187 ; perimeter
G1 X77.097 Y73.803 E5.07501 ; perimeter
G1 X77.135 Y73.225 E5.09886 ; perimeter
G1 X77.162 Y72.651 F5400.000 ; move inwards before travel
G1 E1.49886 F3000.00000 ; retract
G92 E0 ; reset extrusion distance
G1 X76.678 Y72.275 F5400.000 ; move to first perimeter point
G1 E3.63000 F3000.00000 ; unretract
G1 F600
G1 X76.725 Y73.000 E3.65993 ; perimeter
G1 X76.678 Y73.725 E3.68986 ; perimeter
G1 X73.731 Y73.725 E3.81125 ; perimeter
G1 X73.610 Y74.081 E3.82675 ; perimeter
G1 X73.447 Y74.413 E3.84198 ; perimeter
G1 X73.242 Y74.720 E3.85720 ; perimeter
G1 X72.998 Y74.998 E3.87243 ; perimeter
G1 X72.720 Y75.242 E3.88765 ; perimeter
G1 X72.413 Y75.447 E3.90288 ; perimeter
G1 X72.081 Y75.610 E3.91810 ; perimeter
G1 X71.731 Y75.729 E3.93333 ; perimeter
G1 X71.369 Y75.801 E3.94855 ; perimeter
G1 X71.000 Y75.825 E3.96378 ; perimeter
G1 X70.631 Y75.801 E3.97901 ; perimeter
G1 X70.269 Y75.729 E3.99423 ; perimeter
G1 X69.919 Y75.610 E4.00946 ; perimeter
G1 X69.591 Y75.449 E4.02450 ; perimeter
G1 X69.280 Y75.242 E4.03990 ; perimeter
G1 X69.002 Y74.998 E4.05513 ; perimeter
G1 X68.758 Y74.720 E4.07036 ; perimeter
G1 X68.553 Y74.413 E4.08558 ; perimeter
G1 X68.390 Y74.081 E4.10081 ; perimeter
G1 X68.269 Y73.725 E4.11631 ; perimeter
G1 X65.322 Y73.725 E4.23770 ; perimeter
G1 X65.275 Y73.000 E4.26763 ; perimeter
G1 X65.322 Y72.275 E4.29756 ; perimeter
G1 X68.269 Y72.275 E4.41895 ; perimeter
G1 X68.390 Y71.919 E4.43445 ; perimeter
G1 X68.553 Y71.587 E4.44968 ; perimeter
G1 X68.761 Y71.277 E4.46508 ; perimeter
G1 X69.002 Y71.002 E4.48012 ; perimeter
G1 X69.280 Y70.758 E4.49535 ; perimeter
G1 X69.587 Y70.553 E4.51057 ; perimeter
G1 X69.919 Y70.390 E4.52580 ; perimeter
G1 X70.269 Y70.271 E4.54102 ; perimeter
G1 X70.631 Y70.199 E4.55625 ; perimeter
G1 X70.996 Y70.175 E4.57129 ; perimeter
G1 X71.369 Y70.199 E4.58669 ; perimeter
G1 X71.731 Y70.271 E4.60192 ; perimeter
G1 X72.081 Y70.390 E4.61715 ; perimeter
G1 X72.413 Y70.553 E4.63238 ; perimeter
G1 X72.720 Y70.758 E4.64760 ; perimeter
G1 X72.998 Y71.002 E4.66283 ; perimeter
G1 X73.242 Y71.280 E4.67805 ; perimeter
G1 X73.447 Y71.587 E4.69328 ; perimeter
G1 X73.610 Y71.919 E4.70850 ; perimeter
G1 X73.731 Y72.275 E4.72400 ; perimeter
G1 X76.603 Y72.275 E4.84230 ; perimeter
G1 X77.178 Y72.272 F5400.000 ; move inwards before travel
G1 E1.24230 F3000.00000 ; retract
G92 E0 ; reset extrusion distance
G1 X76.592 Y71.725 F5400.000 ; move to first perimeter point
G1 E3.63000 F3000.00000 ; unretract
G1 F600
G1 X74.126 Y71.725 E3.73160 ; perimeter
G1 X73.922 Y71.313 E3.75054 ; perimeter
G1 X73.677 Y70.946 E3.76872 ; perimeter
G1 X73.386 Y70.614 E3.78691 ; perimeter
G1 X73.054 Y70.323 E3.80509 ; perimeter
G1 X72.687 Y70.078 E3.82328 ; perimeter
G1 X72.291 Y69.882 E3.84146 ; perimeter
G1 X71.873 Y69.740 E3.85964 ; perimeter
G1 X71.440 Y69.654 E3.87783 ; perimeter
G1 X71.000 Y69.625 E3.89601 ; perimeter
G1 X70.560 Y69.654 E3.91420 ; perimeter
G1 X70.127 Y69.740 E3.93238 ; perimeter
G1 X69.709 Y69.882 E3.95057 ; perimeter
G1 X69.313 Y70.078 E3.96875 ; perimeter
G1 X68.946 Y70.323 E3.98693 ; perimeter
G1 X68.614 Y70.614 E4.00512 ; perimeter
G1 X68.323 Y70.946 E4.02330 ; perimeter
G1 X68.078 Y71.313 E4.04149 ; perimeter
G1 X67.874 Y71.725 E4.06042 ; perimeter
G1 X65.408 Y71.725 E4.16203 ; perimeter
G1 X65.710 Y70.810 E4.20173 ; perimeter
G1 X66.042 Y70.137 E4.23262 ; perimeter
G1 X66.458 Y69.515 E4.26347 ; perimeter
G1 X66.951 Y68.951 E4.29433 ; perimeter
G1 X67.515 Y68.458 E4.32518 ; perimeter
G1 X68.137 Y68.042 E4.35603 ; perimeter
G1 X68.809 Y67.710 E4.38688 ; perimeter
G1 X69.520 Y67.469 E4.41780 ; perimeter
G1 X70.344 Y67.318 E4.45233 ; perimeter
G1 X71.000 Y67.275 E4.47941 ; perimeter
G1 X71.747 Y67.324 E4.51027 ; perimeter
G1 X72.482 Y67.470 E4.54112 ; perimeter
G1 X73.191 Y67.710 E4.57197 ; perimeter
G1 X73.863 Y68.042 E4.60282 ; perimeter
G1 X74.485 Y68.458 E4.63368 ; perimeter
G1 X75.049 Y68.951 E4.66453 ; perimeter
G1 X75.542 Y69.515 E4.69538 ; perimeter
G1 X75.958 Y70.137 E4.72624 ; perimeter
G1 X76.290 Y70.810 E4.75713 ; perimeter
G1 X76.569 Y71.654 E4.79374 ; perimeter
G1 X76.655 Y72.221 F5400.000 ; move inwards before travel
G1 E1.19374 F3000.00000 ; retract
G92 E0 ; reset extrusion distance
G1 X78.050 Y61.088 F5400.000 ; move to first perimeter point
G1 E3.63000 F3000.00000 ; unretract
G1 F600
G1 X79.432 Y62.011 E3.69844 ; perimeter
G1 X80.794 Y63.206 E3.77308 ; perimeter
G1 X81.989 Y64.568 E3.84772 ; perimeter
G1 X82.995 Y66.075 E3.92236 ; perimeter
G1 X83.796 Y67.700 E3.99699 ; perimeter
G1 X84.379 Y69.415 E4.07163 ; perimeter
G1 X84.732 Y71.192 E4.14627 ; perimeter
G1 X84.841 Y72.850 E4.21471 ; perimeter
G1 X77.139 Y72.850 E4.53198 ; perimeter
G1 X77.097 Y72.197 E4.55892 ; perimeter
G1 X76.940 Y71.408 E4.59206 ; perimeter
G1 X76.681 Y70.647 E4.62520 ; perimeter
G1 X76.325 Y69.925 E4.65833 ; perimeter
G1 X75.879 Y69.257 E4.69147 ; perimeter
G1 X75.348 Y68.652 E4.72460 ; perimeter
G1 X74.743 Y68.121 E4.75774 ; perimeter
G1 X74.200 Y67.758 E4.78468 ; perimeter
G1 X78.013 Y61.153 E5.09886 ; perimeter
G1 X78.307 Y60.659 F5400.000 ; move inwards before travel
G1 X77.791 Y60.938 F5400.000 ; move to first perimeter point
G1 F600
G1 X73.940 Y67.608 E5.41613 ; perimeter
G1 X73.353 Y67.319 E5.44308 ; perimeter
G1 X72.592 Y67.060 E5.47621 ; perimeter
G1 X71.803 Y66.903 E5.50935 ; perimeter
G1 X71.000 Y66.851 E5.54248 ; perimeter
G1 X70.197 Y66.903 E5.57562 ; perimeter
G1 X69.408 Y67.060 E5.60876 ; perimeter
G1 X68.647 Y67.319 E5.64189 ; perimeter
G1 X68.060 Y67.608 E5.66884 ; perimeter
G1 X64.209 Y60.938 E5.98611 ; perimeter
G1 X65.700 Y60.204 E6.05455 ; perimeter
G1 X67.415 Y59.621 E6.12919 ; perimeter
G1 X69.192 Y59.268 E6.20382 ; perimeter
G1 X71.000 Y59.149 E6.27846 ; perimeter
G1 X72.808 Y59.268 E6.35310 ; perimeter
G1 X74.585 Y59.621 E6.42773 ; perimeter
G1 X76.300 Y60.204 E6.50237 ; perimeter
G1 X77.723 Y60.905 E6.56773 ; perimeter
G1 X78.234 Y61.169 F5400.000 ; move inwards before travel
G1 E2.96773 F3000.00000 ; retract
G92 E0 ; reset extrusion distance
G1 X63.950 Y61.088 F5400.000 ; move to first perimeter point
G1 E3.63000 F3000.00000 ; unretract
G1 F600
G1 X67.800 Y67.758 E3.94727 ; perimeter
G1 X67.257 Y68.121 E3.97421 ; perimeter
G1 X66.652 Y68.652 E4.00735 ; perimeter
G1 X66.121 Y69.257 E4.04049 ; perimeter
G1 X65.675 Y69.925 E4.07362 ; perimeter
G1 X65.319 Y70.647 E4.10676 ; perimeter
G1 X65.060 Y71.408 E4.13989 ; perimeter
G1 X64.903 Y72.197 E4.17303 ; perimeter
G1 X64.861 Y72.850 E4.19997 ; perimeter
G1 X57.159 Y72.850 E4.51724 ; perimeter
G1 X57.268 Y71.192 E4.58569 ; perimeter
G1 X57.621 Y69.415 E4.66032 ; perimeter
G1 X58.204 Y67.700 E4.73496 ; perimeter
G1 X59.005 Y66.075 E4.80960 ; perimeter
G1 X60.011 Y64.568 E4.88423 ; perimeter
G1 X61.206 Y63.206 E4.95887 ; perimeter
G1 X62.568 Y62.011 E5.03351 ; perimeter
G1 X63.887 Y61.130 E5.09886 ; perimeter
G1 X64.371 Y60.819 F5400.000 ; move inwards before travel
G1 E1.49886 F3000.00000 ; retract
G92 E0 ; reset extrusion distance
G1 X64.867 Y73.253 F5400.000 ; move to first perimeter point
G1 E3.63000 F3000.00000 ; unretract
G1 F600
G1 X64.903 Y73.803 E3.65271 ; perimeter
G1 X65.060 Y74.592 E3.68585 ; perimeter
G1 X65.319 Y75.353 E3.71898 ; perimeter
G1 X65.675 Y76.075 E3.75212 ; perimeter
G1 X66.121 Y76.743 E3.78525 ; perimeter
G1 X66.652 Y77.348 E3.81839 ; perimeter
G1 X67.257 Y77.879 E3.85153 ; perimeter
G1 X67.800 Y78.242 E3.87847 ; perimeter
G1 X63.950 Y84.912 E4.19574 ; perimeter
G1 X62.568 Y83.989 E4.26418 ; perimeter
G1 X61.206 Y82.794 E4.33882 ; perimeter
G1 X60.011 Y81.432 E4.41346 ; perimeter
G1 X59.005 Y79.925 E4.48809 ; perimeter
G1 X58.204 Y78.300 E4.56273 ; perimeter
G1 X57.621 Y76.585 E4.63737 ; perimeter
G1 X57.268 Y74.808 E4.71201 ; perimeter
G1 X57.168 Y73.283 E4.77494 ; perimeter
G1 X64.525 Y73.275 E5.07804 ; perimeter
G1 X64.792 Y73.257 E5.08907 ; perimeter
G1 X65.367 Y73.230 F5400.000 ; move inwards before travel
G1 E1.48907 F3000.00000 ; retract
G92 E0 ; reset extrusion distance
G1 X56.678 Y76.564 F5400.000 ; move to first perimeter point
G1 E3.63000 F3000.00000 ; unretract
G1 F1080
G1 X56.209 Y73.000 E3.77807 ; perimeter
G1 X56.678 Y69.436 E3.92614 ; perimeter
G1 X56.784 Y69.254 E3.93484 ; perimeter
G1 X58.188 Y65.864 E4.08597 ; perimeter
G1 X58.414 Y65.472 E4.10462 ; perimeter
G1 X60.648 Y62.562 E4.25575 ; perimeter
G1 X60.753 Y62.379 E4.26444 ; perimeter
G1 X63.605 Y60.191 E4.41251 ; perimeter
G1 X66.925 Y58.815 E4.56058 ; perimeter
G1 X67.137 Y58.815 E4.56928 ; perimeter
G1 X70.774 Y58.337 E4.72041 ; perimeter
G1 X71.226 Y58.337 E4.73906 ; perimeter
G1 X74.864 Y58.815 E4.89019 ; perimeter
G1 X75.075 Y58.815 E4.89888 ; perimeter
G1 X78.395 Y60.191 E5.04695 ; perimeter
G1 X81.247 Y62.379 E5.19502 ; perimeter
G1 X81.352 Y62.562 E5.20372 ; perimeter
G1 X83.586 Y65.472 E5.35485 ; perimeter
G1 X83.812 Y65.864 E5.37350 ; perimeter
G1 X85.216 Y69.254 E5.52463 ; perimeter
G1 X85.322 Y69.436 E5.53332 ; perimeter
G1 X85.791 Y73.000 E5.68139 ; perimeter
G1 X85.322 Y76.564 E5.82946 ; perimeter
G1 X85.216 Y76.746 E5.83816 ; perimeter
G1 X83.812 Y80.136 E5.98929 ; perimeter
G1 X83.586 Y80.528 E6.00794 ; perimeter
G1 X81.352 Y83.438 E6.15907 ; perimeter
G1 X81.247 Y83.621 E6.16776 ; perimeter
G1 X78.395 Y85.809 E6.31583 ; perimeter
G1 X75.075 Y87.185 E6.46390 ; perimeter
G1 X74.863 Y87.185 E6.47260 ; perimeter
G1 X71.226 Y87.663 E6.62373 ; perimeter
G1 X70.774 Y87.663 E6.64238 ; perimeter
G1 X67.136 Y87.185 E6.79351 ; perimeter
G1 X66.925 Y87.185 E6.80220 ; perimeter
G1 X63.605 Y85.809 E6.95027 ; perimeter
G1 X60.753 Y83.621 E7.09834 ; perimeter
G1 X60.648 Y83.438 E7.10704 ; perimeter
G1 X58.414 Y80.528 E7.25817 ; perimeter
G1 X58.188 Y80.136 E7.27682 ; perimeter
G1 X56.784 Y76.746 E7.42795 ; perimeter
G1 X56.716 Y76.628 E7.43355 ; perimeter
G1 X57.046 Y76.225 F5400.000 ; move inwards before travel
G1 E3.83355 F3000.00000 ; retract
G92 E0 ; reset extrusion distance
G1 X65.145 Y74.000 F5400.000 ; move to first infill point
G1 E3.63000 F3000.00000 ; unretract
G1 F600
G1 X67.998 Y74.000 E3.65965 ; infill
G1 X68.062 Y74.013 E3.66034 ; infill
G1 X68.315 Y74.550 E3.66650 ; infill
G1 X68.541 Y74.887 E3.67072 ; infill
G1 X68.808 Y75.192 E3.67493 ; infill
G1 X69.113 Y75.459 E3.67915 ; infill
G1 X69.450 Y75.684 E3.68336 ; infill
G1 X69.818 Y75.866 E3.68763 ; infill
G1 X70.198 Y75.994 E3.69179 ; infill
G1 X70.590 Y76.073 E3.69595 ; infill
G1 X71.000 Y76.100 E3.70022 ; infill
G1 X71.410 Y76.073 E3.70449 ; infill
G1 X71.802 Y75.994 E3.70865 ; infill
G1 X72.182 Y75.866 E3.71281 ; infill
G1 X72.550 Y75.685 E3.71708 ; infill
G1 X72.887 Y75.459 E3.72129 ; infill
G1 X73.192 Y75.192 E3.72551 ; infill
G1 X73.459 Y74.887 E3.72972 ; infill
G1 X73.685 Y74.550 E3.73394 ; infill
G1 X73.938 Y74.013 E3.74011 ; infill
G1 X74.002 Y74.000 E3.74079 ; infill
G1 X76.855 Y74.000 E3.77044 ; infill
G1 E0.17044 F3000.00000 ; retract
G92 E0 ; reset extrusion distance
G1 X76.855 Y72.000 F5400.000 ; move to first infill point
G1 E3.63000 F3000.00000 ; unretract
G1 F600
G1 X74.002 Y72.000 E3.65965 ; infill
G1 X73.938 Y71.987 E3.66034 ; infill
G1 X73.685 Y71.450 E3.66650 ; infill
G1 X73.459 Y71.113 E3.67072 ; infill
G1 X73.192 Y70.808 E3.67493 ; infill
G1 X72.887 Y70.541 E3.67915 ; infill
G1 X72.546 Y70.313 E3.68341 ; infill
G1 X72.186 Y70.136 E3.68758 ; infill
G1 X71.807 Y70.007 E3.69174 ; infill
G1 X71.405 Y69.927 E3.69601 ; infill
G1 X71.000 Y69.900 E3.70022 ; infill
G1 X70.595 Y69.927 E3.70444 ; infill
G1 X70.193 Y70.007 E3.70870 ; infill
