; generated by Slic3r 1.34.1-prusa3d-win64 on 2018-12-11 at 16:33:18

; Buse diamètre 0,4mm
; Ratio : 200%
; Debit : 3,2mm3/s = 40mm/s
; DMax : 4,8mm3/s = 60mm/s

; external perimeters extrusion width = 0.32mm
; perimeters extrusion width = 0.40mm
; infill extrusion width = 0.40mm
; solid infill extrusion width = 0.40mm
; top infill extrusion width = 0.32mm
; support material extrusion width = 0.40mm

M107 ; disable fan
M190 S70 ; attente chauffe plateau
M104 S210 ; préchauffe tête
G92 Z0 ; définir hauteur actuelle comme 0
G0 Z10 F1500
G28 YX ; prise d'origine en Y puis X
G1 X130 Y10 F3000 ; parking
M109 S210 ; attente chauffe T0
G0 Z0.30 F1500 ; distance 0.3mm du plateau
G92 E0 ; remise à zéro axe E
G1 E15 F150 ; pousser 15mm de filament
G1 X100 Z0 F1500 ; essuyage sur plateau et on démarre (=rétraction, hauteur, début)
G21 ; set units to millimeters
G90 ; use absolute coordinates
M82 ; use absolute distances for extrusion
G92 E0 ; reset extrusion distance
G1 E-3.60000 F3000.00000 ; retract
G92 E0 ; reset extrusion distance
G1 Z0.450 F5400.000 ; move to next layer (0)
G1 X62.069 Y63.741 F5400.000 ; move to first support material point
G1 E3.61500 F3000.00000 ; unretract
G1 F1200
G1 X62.069 Y65.264 E3.67873 ; support material
G1 X62.240 Y64.988 E3.69232 ; support material
G1 X62.285 Y64.981 E3.69421 ; support material
G1 X62.518 Y64.614 E3.71241 ; support material
G1 X62.818 Y64.565 E3.72512 ; support material
G1 X62.926 Y64.653 E3.73097 ; support material
G1 X62.926 Y63.902 E3.76240 ; support material
G1 X63.784 Y63.902 E3.79827 ; support material
G1 X63.784 Y66.420 E3.90367 ; support material
G1 E0.30367 F3000.00000 ; retract
G92 E0 ; reset extrusion distance
G1 X67.212 Y64.063 F5400.000 ; move to first support material point
G1 E3.61500 F3000.00000 ; unretract
G1 F1200
G1 X67.212 Y61.545 E3.72040 ; support material
G1 X67.907 Y61.545 E3.74949 ; support material
G1 X67.777 Y61.720 E3.75861 ; support material
G1 X67.898 Y62.202 E3.77942 ; support material
G1 X67.984 Y62.749 E3.80259 ; support material
G1 X68.069 Y62.822 E3.80728 ; support material
G1 X68.069 Y64.063 E3.85923 ; support material
G1 E0.25923 F3000.00000 ; retract
G92 E0 ; reset extrusion distance
G1 X74.068 Y64.063 F5400.000 ; move to first support material point
G1 E3.61500 F3000.00000 ; unretract
G1 F1200
G1 X74.068 Y62.415 E3.68396 ; support material
G1 X74.102 Y62.202 E3.69301 ; support material
G1 X74.223 Y61.720 E3.71382 ; support material
G1 X74.093 Y61.545 E3.72295 ; support material
G1 X74.926 Y61.545 E3.75779 ; support material
G1 X74.926 Y63.902 E3.85646 ; support material
G1 X75.783 Y63.902 E3.89234 ; support material
G1 X75.784 Y61.545 E3.99101 ; support material
G1 X75.784 Y63.902 E4.08967 ; support material
G1 X76.640 Y63.902 E4.12549 ; support material
G1 X76.640 Y66.259 E4.22417 ; support material
G1 X77.497 Y66.259 E4.26004 ; support material
G1 X77.497 Y63.902 E4.35871 ; support material
G1 X78.354 Y63.902 E4.39459 ; support material
G1 X78.354 Y66.420 E4.49999 ; support material
G1 E0.89999 F3000.00000 ; retract
G92 E0 ; reset extrusion distance
G1 X80.068 Y65.804 F5400.000 ; move to first support material point
G1 E3.61500 F3000.00000 ; unretract
G1 F1200
G1 X80.068 Y63.902 E3.69461 ; support material
G1 X79.211 Y63.902 E3.73048 ; support material
G1 X79.211 Y64.748 E3.76591 ; support material
G1 E0.16591 F3000.00000 ; retract
G92 E0 ; reset extrusion distance
G1 X80.925 Y69.709 F5400.000 ; move to first support material point
G1 E3.61500 F3000.00000 ; unretract
G1 F1200
G1 X80.925 Y75.982 E3.87758 ; support material
G1 X81.151 Y75.596 E3.89629 ; support material
G1 X81.386 Y75.514 E3.90670 ; support material
G1 X81.782 Y75.666 E3.92449 ; support material
G1 X81.782 Y70.334 E4.14771 ; support material
G1 X82.381 Y70.151 E4.17390 ; support material
G1 X82.508 Y69.856 E4.18737 ; support material
G1 X82.306 Y69.468 E4.20568 ; support material
G1 X82.323 Y69.428 E4.20750 ; support material
G1 X81.878 Y68.616 E4.24624 ; support material
G1 X82.639 Y68.616 E4.27809 ; support material
G1 X82.639 Y78.205 E4.67949 ; support material
G1 E1.07949 F3000.00000 ; retract
G92 E0 ; reset extrusion distance
G1 X81.782 Y78.205 F5400.000 ; move to first support material point
G1 E3.61500 F3000.00000 ; unretract
G1 F1200
G1 X81.782 Y77.226 E3.65600 ; support material
G1 E0.05600 F3000.00000 ; retract
G92 E0 ; reset extrusion distance
G1 X80.707 Y76.939 F5400.000 ; move to first support material point
G1 E3.61500 F3000.00000 ; unretract
G1 F1200
G1 X80.707 Y69.313 E4.12444 ; support material
G1 X80.505 Y69.252 E4.13855 ; support material
G1 X79.636 Y67.758 E4.25402 ; support material
G1 X79.636 Y78.727 E4.98681 ; support material
G1 E1.38681 F3000.00000 ; retract
G92 E0 ; reset extrusion distance
G1 X80.068 Y82.919 F5400.000 ; move to first support material point
G1 E3.61500 F3000.00000 ; unretract
G1 F1200
G1 X80.068 Y80.508 E3.71595 ; support material
G1 X79.760 Y81.012 E3.74069 ; support material
G1 X79.715 Y81.019 E3.74259 ; support material
G1 X79.482 Y81.386 E3.76079 ; support material
G1 X79.211 Y81.431 E3.77228 ; support material
G1 X79.211 Y82.759 E3.82788 ; support material
G1 X78.354 Y82.759 E3.86375 ; support material
G1 X78.354 Y80.402 E3.96242 ; support material
G1 X77.497 Y80.402 E3.99830 ; support material
G1 X77.497 Y82.759 E4.09697 ; support material
G1 X76.640 Y82.759 E4.13285 ; support material
G1 X76.640 Y80.402 E4.23152 ; support material
G1 X75.784 Y80.402 E4.26734 ; support material
G1 X75.783 Y85.116 E4.46468 ; support material
G1 X74.926 Y85.116 E4.50056 ; support material
G1 X74.926 Y82.759 E4.59923 ; support material
G1 X74.068 Y82.759 E4.63511 ; support material
G1 X74.068 Y85.277 E4.74050 ; support material
G1 X77.494 Y87.768 F5400.000 ; move to first support material point
G1 F1200
G1 X77.494 Y59.134 E6.65337 ; support material
G1 X76.422 Y59.134 E6.72493 ; support material
G1 X76.422 Y87.527 E8.62169 ; support material
G1 X75.351 Y87.527 E8.69325 ; support material
G1 X75.351 Y59.134 E10.59001 ; support material
G1 X74.280 Y59.134 E10.66158 ; support material
G1 X74.280 Y87.527 E12.55834 ; support material
G1 X73.209 Y87.527 E12.62990 ; support material
G1 X73.209 Y59.134 E14.52666 ; support material
G1 X72.137 Y59.134 E14.59822 ; support material
G1 X72.137 Y61.242 E14.73906 ; support material
G1 X71.066 Y61.239 E14.81063 ; support material
G1 X71.066 Y59.134 E14.95125 ; support material
G1 X69.995 Y59.134 E15.02281 ; support material
G1 X69.995 Y61.242 E15.16362 ; support material
G1 X69.387 Y61.248 E15.20423 ; support material
G1 X69.137 Y61.549 E15.23039 ; support material
G1 X69.189 Y61.864 E15.25174 ; support material
G1 X69.250 Y62.667 E15.30550 ; support material
G1 X69.495 Y62.894 E15.32781 ; support material
G1 X69.995 Y62.897 E15.36124 ; support material
G1 X69.995 Y83.103 E16.71105 ; support material
G1 X71.066 Y83.100 E16.78261 ; support material
G1 X71.066 Y62.900 E18.13206 ; support material
G1 X72.137 Y62.897 E18.20362 ; support material
G1 X72.137 Y83.103 E19.55348 ; support material
G1 X72.505 Y83.106 E19.57806 ; support material
G1 X72.750 Y83.333 E19.60037 ; support material
G1 X72.811 Y84.136 E19.65413 ; support material
G1 X72.863 Y84.451 E19.67548 ; support material
G1 X72.613 Y84.752 E19.70164 ; support material
G1 X72.137 Y84.758 E19.73340 ; support material
G1 X72.137 Y87.527 E19.91839 ; support material
G1 X71.066 Y87.527 E19.98996 ; support material
G1 X71.066 Y84.761 E20.17473 ; support material
G1 X71.000 Y84.756 E20.17916 ; support material
G1 X69.995 Y84.758 E20.24630 ; support material
G1 X69.995 Y87.527 E20.43127 ; support material
G1 X68.924 Y87.527 E20.50283 ; support material
G1 X68.924 Y59.134 E22.39959 ; support material
G1 X67.853 Y59.134 E22.47115 ; support material
G1 X67.853 Y87.527 E24.36791 ; support material
G1 X66.781 Y87.527 E24.43948 ; support material
G1 X66.781 Y59.134 E26.33624 ; support material
G1 X65.710 Y59.134 E26.40780 ; support material
G1 X65.710 Y87.527 E28.30456 ; support material
G1 X64.639 Y87.527 E28.37613 ; support material
G1 X64.639 Y59.134 E30.27288 ; support material
G1 X63.568 Y59.134 E30.34445 ; support material
G1 X63.568 Y87.527 E32.24121 ; support material
G1 X62.496 Y87.527 E32.31277 ; support material
G1 X62.496 Y79.991 E32.81619 ; support material
G1 X61.984 Y80.342 E32.85765 ; support material
G1 X61.623 Y80.263 E32.88232 ; support material
G1 X61.425 Y79.933 E32.90805 ; support material
G1 X61.425 Y85.170 E33.25788 ; support material
G1 X60.354 Y85.170 E33.32944 ; support material
G1 X60.354 Y78.077 E33.80328 ; support material
G1 X60.016 Y77.479 E33.84914 ; support material
G1 X60.152 Y77.112 E33.87530 ; support material
G1 X60.354 Y77.035 E33.88974 ; support material
G1 X60.354 Y68.965 E34.42892 ; support material
G1 X61.176 Y69.349 E34.48956 ; support material
G1 X61.425 Y69.273 E34.50695 ; support material
G1 X61.425 Y76.727 E35.00496 ; support material
G1 X61.495 Y76.748 E35.00982 ; support material
G1 X62.496 Y78.473 E35.14307 ; support material
G1 X62.496 Y67.527 E35.87436 ; support material
G1 X62.996 Y66.652 E35.94168 ; support material
G1 X62.939 Y66.345 E35.96253 ; support material
G1 X62.496 Y66.009 E35.99963 ; support material
G1 X62.496 Y59.134 E36.45889 ; support material
G1 X61.425 Y59.134 E36.53045 ; support material
G1 X61.425 Y66.067 E36.99360 ; support material
G1 X60.354 Y67.923 E37.13677 ; support material
G1 X60.354 Y59.134 E37.72392 ; support material
G1 X59.283 Y59.134 E37.79549 ; support material
G1 X59.283 Y85.170 E39.53478 ; support material
G1 X59.231 Y85.170 E39.53825 ; support material
G1 X59.231 Y80.455 E39.85318 ; support material
G1 X58.211 Y80.455 E39.92128 ; support material
G1 X58.211 Y66.206 E40.87324 ; support material
G1 X57.140 Y66.206 E40.94481 ; support material
G1 X57.140 Y80.455 E41.89678 ; support material
G1 X56.874 Y80.455 E41.91458 ; support material
G1 X56.874 Y78.098 E42.07205 ; support material
G1 X56.069 Y78.098 E42.12581 ; support material
G1 X56.069 Y68.563 E42.76284 ; support material
G1 X54.998 Y68.563 E42.83441 ; support material
G1 X54.998 Y78.339 E43.48754 ; support material
G1 E39.88754 F3000.00000 ; retract
G92 E0 ; reset extrusion distance
G1 X59.498 Y78.205 F5400.000 ; move to first support material point
G1 E3.61500 F3000.00000 ; unretract
G1 F1200
G1 X59.498 Y68.456 E4.02313 ; support material
G1 E0.42313 F3000.00000 ; retract
G92 E0 ; reset extrusion distance
G1 X60.355 Y75.786 F5400.000 ; move to first support material point
G1 E3.61500 F3000.00000 ; unretract
G1 F1200
G1 X60.355 Y70.387 E3.84100 ; support material
G1 X60.614 Y70.486 E3.85263 ; support material
G1 X60.849 Y70.404 E3.86304 ; support material
G1 X61.212 Y69.786 E3.89303 ; support material
G1 X61.212 Y76.524 E4.17506 ; support material
G1 E0.57506 F3000.00000 ; retract
G92 E0 ; reset extrusion distance
G1 X60.355 Y77.575 F5400.000 ; move to first support material point
G1 E3.61500 F3000.00000 ; unretract
G1 F1200
G1 X60.355 Y78.205 E3.64139 ; support material
G1 E0.04139 F3000.00000 ; retract
G92 E0 ; reset extrusion distance
G1 X62.069 Y80.424 F5400.000 ; move to first support material point
G1 E3.61500 F3000.00000 ; unretract
G1 F1200
G1 X62.069 Y82.759 E3.71272 ; support material
G1 X62.926 Y82.759 E3.74859 ; support material
G1 X62.926 Y81.347 E3.80768 ; support material
G1 X63.297 Y81.046 E3.82767 ; support material
G1 X63.639 Y80.715 E3.84761 ; support material
G1 X63.672 Y80.486 E3.85731 ; support material
G1 X63.624 Y80.402 E3.86135 ; support material
G1 X63.784 Y80.402 E3.86801 ; support material
G1 X63.783 Y82.919 E3.97341 ; support material
G1 E0.37341 F3000.00000 ; retract
G92 E0 ; reset extrusion distance
G1 X67.212 Y85.277 F5400.000 ; move to first support material point
G1 E3.61500 F3000.00000 ; unretract
G1 F1200
G1 X67.212 Y82.759 E3.72040 ; support material
G1 X68.069 Y82.759 E3.75627 ; support material
G1 X68.069 Y83.178 E3.77384 ; support material
G1 X67.984 Y83.251 E3.77852 ; support material
G1 X67.898 Y83.798 E3.80169 ; support material
G1 X67.777 Y84.280 E3.82250 ; support material
G1 X67.969 Y84.538 E3.83597 ; support material
G1 X68.069 Y84.542 E3.84016 ; support material
G1 X68.069 Y85.277 E3.87089 ; support material
G1 E0.27089 F3000.00000 ; retract
G92 E0 ; reset extrusion distance
G1 X84.992 Y80.696 F5400.000 ; move to first support material point
G1 E3.61500 F3000.00000 ; unretract
G1 F1200
G1 X84.992 Y66.206 E4.58307 ; support material
G1 X83.921 Y66.206 E4.65463 ; support material
G1 X83.921 Y80.455 E5.60660 ; support material
G1 X82.909 Y80.455 E5.67422 ; support material
G1 X82.909 Y85.170 E5.98915 ; support material
G1 X82.850 Y85.170 E5.99309 ; support material
G1 X82.850 Y59.134 E7.73239 ; support material
G1 X81.779 Y59.134 E7.80395 ; support material
G1 X81.779 Y85.170 E9.54325 ; support material
G1 X80.707 Y85.170 E9.61481 ; support material
G1 X80.707 Y79.703 E9.98003 ; support material
G1 X80.377 Y80.263 E10.02352 ; support material
G1 X80.016 Y80.342 E10.04819 ; support material
G1 X79.636 Y80.082 E10.07892 ; support material
G1 X79.636 Y87.527 E10.57628 ; support material
G1 X78.565 Y87.527 E10.64784 ; support material
G1 X78.565 Y59.134 E12.54460 ; support material
G1 X79.636 Y59.134 E12.61617 ; support material
G1 X79.636 Y65.918 E13.06937 ; support material
G1 X80.016 Y65.658 E13.10010 ; support material
G1 X80.377 Y65.737 E13.12477 ; support material
G1 X80.707 Y66.297 E13.16825 ; support material
G1 X80.707 Y58.893 E13.66289 ; support material
G1 E10.06289 F3000.00000 ; retract
G92 E0 ; reset extrusion distance
G1 Z0.450 F5400.000 ; move to next layer (1)
G1 X72.373 Y83.929 F5400.000 ; move to first perimeter point
G1 E3.61500 F3000.00000 ; unretract
G1 F1080
G1 X69.627 Y83.930 E3.86577 ; perimeter
G1 E0.26577 F3000.00000 ; retract
G92 E0 ; reset extrusion distance
G1 X81.149 Y77.281 F5400.000 ; move to first perimeter point
G1 E3.61500 F3000.00000 ; unretract
G1 F1080
G1 X79.779 Y79.654 E3.86464 ; perimeter
G1 E0.26464 F3000.00000 ; retract
G92 E0 ; reset extrusion distance
G1 X62.221 Y79.654 F5400.000 ; move to first perimeter point
G1 E3.61500 F3000.00000 ; unretract
G1 F1080
G1 X60.849 Y77.276 E3.86574 ; perimeter
G1 E0.26574 F3000.00000 ; retract
G92 E0 ; reset extrusion distance
G1 X62.224 Y66.341 F5400.000 ; move to first perimeter point
G1 E3.61500 F3000.00000 ; unretract
G1 F1080
G1 X60.848 Y68.724 E3.86576 ; perimeter
G1 E0.26576 F3000.00000 ; retract
G92 E0 ; reset extrusion distance
G1 X81.152 Y68.724 F5400.000 ; move to first perimeter point
G1 E3.61500 F3000.00000 ; unretract
G1 F1080
G1 X79.781 Y66.345 E3.86626 ; perimeter
G1 E0.26626 F3000.00000 ; retract
G92 E0 ; reset extrusion distance
G1 X72.373 Y62.070 F5400.000 ; move to first perimeter point
G1 E3.61500 F3000.00000 ; unretract
G1 F1080
G1 X69.627 Y62.070 E3.86521 ; perimeter
M104 S215 ; set temperature
M140 S65 ; set bed temperature
G1 E0.26521 F3000.00000 ; retract
G92 E0 ; reset extrusion distance
G1 Z0.650 F5400.000 ; move to next layer (2)
G1 X68.069 Y64.063 F5400.000 ; move to first support material point
G1 E3.61500 F3000.00000 ; unretract
G1 F2400
G1 X68.069 Y62.961 E3.64773 ; support material
G1 X67.738 Y62.958 E3.65755 ; support material
G1 X67.550 Y62.796 E3.66492 ; support material
G1 X67.516 Y62.577 E3.67150 ; support material
G1 X67.313 Y61.773 E3.69610 ; support material
G1 X67.484 Y61.545 E3.70455 ; support material
G1 X67.212 Y61.545 E3.71262 ; support material
G1 X67.212 Y63.902 E3.78261 ; support material
G1 X66.356 Y63.902 E3.80803 ; support material
G1 X66.355 Y66.259 E3.87802 ; support material
G1 X66.355 Y61.545 E4.01799 ; support material
G1 X65.498 Y61.545 E4.04343 ; support material
G1 X65.498 Y66.259 E4.18341 ; support material
G1 X64.641 Y66.259 E4.20885 ; support material
G1 X64.641 Y61.545 E4.34882 ; support material
G1 X63.784 Y61.545 E4.37427 ; support material
G1 X63.784 Y66.420 E4.51901 ; support material
G1 E0.91901 F3000.00000 ; retract
G92 E0 ; reset extrusion distance
